(** This GCode was generated by ReplicatorG 55 **)
(*  using Skeinforge (50)  *)
(*  for a Dual headed CNC Machine  *)
(*  on 2022/11/25 13:06:46 (+0800) *)
(**** start.gcode for The MigceTurbine, dual head ****)
M103 (disable RPM)
M73 P0 (Sky802)
G21 (set units to mm)
G90 (set positioning to absolute)
M109 S50 T0 (set HBP temperature) (set HBP temperature)
G4 P500 (Create Anchor)
M104 S200 T0 (set extruder temperature) (temp updated by printOMatic)
M104 S200 T1 (set extruder temperature) (temp updated by printOMatic)
(**** begin homing ****)
G162 X Y F2500 (home XY axes maximum)
G161 Z F1100 (home Z axis minimum)
G92 Z-5 (set Z to -5)
G1 Z0.0 (move Z to "0")
G161 Z F100 (home Z axis minimum)
M132 X Y Z A B (Recall stored home offsets for XYZAB axis)
(**** end homing ****)
G1 X-40.5 Y-55 Z150 F3300.0 (move to waiting position)
G130 X20 Y20 Z20 A20 B20 (Lower stepper Vrefs while heating)
M6 T0 (wait for toolhead, and HBP to reach temperature)
G130 X127 Y127 Z40 A127 B127 (Set Stepper motor Vref to defaults)
M108 R3.0 T0
G0 X-40.5 Y-55 (Position Nozzle)
G0 Z0.15 (Position Height)
M108 R4.0 (Set Extruder Speed)
M101 (Start Extruder)
G4 P2500 (Create Anchor)
G1 X-30.5 Y-54 F1500.0 (Create Pre-Anchor extrude)
G4 P500
G1 X-70.5 Y-55 F1500.0 (Create Pre-Anchor extrude)
G0 Z0.6 (Position Height)
G4 P500 (Create Anchor)
(**** end of start.gcode ****)
M105
(<format> skeinforge gcode </format>)
(<version> 12.03.14 </version>)
(<created> 22.11.25|13:6 </created>)
(<extruderInitialization>)
(<craftTypeName> extrusion </craftTypeName>)
M105
(<decimalPlacesCarried> 3 </decimalPlacesCarried>)
(<layerThickness> 0.2 </layerThickness>)
(<infillWidth> 0.4 </infillWidth>)
(<volumeFraction> 0.82 </volumeFraction>)
(<infillPerimeterOverlap> 0.3 </infillPerimeterOverlap>)
(<sharpestProduct> 0.866 </sharpestProduct>)
(<layerHeight> 0.2 </layerHeight>)
(<threadSequenceString> loops edge infill </threadSequenceString>)
(<maximumZFeedRatePerSecond> 999.0 </maximumZFeedRatePerSecond>)
(<objectFirstLayerFeedRateInfillMultiplier> 0.9 </objectFirstLayerFeedRateInfillMultiplier>)
(<operatingFeedRatePerSecond> 50.0 </operatingFeedRatePerSecond>)
(<objectFirstLayerFlowRateInfillMultiplier> 0.8 </objectFirstLayerFlowRateInfillMultiplier>)
(<operatingFlowRate> 50.0 </operatingFlowRate>)
(<orbitalFeedRatePerSecond> 0.0 </orbitalFeedRatePerSecond>)
(<travelFeedRatePerSecond> 90.0 </travelFeedRatePerSecond>)
(<edgeWidth> 0.4 </edgeWidth>)
(<perimeterWidth> 0.4 </perimeterWidth>)
(<profileName> ABS </profileName>)
(<settings>)
(<setting> alteration Activate_Alteration True </setting>)
(<setting> alteration Name_of_End_File:  </setting>)
(<setting> alteration Name_of_Start_File:  </setting>)
(<setting> alteration Remove_Redundant_Mcode True </setting>)
(<setting> alteration Replace_Variable_with_Setting True </setting>)
(<setting> comb Activate_Comb True </setting>)
(<setting> comb Running_Jump_Space_(mm): 2.0 </setting>)
(<setting> cool Activate_Cool True </setting>)
(<setting> cool Bridge_Cool_(Celcius): 1.0 </setting>)
(<setting> cool Orbit False </setting>)
(<setting> cool Slow_Down True </setting>)
(<setting> cool Maximum_Cool_(Celcius): 1.0 </setting>)
M73 P1 (display progress)
(<setting> cool Minimum_Layer_Time_(seconds): 5.0 </setting>)
(<setting> cool Minimum_Orbital_Radius_(millimeters): 10.0 </setting>)
(<setting> cool Name_of_Cool_End_File: cool_end.gcode </setting>)
(<setting> cool Name_of_Cool_Start_File: cool_start.gcode </setting>)
(<setting> cool Orbital_Outset_(millimeters): 2.0 </setting>)
(<setting> cool Turn_Fan_On_at_Beginning False </setting>)
(<setting> cool Turn_Fan_Off_at_Ending False </setting>)
(<setting> dimension Activate_Dimension True </setting>)
(<setting> dimension Absolute_Extrusion_Distance True </setting>)
(<setting> dimension Relative_Extrusion_Distance False </setting>)
(<setting> dimension Extruder_Retraction_Speed_(mm/s): 20.0 </setting>)
(<setting> dimension Filament_Diameter_(mm): 1.75 </setting>)
(<setting> dimension Filament_Packing_Density_(ratio): 0.85 </setting>)
(<setting> dimension Maximum_E_Value_before_Reset_(float): 91234.0 </setting>)
(<setting> dimension Minimum_Travel_for_Retraction_(millimeters): 1.0 </setting>)
(<setting> dimension Retract_Within_Island False </setting>)
(<setting> dimension Retraction_Distance_(millimeters): 1.0 </setting>)
(<setting> dimension Restart_Extra_Distance_(millimeters): 0.0 </setting>)
(<setting> export Activate_Export True </setting>)
(<setting> export Add_Descriptive_Extension False </setting>)
(<setting> export Add_Export_Suffix False </setting>)
(<setting> export Add_Profile_Extension False </setting>)
(<setting> export Add_Timestamp_Extension False </setting>)
(<setting> export Also_Send_Output_To:  </setting>)
(<setting> export Analyze_Gcode True </setting>)
(<setting> export Do_Not_Delete_Comments True </setting>)
(<setting> export Delete_Crafting_Comments False </setting>)
(<setting> export Delete_All_Comments False </setting>)
(<setting> export Do_Not_Change_Output True </setting>)
(<setting> export binary_16_byte False </setting>)
(<setting> export gcode_step False </setting>)
(<setting> export gcode_time_segment False </setting>)
(<setting> export gcode_small False </setting>)
(<setting> export File_Extension: gcode </setting>)
(<setting> export Name_of_Replace_File: replace.csv </setting>)
(<setting> export Save_Penultimate_Gcode False </setting>)
(<setting> fill Activate_Fill True </setting>)
(<setting> fill Diaphragm_Period_(layers): 100 </setting>)
(<setting> fill Diaphragm_Thickness_(layers): 0 </setting>)
(<setting> fill Extra_Shells_on_Alternating_Solid_Layer_(layers): 1 </setting>)
(<setting> fill Extra_Shells_on_Base_(layers): 1 </setting>)
(<setting> fill Extra_Shells_on_Sparse_Layer_(layers): 1 </setting>)
(<setting> fill Grid_Circle_Separation_over_Perimeter_Width_(ratio): 0.2 </setting>)
(<setting> fill Grid_Extra_Overlap_(ratio): 0.1 </setting>)
(<setting> fill Grid_Junction_Separation_Band_Height_(layers): 10 </setting>)
(<setting> fill Grid_Junction_Separation_over_Octogon_Radius_At_End_(ratio): 0.0 </setting>)
(<setting> fill Grid_Junction_Separation_over_Octogon_Radius_At_Middle_(ratio): 0.0 </setting>)
(<setting> fill Infill_Begin_Rotation_(degrees): 90.0 </setting>)
(<setting> fill Infill_Begin_Rotation_Repeat_(layers): 1 </setting>)
(<setting> fill Infill_Odd_Layer_Extra_Rotation_(degrees): 90.0 </setting>)
(<setting> fill Grid_Circular False </setting>)
(<setting> fill Grid_Hexagonal False </setting>)
(<setting> fill Grid_Rectangular True </setting>)
(<setting> fill Line False </setting>)
(<setting> fill Infill_Perimeter_Overlap_(ratio): 0.3 </setting>)
(<setting> fill Infill_Solidity_(ratio): 0.1 </setting>)
(<setting> fill Sharpest_Angle_(degrees): 60.0 </setting>)
(<setting> fill Solid_Surface_Thickness_(layers): 3 </setting>)
(<setting> fill Lower_Left True </setting>)
(<setting> fill Nearest False </setting>)
(<setting> fill Surrounding_Angle_(degrees): 60.0 </setting>)
(<setting> fill Infill_>_Loops_>_Perimeter False </setting>)
(<setting> fill Infill_>_Perimeter_>_Loops False </setting>)
(<setting> fill Loops_>_Infill_>_Perimeter False </setting>)
(<setting> fill Loops_>_Perimeter_>_Infill True </setting>)
(<setting> fill Perimeter_>_Infill_>_Loops False </setting>)
(<setting> fill Perimeter_>_Loops_>_Infill False </setting>)
(<setting> home Activate_Home True </setting>)
(<setting> home Name_of_Home_File: home.gcode </setting>)
(<setting> jitter Activate_Jitter True </setting>)
(<setting> jitter Jitter_Over_Perimeter_Width_(ratio): 2.0 </setting>)
(<setting> raft Activate_Raft True </setting>)
(<setting> raft Add_Raft,_Elevate_Nozzle,_Orbit: True </setting>)
(<setting> raft Base_Feed_Rate_Multiplier_(ratio): 0.75 </setting>)
(<setting> raft Base_Flow_Rate_Multiplier_(ratio): 0.6 </setting>)
(<setting> raft Base_Infill_Density_(ratio): 0.3 </setting>)
(<setting> raft Base_Layer_Thickness_over_Layer_Thickness: 2.2 </setting>)
(<setting> raft Base_Layers_(integer): 1 </setting>)
(<setting> raft Base_Nozzle_Lift_over_Base_Layer_Thickness_(ratio): 0.3 </setting>)
(<setting> raft Initial_Circling: False </setting>)
(<setting> raft Infill_Overhang_over_Extrusion_Width_(ratio): 0.1 </setting>)
(<setting> raft Interface_Feed_Rate_Multiplier_(ratio): 1.5 </setting>)
(<setting> raft Interface_Flow_Rate_Multiplier_(ratio): 0.7 </setting>)
(<setting> raft Interface_Infill_Density_(ratio): 0.4 </setting>)
(<setting> raft Interface_Layer_Thickness_over_Layer_Thickness: 1.8 </setting>)
(<setting> raft Interface_Layers_(integer): 2 </setting>)
(<setting> raft Interface_Nozzle_Lift_over_Interface_Layer_Thickness_(ratio): 0.3 </setting>)
(<setting> raft Name_of_Support_End_File: support_end.gcode </setting>)
(<setting> raft Name_of_Support_Start_File: support_start.gcode </setting>)
(<setting> raft Operating_Nozzle_Lift_over_Layer_Thickness_(ratio): 0.0 </setting>)
(<setting> raft Raft_Additional_Margin_over_Length_(%): 2.5 </setting>)
(<setting> raft Raft_Margin_(mm): 2.5 </setting>)
(<setting> raft Support_Cross_Hatch False </setting>)
(<setting> raft Support_Flow_Rate_over_Operating_Flow_Rate_(ratio): 0.7 </setting>)
(<setting> raft Support_Gap_over_Perimeter_Extrusion_Width_(ratio): 0.005 </setting>)
(<setting> raft None True </setting>)
(<setting> raft Empty_Layers_Only False </setting>)
(<setting> raft Everywhere False </setting>)
(<setting> raft Exterior_Only False </setting>)
(<setting> raft Support_Minimum_Angle_(degrees): 45.0 </setting>)
(<setting> speed Activate_Speed True </setting>)
(<setting> speed Add_Flow_Rate: True </setting>)
(<setting> speed Bridge_Feed_Rate_Multiplier_(ratio): 1.0 </setting>)
(<setting> speed Bridge_Flow_Rate_Multiplier_(ratio): 1.0 </setting>)
(<setting> speed Duty_Cyle_at_Beginning_(portion): 1.0 </setting>)
(<setting> speed Duty_Cyle_at_Ending_(portion): 0.0 </setting>)
(<setting> speed Feed_Rate_(mm/s): 50.0 </setting>)
(<setting> speed Flow_Rate_Setting_(float): 50.0 </setting>)
(<setting> speed Object_First_Layer_Feed_Rate_Infill_Multiplier_(ratio): 0.9 </setting>)
(<setting> speed Object_First_Layer_Feed_Rate_Perimeter_Multiplier_(ratio): 0.9 </setting>)
(<setting> speed Object_First_Layer_Flow_Rate_Infill_Multiplier_(ratio): 0.8 </setting>)
(<setting> speed Object_First_Layer_Flow_Rate_Perimeter_Multiplier_(ratio): 0.9 </setting>)
(<setting> speed Orbital_Feed_Rate_over_Operating_Feed_Rate_(ratio): 0.0 </setting>)
(<setting> speed Maximum_Z_Feed_Rate_(mm/s): 999.0 </setting>)
(<setting> speed Perimeter_Feed_Rate_Multiplier_(ratio): 0.5 </setting>)
(<setting> speed Perimeter_Flow_Rate_Multiplier_(ratio): 0.5 </setting>)
(<setting> speed Travel_Feed_Rate_(mm/s): 90.0 </setting>)
(</settings>)
(<timeStampPreface> 20221125_130638 </timeStampPreface>)
(<procedureName> carve </procedureName>)
(<procedureName> preface </procedureName>)
(<procedureName> inset </procedureName>)
(<procedureName> fill </procedureName>)
(<procedureName> speed </procedureName>)
(<procedureName> raft </procedureName>)
(<procedureName> jitter </procedureName>)
(<procedureName> comb </procedureName>)
(<procedureName> cool </procedureName>)
(<procedureName> dimension </procedureName>)
(<procedureName> alteration </procedureName>)
(<procedureName> export </procedureName>)
(</extruderInitialization>)
(<crafting>)
;M113 S1.0
;M108 R30.0
(<raftPerimeter>)
(<raftPoint> X-18.125 Y-7.908 </raftPoint>)
(<raftPoint> X-10.675 Y-7.908 </raftPoint>)
(<raftPoint> X-7.075 Y-6.108 </raftPoint>)
(<raftPoint> X7.075 Y-6.108 </raftPoint>)
(<raftPoint> X10.675 Y-7.908 </raftPoint>)
(<raftPoint> X18.125 Y-7.908 </raftPoint>)
(<raftPoint> X21.725 Y-6.108 </raftPoint>)
(<raftPoint> X23.66 Y-6.108 </raftPoint>)
(<raftPoint> X24.067 Y-5.58 </raftPoint>)
(<raftPoint> X24.067 Y5.58 </raftPoint>)
(<raftPoint> X23.66 Y6.108 </raftPoint>)
(<raftPoint> X21.725 Y6.108 </raftPoint>)
(<raftPoint> X18.125 Y7.908 </raftPoint>)
(<raftPoint> X10.675 Y7.908 </raftPoint>)
(<raftPoint> X7.075 Y6.108 </raftPoint>)
(<raftPoint> X-7.075 Y6.108 </raftPoint>)
(<raftPoint> X-10.675 Y7.908 </raftPoint>)
(<raftPoint> X-18.125 Y7.908 </raftPoint>)
(<raftPoint> X-21.725 Y6.108 </raftPoint>)
(<raftPoint> X-23.66 Y6.108 </raftPoint>)
(<raftPoint> X-24.067 Y5.58 </raftPoint>)
(<raftPoint> X-24.067 Y-5.58 </raftPoint>)
(<raftPoint> X-23.66 Y-6.108 </raftPoint>)
(<raftPoint> X-21.725 Y-6.108 </raftPoint>)
(</raftPerimeter>)
(<layer> 0.352 )
G1 X-23.47 Y-5.49 Z0.35 F5400.0
G1 F1200.0
G1 E1.0
G1 F5400.0
M101
G1 X-23.47 Y5.49 Z0.35 F464.876 E2.663
G1 X-20.53 Y5.49 Z0.35 F464.876 E3.108
G1 X-20.53 Y-5.49 Z0.35 F464.876 E4.77
G1 X-17.6 Y-7.29 Z0.35 F464.876 E5.292
G1 X-17.6 Y7.29 Z0.35 F464.876 E7.5
G1 X-14.67 Y7.29 Z0.35 F464.876 E7.945
G1 X-14.67 Y-7.29 Z0.35 F464.876 E10.153
G1 X-11.73 Y-7.29 Z0.35 F464.876 E10.598
G1 X-11.73 Y7.29 Z0.35 F464.876 E12.806
G1 X-8.8 Y5.49 Z0.35 F464.876 E13.327
G1 X-8.8 Y-5.49 Z0.35 F464.876 E14.99
M73 P2 (display progress)
G1 X-5.87 Y-5.49 Z0.35 F464.876 E15.435
G1 X-5.87 Y5.49 Z0.35 F464.876 E17.098
G1 X-2.93 Y5.49 Z0.35 F464.876 E17.542
G1 X-2.93 Y-5.49 Z0.35 F464.876 E19.205
G1 X0.0 Y-5.49 Z0.35 F464.876 E19.65
G1 X0.0 Y5.49 Z0.35 F464.876 E21.313
G1 X2.93 Y5.49 Z0.35 F464.876 E21.757
G1 X2.93 Y-5.49 Z0.35 F464.876 E23.42
G1 X5.87 Y-5.49 Z0.35 F464.876 E23.864
G1 X5.87 Y5.49 Z0.35 F464.876 E25.527
G1 X8.8 Y5.49 Z0.35 F464.876 E25.972
G1 X8.8 Y-5.49 Z0.35 F464.876 E27.635
G1 X11.73 Y-7.29 Z0.35 F464.876 E28.156
G1 X11.73 Y7.29 Z0.35 F464.876 E30.365
G1 X14.67 Y7.29 Z0.35 F464.876 E30.809
G1 X14.67 Y-7.29 Z0.35 F464.876 E33.017
G1 X17.6 Y-7.29 Z0.35 F464.876 E33.462
G1 X17.6 Y7.29 Z0.35 F464.876 E35.67
G1 X20.53 Y5.49 Z0.35 F464.876 E36.192
G1 X20.53 Y-5.49 Z0.35 F464.876 E37.855
G1 X23.47 Y-5.49 Z0.35 F464.876 E38.299
G1 X23.47 Y5.49 Z0.35 F464.876 E39.962
G1 F1200.0
G1 E38.962
G1 F464.876
M103
;M108 R35.0
(</layer>)
(<layer> 0.728 )
G1 X-23.54 Y0.0 Z0.73 F5400.0
G1 F1200.0
G1 E39.962
G1 F5400.0
M101
G1 X23.54 Y0.0 Z0.73 F1388.889 E42.747
G1 X23.54 Y-1.8 Z0.73 F1388.889 E42.854
G1 X-23.54 Y-1.8 Z0.73 F1388.889 E45.639
G1 X-23.54 Y-3.6 Z0.73 F1388.889 E45.746
G1 X23.54 Y-3.6 Z0.73 F1388.889 E48.531
G1 X23.54 Y-5.4 Z0.73 F1388.889 E48.638
G1 X-23.54 Y-5.4 Z0.73 F1388.889 E51.423
G1 F1200.0
G1 E50.423
G1 F1388.889
M103
G1 X-17.67 Y-7.2 Z0.73 F5400.0
G1 F1200.0
G1 E51.423
G1 F5400.0
M101
G1 X-11.66 Y-7.2 Z0.73 F1388.889 E51.779
G1 F1200.0
G1 E50.779
G1 F1388.889
M103
G1 X-11.66 Y7.2 Z0.73 F5400.0
G1 F1200.0
G1 E51.779
G1 F5400.0
M101
G1 X-17.67 Y7.2 Z0.73 F1388.889 E52.134
G1 F1200.0
G1 E51.134
G1 F1388.889
M103
G1 X-23.54 Y5.4 Z0.73 F5400.0
G1 F1200.0
G1 E52.134
G1 F5400.0
M101
G1 X23.54 Y5.4 Z0.73 F1388.889 E54.919
G1 X23.54 Y3.6 Z0.73 F1388.889 E55.026
G1 X-23.54 Y3.6 Z0.73 F1388.889 E57.811
G1 X-23.54 Y1.8 Z0.73 F1388.889 E57.918
G1 X23.54 Y1.8 Z0.73 F1388.889 E60.703
G1 F1200.0
G1 E59.703
G1 F1388.889
M103
G1 X17.67 Y7.2 Z0.73 F5400.0
G1 F1200.0
G1 E60.703
G1 F5400.0
M101
G1 X11.66 Y7.2 Z0.73 F1388.889 E61.059
G1 F1200.0
G1 E60.059
G1 F1388.889
M103
G1 X11.66 Y-7.2 Z0.73 F5400.0
G1 F1200.0
G1 E61.059
G1 F5400.0
M101
G1 X17.67 Y-7.2 Z0.73 F1388.889 E61.414
G1 F1200.0
G1 E60.414
G1 F1388.889
M103
;M108 R35.0
(</layer>)
(<layer> 1.088 )
G1 X-23.54 Y0.0 Z1.09 F5400.0
G1 F1200.0
G1 E61.414
G1 F5400.0
M101
G1 X23.54 Y0.0 Z1.09 F1388.889 E64.2
G1 X23.54 Y-1.8 Z1.09 F1388.889 E64.306
G1 X-23.54 Y-1.8 Z1.09 F1388.889 E67.091
G1 X-23.54 Y-3.6 Z1.09 F1388.889 E67.198
G1 X23.54 Y-3.6 Z1.09 F1388.889 E69.983
G1 X23.54 Y-5.4 Z1.09 F1388.889 E70.09
G1 X-23.54 Y-5.4 Z1.09 F1388.889 E72.875
G1 F1200.0
G1 E71.875
G1 F1388.889
M103
G1 X-17.67 Y-7.2 Z1.09 F5400.0
G1 F1200.0
G1 E72.875
G1 F5400.0
M101
G1 X-11.66 Y-7.2 Z1.09 F1388.889 E73.231
G1 F1200.0
G1 E72.231
G1 F1388.889
M103
G1 X-11.66 Y7.2 Z1.09 F5400.0
G1 F1200.0
G1 E73.231
G1 F5400.0
M101
G1 X-17.67 Y7.2 Z1.09 F1388.889 E73.586
G1 F1200.0
G1 E72.586
G1 F1388.889
M103
G1 X-23.54 Y5.4 Z1.09 F5400.0
G1 F1200.0
G1 E73.586
G1 F5400.0
M101
G1 X23.54 Y5.4 Z1.09 F1388.889 E76.372
G1 X23.54 Y3.6 Z1.09 F1388.889 E76.478
G1 X-23.54 Y3.6 Z1.09 F1388.889 E79.264
G1 X-23.54 Y1.8 Z1.09 F1388.889 E79.37
G1 X23.54 Y1.8 Z1.09 F1388.889 E82.155
G1 F1200.0
G1 E81.155
G1 F1388.889
M103
G1 X17.67 Y7.2 Z1.09 F5400.0
G1 F1200.0
G1 E82.155
G1 F5400.0
M101
G1 X11.66 Y7.2 Z1.09 F1388.889 E82.511
G1 F1200.0
G1 E81.511
G1 F1388.889
M103
G1 X11.66 Y-7.2 Z1.09 F5400.0
G1 F1200.0
G1 E82.511
G1 F5400.0
M101
G1 X17.67 Y-7.2 Z1.09 F1388.889 E82.867
G1 F1200.0
G1 E81.867
G1 F1388.889
M103
;M108 R22.5
(</layer>)
(<raftLayerEnd> </raftLayerEnd>)
(<layer> 1.26 )
(<rotation> (6.12323399574e-17+1j) )
(<nestedRing>)
M73 P3 (display progress)
(<boundaryPerimeter>)
(<boundaryPoint> X13.765 Y-3.604 Z1.26 </boundaryPoint>)
(<boundaryPoint> X14.168 Y-3.772 Z1.26 </boundaryPoint>)
(<boundaryPoint> X14.587 Y-3.894 Z1.26 </boundaryPoint>)
(<boundaryPoint> X15.017 Y-3.971 Z1.26 </boundaryPoint>)
(<boundaryPoint> X15.452 Y-4.0 Z1.26 </boundaryPoint>)
(<boundaryPoint> X15.888 Y-3.981 Z1.26 </boundaryPoint>)
(<boundaryPoint> X16.319 Y-3.915 Z1.26 </boundaryPoint>)
(<boundaryPoint> X16.741 Y-3.803 Z1.26 </boundaryPoint>)
(<boundaryPoint> X17.148 Y-3.645 Z1.26 </boundaryPoint>)
(<boundaryPoint> X17.535 Y-3.444 Z1.26 </boundaryPoint>)
(<boundaryPoint> X17.898 Y-3.201 Z1.26 </boundaryPoint>)
(<boundaryPoint> X18.233 Y-2.921 Z1.26 </boundaryPoint>)
(<boundaryPoint> X18.535 Y-2.606 Z1.26 </boundaryPoint>)
(<boundaryPoint> X18.801 Y-2.26 Z1.26 </boundaryPoint>)
(<boundaryPoint> X19.027 Y-1.887 Z1.26 </boundaryPoint>)
(<boundaryPoint> X19.212 Y-1.491 Z1.26 </boundaryPoint>)
(<boundaryPoint> X19.352 Y-1.078 Z1.26 </boundaryPoint>)
(<boundaryPoint> X19.447 Y-0.652 Z1.26 </boundaryPoint>)
(<boundaryPoint> X19.494 Y-0.218 Z1.26 </boundaryPoint>)
(<boundaryPoint> X19.494 Y0.218 Z1.26 </boundaryPoint>)
(<boundaryPoint> X19.447 Y0.652 Z1.26 </boundaryPoint>)
(<boundaryPoint> X19.352 Y1.078 Z1.26 </boundaryPoint>)
(<boundaryPoint> X19.212 Y1.491 Z1.26 </boundaryPoint>)
(<boundaryPoint> X19.027 Y1.887 Z1.26 </boundaryPoint>)
(<boundaryPoint> X18.801 Y2.26 Z1.26 </boundaryPoint>)
(<boundaryPoint> X18.535 Y2.606 Z1.26 </boundaryPoint>)
(<boundaryPoint> X18.233 Y2.921 Z1.26 </boundaryPoint>)
(<boundaryPoint> X17.898 Y3.201 Z1.26 </boundaryPoint>)
(<boundaryPoint> X17.535 Y3.444 Z1.26 </boundaryPoint>)
(<boundaryPoint> X17.148 Y3.645 Z1.26 </boundaryPoint>)
(<boundaryPoint> X16.741 Y3.803 Z1.26 </boundaryPoint>)
(<boundaryPoint> X16.319 Y3.915 Z1.26 </boundaryPoint>)
(<boundaryPoint> X15.888 Y3.981 Z1.26 </boundaryPoint>)
(<boundaryPoint> X15.452 Y4.0 Z1.26 </boundaryPoint>)
(<boundaryPoint> X15.017 Y3.971 Z1.26 </boundaryPoint>)
(<boundaryPoint> X14.587 Y3.894 Z1.26 </boundaryPoint>)
(<boundaryPoint> X14.168 Y3.772 Z1.26 </boundaryPoint>)
(<boundaryPoint> X13.765 Y3.604 Z1.26 </boundaryPoint>)
(<boundaryPoint> X13.383 Y3.394 Z1.26 </boundaryPoint>)
(<boundaryPoint> X12.753 Y2.952 Z1.26 </boundaryPoint>)
(<boundaryPoint> X12.46 Y2.792 Z1.26 </boundaryPoint>)
(<boundaryPoint> X12.152 Y2.665 Z1.26 </boundaryPoint>)
(<boundaryPoint> X11.831 Y2.574 Z1.26 </boundaryPoint>)
(<boundaryPoint> X11.503 Y2.519 Z1.26 </boundaryPoint>)
(<boundaryPoint> X-11.503 Y2.519 Z1.26 </boundaryPoint>)
(<boundaryPoint> X-11.831 Y2.574 Z1.26 </boundaryPoint>)
(<boundaryPoint> X-12.152 Y2.665 Z1.26 </boundaryPoint>)
(<boundaryPoint> X-12.46 Y2.792 Z1.26 </boundaryPoint>)
(<boundaryPoint> X-12.753 Y2.952 Z1.26 </boundaryPoint>)
(<boundaryPoint> X-13.383 Y3.394 Z1.26 </boundaryPoint>)
(<boundaryPoint> X-13.765 Y3.604 Z1.26 </boundaryPoint>)
(<boundaryPoint> X-14.168 Y3.772 Z1.26 </boundaryPoint>)
(<boundaryPoint> X-14.587 Y3.894 Z1.26 </boundaryPoint>)
(<boundaryPoint> X-15.017 Y3.971 Z1.26 </boundaryPoint>)
(<boundaryPoint> X-15.452 Y4.0 Z1.26 </boundaryPoint>)
(<boundaryPoint> X-15.888 Y3.981 Z1.26 </boundaryPoint>)
(<boundaryPoint> X-16.319 Y3.915 Z1.26 </boundaryPoint>)
(<boundaryPoint> X-16.741 Y3.803 Z1.26 </boundaryPoint>)
(<boundaryPoint> X-17.148 Y3.645 Z1.26 </boundaryPoint>)
(<boundaryPoint> X-17.535 Y3.444 Z1.26 </boundaryPoint>)
(<boundaryPoint> X-17.898 Y3.201 Z1.26 </boundaryPoint>)
(<boundaryPoint> X-18.233 Y2.921 Z1.26 </boundaryPoint>)
(<boundaryPoint> X-18.535 Y2.606 Z1.26 </boundaryPoint>)
(<boundaryPoint> X-18.801 Y2.26 Z1.26 </boundaryPoint>)
(<boundaryPoint> X-19.027 Y1.887 Z1.26 </boundaryPoint>)
(<boundaryPoint> X-19.212 Y1.491 Z1.26 </boundaryPoint>)
(<boundaryPoint> X-19.352 Y1.078 Z1.26 </boundaryPoint>)
(<boundaryPoint> X-19.447 Y0.652 Z1.26 </boundaryPoint>)
(<boundaryPoint> X-19.494 Y0.218 Z1.26 </boundaryPoint>)
(<boundaryPoint> X-19.494 Y-0.218 Z1.26 </boundaryPoint>)
(<boundaryPoint> X-19.447 Y-0.652 Z1.26 </boundaryPoint>)
(<boundaryPoint> X-19.352 Y-1.078 Z1.26 </boundaryPoint>)
(<boundaryPoint> X-19.212 Y-1.491 Z1.26 </boundaryPoint>)
(<boundaryPoint> X-19.027 Y-1.887 Z1.26 </boundaryPoint>)
(<boundaryPoint> X-18.801 Y-2.26 Z1.26 </boundaryPoint>)
(<boundaryPoint> X-18.535 Y-2.606 Z1.26 </boundaryPoint>)
(<boundaryPoint> X-18.233 Y-2.921 Z1.26 </boundaryPoint>)
(<boundaryPoint> X-17.898 Y-3.201 Z1.26 </boundaryPoint>)
(<boundaryPoint> X-17.535 Y-3.444 Z1.26 </boundaryPoint>)
(<boundaryPoint> X-17.148 Y-3.645 Z1.26 </boundaryPoint>)
(<boundaryPoint> X-16.741 Y-3.803 Z1.26 </boundaryPoint>)
(<boundaryPoint> X-16.319 Y-3.915 Z1.26 </boundaryPoint>)
(<boundaryPoint> X-15.888 Y-3.981 Z1.26 </boundaryPoint>)
(<boundaryPoint> X-15.452 Y-4.0 Z1.26 </boundaryPoint>)
(<boundaryPoint> X-15.017 Y-3.971 Z1.26 </boundaryPoint>)
(<boundaryPoint> X-14.587 Y-3.894 Z1.26 </boundaryPoint>)
(<boundaryPoint> X-14.168 Y-3.772 Z1.26 </boundaryPoint>)
(<boundaryPoint> X-13.765 Y-3.604 Z1.26 </boundaryPoint>)
(<boundaryPoint> X-13.383 Y-3.394 Z1.26 </boundaryPoint>)
(<boundaryPoint> X-12.753 Y-2.952 Z1.26 </boundaryPoint>)
(<boundaryPoint> X-12.46 Y-2.792 Z1.26 </boundaryPoint>)
(<boundaryPoint> X-12.152 Y-2.665 Z1.26 </boundaryPoint>)
(<boundaryPoint> X-11.831 Y-2.574 Z1.26 </boundaryPoint>)
(<boundaryPoint> X-11.503 Y-2.519 Z1.26 </boundaryPoint>)
(<boundaryPoint> X11.503 Y-2.519 Z1.26 </boundaryPoint>)
(<boundaryPoint> X11.831 Y-2.574 Z1.26 </boundaryPoint>)
(<boundaryPoint> X12.152 Y-2.665 Z1.26 </boundaryPoint>)
(<boundaryPoint> X12.46 Y-2.792 Z1.26 </boundaryPoint>)
(<boundaryPoint> X12.753 Y-2.952 Z1.26 </boundaryPoint>)
(<boundaryPoint> X13.383 Y-3.394 Z1.26 </boundaryPoint>)
(<edge> outer )
G1 X-18.18 Y-2.69 Z1.26 F5400.0
G1 F1200.0
G1 E82.867
G1 F5400.0
M101
G1 X-18.1 Y-2.77 Z1.26 F1350.0 E82.871
G1 X-17.78 Y-3.04 Z1.26 F1350.0 E82.888
G1 X-17.43 Y-3.27 Z1.26 F1350.0 E82.904
G1 X-17.07 Y-3.46 Z1.26 F1350.0 E82.92
G1 X-16.68 Y-3.61 Z1.26 F1350.0 E82.936
G1 X-16.28 Y-3.72 Z1.26 F1350.0 E82.953
G1 X-15.87 Y-3.78 Z1.26 F1350.0 E82.969
G1 X-15.45 Y-3.8 Z1.26 F1350.0 E82.985
G1 X-15.04 Y-3.77 Z1.26 F1350.0 E83.001
G1 X-14.63 Y-3.7 Z1.26 F1350.0 E83.017
G1 X-14.23 Y-3.58 Z1.26 F1350.0 E83.034
G1 X-13.85 Y-3.42 Z1.26 F1350.0 E83.05
G1 X-13.49 Y-3.22 Z1.26 F1350.0 E83.066
G1 X-12.86 Y-2.78 Z1.26 F1350.0 E83.096
G1 X-12.55 Y-2.61 Z1.26 F1350.0 E83.11
G1 X-12.22 Y-2.48 Z1.26 F1350.0 E83.124
G1 X-11.88 Y-2.38 Z1.26 F1350.0 E83.138
G1 X-11.52 Y-2.32 Z1.26 F1350.0 E83.152
G1 X11.52 Y-2.32 Z1.26 F1350.0 E84.054
G1 X11.88 Y-2.38 Z1.26 F1350.0 E84.068
G1 X12.22 Y-2.48 Z1.26 F1350.0 E84.082
G1 X12.55 Y-2.61 Z1.26 F1350.0 E84.095
G1 X12.86 Y-2.78 Z1.26 F1350.0 E84.109
G1 X13.49 Y-3.22 Z1.26 F1350.0 E84.14
G1 X13.85 Y-3.42 Z1.26 F1350.0 E84.156
G1 X14.23 Y-3.58 Z1.26 F1350.0 E84.172
G1 X14.63 Y-3.7 Z1.26 F1350.0 E84.188
G1 X15.04 Y-3.77 Z1.26 F1350.0 E84.204
G1 X15.45 Y-3.8 Z1.26 F1350.0 E84.221
G1 X15.87 Y-3.78 Z1.26 F1350.0 E84.237
G1 X16.28 Y-3.72 Z1.26 F1350.0 E84.253
G1 X16.68 Y-3.61 Z1.26 F1350.0 E84.269
G1 X17.07 Y-3.46 Z1.26 F1350.0 E84.286
G1 X17.43 Y-3.27 Z1.26 F1350.0 E84.302
G1 X17.78 Y-3.04 Z1.26 F1350.0 E84.318
G1 X18.1 Y-2.77 Z1.26 F1350.0 E84.334
G1 X18.38 Y-2.48 Z1.26 F1350.0 E84.35
G1 X18.64 Y-2.15 Z1.26 F1350.0 E84.367
G1 X18.85 Y-1.79 Z1.26 F1350.0 E84.383
G1 X19.03 Y-1.42 Z1.26 F1350.0 E84.399
G1 X19.16 Y-1.02 Z1.26 F1350.0 E84.415
G1 X19.25 Y-0.62 Z1.26 F1350.0 E84.432
G1 X19.29 Y-0.21 Z1.26 F1350.0 E84.448
G1 X19.29 Y0.21 Z1.26 F1350.0 E84.464
G1 X19.25 Y0.62 Z1.26 F1350.0 E84.48
G1 X19.16 Y1.02 Z1.26 F1350.0 E84.496
G1 X19.03 Y1.42 Z1.26 F1350.0 E84.513
G1 X18.85 Y1.79 Z1.26 F1350.0 E84.529
G1 X18.64 Y2.15 Z1.26 F1350.0 E84.545
G1 X18.38 Y2.48 Z1.26 F1350.0 E84.561
G1 X18.1 Y2.77 Z1.26 F1350.0 E84.578
G1 X17.78 Y3.04 Z1.26 F1350.0 E84.594
G1 X17.43 Y3.27 Z1.26 F1350.0 E84.61
G1 X17.07 Y3.46 Z1.26 F1350.0 E84.626
G1 X16.68 Y3.61 Z1.26 F1350.0 E84.642
G1 X16.28 Y3.72 Z1.26 F1350.0 E84.659
G1 X15.87 Y3.78 Z1.26 F1350.0 E84.675
G1 X15.45 Y3.8 Z1.26 F1350.0 E84.691
G1 X15.04 Y3.77 Z1.26 F1350.0 E84.707
G1 X14.63 Y3.7 Z1.26 F1350.0 E84.724
G1 X14.23 Y3.58 Z1.26 F1350.0 E84.74
G1 X13.85 Y3.42 Z1.26 F1350.0 E84.756
G1 X13.49 Y3.22 Z1.26 F1350.0 E84.772
G1 X12.86 Y2.78 Z1.26 F1350.0 E84.802
G1 X12.55 Y2.61 Z1.26 F1350.0 E84.816
G1 X12.22 Y2.48 Z1.26 F1350.0 E84.83
G1 X11.88 Y2.38 Z1.26 F1350.0 E84.844
G1 X11.52 Y2.32 Z1.26 F1350.0 E84.858
G1 X-11.52 Y2.32 Z1.26 F1350.0 E85.76
G1 X-11.88 Y2.38 Z1.26 F1350.0 E85.774
G1 X-12.22 Y2.48 Z1.26 F1350.0 E85.788
M73 P4 (display progress)
G1 X-12.55 Y2.61 Z1.26 F1350.0 E85.802
G1 X-12.86 Y2.78 Z1.26 F1350.0 E85.816
G1 X-13.49 Y3.22 Z1.26 F1350.0 E85.846
G1 X-13.85 Y3.42 Z1.26 F1350.0 E85.862
G1 X-14.23 Y3.58 Z1.26 F1350.0 E85.878
G1 X-14.63 Y3.7 Z1.26 F1350.0 E85.894
G1 X-15.04 Y3.77 Z1.26 F1350.0 E85.911
G1 X-15.45 Y3.8 Z1.26 F1350.0 E85.927
G1 X-15.87 Y3.78 Z1.26 F1350.0 E85.943
G1 X-16.28 Y3.72 Z1.26 F1350.0 E85.959
G1 X-16.68 Y3.61 Z1.26 F1350.0 E85.975
G1 X-17.07 Y3.46 Z1.26 F1350.0 E85.992
G1 X-17.43 Y3.27 Z1.26 F1350.0 E86.008
G1 X-17.78 Y3.04 Z1.26 F1350.0 E86.024
G1 X-18.1 Y2.77 Z1.26 F1350.0 E86.04
G1 X-18.38 Y2.48 Z1.26 F1350.0 E86.057
G1 X-18.64 Y2.15 Z1.26 F1350.0 E86.073
G1 X-18.85 Y1.79 Z1.26 F1350.0 E86.089
G1 X-19.03 Y1.42 Z1.26 F1350.0 E86.105
G1 X-19.16 Y1.02 Z1.26 F1350.0 E86.121
G1 X-19.25 Y0.62 Z1.26 F1350.0 E86.138
G1 X-19.29 Y0.21 Z1.26 F1350.0 E86.154
G1 X-19.29 Y-0.21 Z1.26 F1350.0 E86.17
G1 X-19.25 Y-0.62 Z1.26 F1350.0 E86.186
G1 X-19.16 Y-1.02 Z1.26 F1350.0 E86.203
G1 X-19.03 Y-1.42 Z1.26 F1350.0 E86.219
G1 X-18.85 Y-1.79 Z1.26 F1350.0 E86.235
G1 X-18.64 Y-2.15 Z1.26 F1350.0 E86.251
G1 X-18.38 Y-2.48 Z1.26 F1350.0 E86.267
G1 X-18.18 Y-2.69 Z1.26 F1350.0 E86.279
G1 F1200.0
G1 E85.427
G1 F1350.0
M103
(</edge>)
(</boundaryPerimeter>)
(<nestedRing>)
(<boundaryPerimeter>)
(<boundaryPoint> X-14.932 Y1.655 Z1.26 </boundaryPoint>)
(<boundaryPoint> X-14.667 Y1.539 Z1.26 </boundaryPoint>)
(<boundaryPoint> X-14.425 Y1.381 Z1.26 </boundaryPoint>)
(<boundaryPoint> X-14.212 Y1.185 Z1.26 </boundaryPoint>)
(<boundaryPoint> X-14.035 Y0.957 Z1.26 </boundaryPoint>)
(<boundaryPoint> X-13.897 Y0.703 Z1.26 </boundaryPoint>)
(<boundaryPoint> X-13.804 Y0.43 Z1.26 </boundaryPoint>)
(<boundaryPoint> X-13.756 Y0.145 Z1.26 </boundaryPoint>)
(<boundaryPoint> X-13.756 Y-0.145 Z1.26 </boundaryPoint>)
(<boundaryPoint> X-13.804 Y-0.43 Z1.26 </boundaryPoint>)
(<boundaryPoint> X-13.897 Y-0.703 Z1.26 </boundaryPoint>)
(<boundaryPoint> X-14.035 Y-0.957 Z1.26 </boundaryPoint>)
(<boundaryPoint> X-14.212 Y-1.185 Z1.26 </boundaryPoint>)
(<boundaryPoint> X-14.425 Y-1.381 Z1.26 </boundaryPoint>)
(<boundaryPoint> X-14.667 Y-1.539 Z1.26 </boundaryPoint>)
(<boundaryPoint> X-14.932 Y-1.655 Z1.26 </boundaryPoint>)
(<boundaryPoint> X-15.212 Y-1.726 Z1.26 </boundaryPoint>)
(<boundaryPoint> X-15.5 Y-1.75 Z1.26 </boundaryPoint>)
(<boundaryPoint> X-15.788 Y-1.726 Z1.26 </boundaryPoint>)
(<boundaryPoint> X-16.068 Y-1.655 Z1.26 </boundaryPoint>)
(<boundaryPoint> X-16.333 Y-1.539 Z1.26 </boundaryPoint>)
(<boundaryPoint> X-16.575 Y-1.381 Z1.26 </boundaryPoint>)
(<boundaryPoint> X-16.788 Y-1.185 Z1.26 </boundaryPoint>)
(<boundaryPoint> X-16.965 Y-0.957 Z1.26 </boundaryPoint>)
(<boundaryPoint> X-17.103 Y-0.703 Z1.26 </boundaryPoint>)
(<boundaryPoint> X-17.196 Y-0.43 Z1.26 </boundaryPoint>)
(<boundaryPoint> X-17.244 Y-0.145 Z1.26 </boundaryPoint>)
(<boundaryPoint> X-17.244 Y0.145 Z1.26 </boundaryPoint>)
(<boundaryPoint> X-17.196 Y0.43 Z1.26 </boundaryPoint>)
(<boundaryPoint> X-17.103 Y0.703 Z1.26 </boundaryPoint>)
(<boundaryPoint> X-16.965 Y0.957 Z1.26 </boundaryPoint>)
(<boundaryPoint> X-16.788 Y1.185 Z1.26 </boundaryPoint>)
(<boundaryPoint> X-16.575 Y1.381 Z1.26 </boundaryPoint>)
(<boundaryPoint> X-16.333 Y1.539 Z1.26 </boundaryPoint>)
(<boundaryPoint> X-16.068 Y1.655 Z1.26 </boundaryPoint>)
(<boundaryPoint> X-15.788 Y1.726 Z1.26 </boundaryPoint>)
(<boundaryPoint> X-15.5 Y1.75 Z1.26 </boundaryPoint>)
(<boundaryPoint> X-15.212 Y1.726 Z1.26 </boundaryPoint>)
(<edge> inner )
G1 X-16.85 Y-1.4 Z1.26 F5400.0
G1 F1200.0
G1 E86.279
G1 F5400.0
M101
G1 X-16.94 Y-1.32 Z1.26 F1350.0 E86.284
G1 X-17.13 Y-1.07 Z1.26 F1350.0 E86.296
G1 X-17.29 Y-0.78 Z1.26 F1350.0 E86.309
G1 X-17.39 Y-0.48 Z1.26 F1350.0 E86.321
G1 X-17.44 Y-0.16 Z1.26 F1350.0 E86.334
G1 X-17.44 Y0.16 Z1.26 F1350.0 E86.347
G1 X-17.39 Y0.48 Z1.26 F1350.0 E86.359
G1 X-17.29 Y0.78 Z1.26 F1350.0 E86.372
G1 X-17.13 Y1.07 Z1.26 F1350.0 E86.385
G1 X-16.94 Y1.32 Z1.26 F1350.0 E86.397
G1 X-16.7 Y1.54 Z1.26 F1350.0 E86.41
G1 X-16.43 Y1.72 Z1.26 F1350.0 E86.422
G1 X-16.13 Y1.84 Z1.26 F1350.0 E86.435
G1 X-15.82 Y1.92 Z1.26 F1350.0 E86.448
G1 X-15.5 Y1.95 Z1.26 F1350.0 E86.46
G1 X-15.18 Y1.92 Z1.26 F1350.0 E86.473
G1 X-14.87 Y1.84 Z1.26 F1350.0 E86.485
G1 X-14.57 Y1.72 Z1.26 F1350.0 E86.498
G1 X-14.3 Y1.54 Z1.26 F1350.0 E86.511
G1 X-14.06 Y1.32 Z1.26 F1350.0 E86.523
G1 X-13.87 Y1.07 Z1.26 F1350.0 E86.536
G1 X-13.71 Y0.78 Z1.26 F1350.0 E86.548
G1 X-13.61 Y0.48 Z1.26 F1350.0 E86.561
G1 X-13.56 Y0.16 Z1.26 F1350.0 E86.574
G1 X-13.56 Y-0.16 Z1.26 F1350.0 E86.586
G1 X-13.61 Y-0.48 Z1.26 F1350.0 E86.599
G1 X-13.71 Y-0.78 Z1.26 F1350.0 E86.611
G1 X-13.87 Y-1.07 Z1.26 F1350.0 E86.624
G1 X-14.06 Y-1.32 Z1.26 F1350.0 E86.637
G1 X-14.3 Y-1.54 Z1.26 F1350.0 E86.649
G1 X-14.57 Y-1.72 Z1.26 F1350.0 E86.662
G1 X-14.87 Y-1.84 Z1.26 F1350.0 E86.675
G1 X-15.18 Y-1.92 Z1.26 F1350.0 E86.687
G1 X-15.5 Y-1.95 Z1.26 F1350.0 E86.7
G1 X-15.82 Y-1.92 Z1.26 F1350.0 E86.712
G1 X-16.13 Y-1.84 Z1.26 F1350.0 E86.725
G1 X-16.43 Y-1.72 Z1.26 F1350.0 E86.738
G1 X-16.7 Y-1.54 Z1.26 F1350.0 E86.75
G1 X-16.85 Y-1.4 Z1.26 F1350.0 E86.758
G1 F1200.0
G1 E85.758
G1 F1350.0
M103
(</edge>)
(</boundaryPerimeter>)
(</nestedRing>)
(<nestedRing>)
(<boundaryPerimeter>)
(<boundaryPoint> X16.068 Y1.655 Z1.26 </boundaryPoint>)
(<boundaryPoint> X16.333 Y1.539 Z1.26 </boundaryPoint>)
(<boundaryPoint> X16.575 Y1.381 Z1.26 </boundaryPoint>)
(<boundaryPoint> X16.788 Y1.185 Z1.26 </boundaryPoint>)
(<boundaryPoint> X16.965 Y0.957 Z1.26 </boundaryPoint>)
(<boundaryPoint> X17.103 Y0.703 Z1.26 </boundaryPoint>)
(<boundaryPoint> X17.196 Y0.43 Z1.26 </boundaryPoint>)
(<boundaryPoint> X17.244 Y0.145 Z1.26 </boundaryPoint>)
(<boundaryPoint> X17.244 Y-0.145 Z1.26 </boundaryPoint>)
(<boundaryPoint> X17.196 Y-0.43 Z1.26 </boundaryPoint>)
(<boundaryPoint> X17.103 Y-0.703 Z1.26 </boundaryPoint>)
(<boundaryPoint> X16.965 Y-0.957 Z1.26 </boundaryPoint>)
(<boundaryPoint> X16.788 Y-1.185 Z1.26 </boundaryPoint>)
(<boundaryPoint> X16.575 Y-1.381 Z1.26 </boundaryPoint>)
(<boundaryPoint> X16.333 Y-1.539 Z1.26 </boundaryPoint>)
(<boundaryPoint> X16.068 Y-1.655 Z1.26 </boundaryPoint>)
(<boundaryPoint> X15.788 Y-1.726 Z1.26 </boundaryPoint>)
(<boundaryPoint> X15.5 Y-1.75 Z1.26 </boundaryPoint>)
(<boundaryPoint> X15.212 Y-1.726 Z1.26 </boundaryPoint>)
(<boundaryPoint> X14.932 Y-1.655 Z1.26 </boundaryPoint>)
(<boundaryPoint> X14.667 Y-1.539 Z1.26 </boundaryPoint>)
(<boundaryPoint> X14.425 Y-1.381 Z1.26 </boundaryPoint>)
(<boundaryPoint> X14.212 Y-1.185 Z1.26 </boundaryPoint>)
(<boundaryPoint> X14.035 Y-0.957 Z1.26 </boundaryPoint>)
(<boundaryPoint> X13.897 Y-0.703 Z1.26 </boundaryPoint>)
(<boundaryPoint> X13.804 Y-0.43 Z1.26 </boundaryPoint>)
(<boundaryPoint> X13.756 Y-0.145 Z1.26 </boundaryPoint>)
(<boundaryPoint> X13.756 Y0.145 Z1.26 </boundaryPoint>)
(<boundaryPoint> X13.804 Y0.43 Z1.26 </boundaryPoint>)
(<boundaryPoint> X13.897 Y0.703 Z1.26 </boundaryPoint>)
(<boundaryPoint> X14.035 Y0.957 Z1.26 </boundaryPoint>)
(<boundaryPoint> X14.212 Y1.185 Z1.26 </boundaryPoint>)
(<boundaryPoint> X14.425 Y1.381 Z1.26 </boundaryPoint>)
(<boundaryPoint> X14.667 Y1.539 Z1.26 </boundaryPoint>)
(<boundaryPoint> X14.932 Y1.655 Z1.26 </boundaryPoint>)
(<boundaryPoint> X15.212 Y1.726 Z1.26 </boundaryPoint>)
(<boundaryPoint> X15.5 Y1.75 Z1.26 </boundaryPoint>)
(<boundaryPoint> X15.788 Y1.726 Z1.26 </boundaryPoint>)
(<edge> inner )
G1 X-16.52 Y-1.89 Z1.26 F5400.0
G1 X13.58 Y-0.28 Z1.26 F5400.0
G1 F1200.0
G1 E86.758
G1 F5400.0
M101
G1 X13.56 Y-0.16 Z1.26 F1350.0 E86.763
G1 X13.56 Y0.16 Z1.26 F1350.0 E86.775
G1 X13.61 Y0.48 Z1.26 F1350.0 E86.788
M73 P5 (display progress)
G1 X13.71 Y0.78 Z1.26 F1350.0 E86.801
G1 X13.87 Y1.07 Z1.26 F1350.0 E86.813
G1 X14.06 Y1.32 Z1.26 F1350.0 E86.826
G1 X14.3 Y1.54 Z1.26 F1350.0 E86.838
G1 X14.57 Y1.72 Z1.26 F1350.0 E86.851
G1 X14.87 Y1.84 Z1.26 F1350.0 E86.864
G1 X15.18 Y1.92 Z1.26 F1350.0 E86.876
G1 X15.5 Y1.95 Z1.26 F1350.0 E86.889
G1 X15.82 Y1.92 Z1.26 F1350.0 E86.901
G1 X16.13 Y1.84 Z1.26 F1350.0 E86.914
G1 X16.43 Y1.72 Z1.26 F1350.0 E86.927
G1 X16.7 Y1.54 Z1.26 F1350.0 E86.939
G1 X16.94 Y1.32 Z1.26 F1350.0 E86.952
G1 X17.13 Y1.07 Z1.26 F1350.0 E86.965
G1 X17.29 Y0.78 Z1.26 F1350.0 E86.977
G1 X17.39 Y0.48 Z1.26 F1350.0 E86.99
G1 X17.44 Y0.16 Z1.26 F1350.0 E87.002
G1 X17.44 Y-0.16 Z1.26 F1350.0 E87.015
G1 X17.39 Y-0.48 Z1.26 F1350.0 E87.028
G1 X17.29 Y-0.78 Z1.26 F1350.0 E87.04
G1 X17.13 Y-1.07 Z1.26 F1350.0 E87.053
G1 X16.94 Y-1.32 Z1.26 F1350.0 E87.065
G1 X16.7 Y-1.54 Z1.26 F1350.0 E87.078
G1 X16.43 Y-1.72 Z1.26 F1350.0 E87.091
G1 X16.13 Y-1.84 Z1.26 F1350.0 E87.103
G1 X15.82 Y-1.92 Z1.26 F1350.0 E87.116
G1 X15.5 Y-1.95 Z1.26 F1350.0 E87.128
G1 X15.18 Y-1.92 Z1.26 F1350.0 E87.141
G1 X14.87 Y-1.84 Z1.26 F1350.0 E87.154
G1 X14.57 Y-1.72 Z1.26 F1350.0 E87.166
G1 X14.3 Y-1.54 Z1.26 F1350.0 E87.179
G1 X14.06 Y-1.32 Z1.26 F1350.0 E87.191
G1 X13.87 Y-1.07 Z1.26 F1350.0 E87.204
G1 X13.71 Y-0.78 Z1.26 F1350.0 E87.217
G1 X13.61 Y-0.48 Z1.26 F1350.0 E87.229
G1 X13.58 Y-0.28 Z1.26 F1350.0 E87.237
G1 F1200.0
G1 E87.237
G1 F1350.0
M103
(</edge>)
(</boundaryPerimeter>)
(</nestedRing>)
(<loop> inner )
;M108 R40.0
G1 X13.18 Y-0.32 Z1.26 F5400.0
G1 F1200.0
G1 E87.237
G1 F5400.0
M101
G1 X13.16 Y-0.2 Z1.26 F2700.0 E87.241
G1 X13.16 Y0.2 Z1.26 F2700.0 E87.255
G1 X13.22 Y0.58 Z1.26 F2700.0 E87.268
G1 X13.35 Y0.94 Z1.26 F2700.0 E87.282
G1 X13.53 Y1.29 Z1.26 F2700.0 E87.295
G1 X13.77 Y1.59 Z1.26 F2700.0 E87.309
G1 X14.05 Y1.86 Z1.26 F2700.0 E87.322
G1 X14.38 Y2.07 Z1.26 F2700.0 E87.336
G1 X14.74 Y2.22 Z1.26 F2700.0 E87.349
G1 X15.11 Y2.32 Z1.26 F2700.0 E87.363
G1 X15.5 Y2.35 Z1.26 F2700.0 E87.376
G1 X15.89 Y2.32 Z1.26 F2700.0 E87.39
G1 X16.26 Y2.22 Z1.26 F2700.0 E87.403
G1 X16.62 Y2.07 Z1.26 F2700.0 E87.417
G1 X16.95 Y1.86 Z1.26 F2700.0 E87.431
G1 X17.23 Y1.59 Z1.26 F2700.0 E87.444
G1 X17.47 Y1.29 Z1.26 F2700.0 E87.458
G1 X17.66 Y0.94 Z1.26 F2700.0 E87.471
G1 X17.78 Y0.58 Z1.26 F2700.0 E87.485
G1 X17.84 Y0.2 Z1.26 F2700.0 E87.498
G1 X17.84 Y-0.2 Z1.26 F2700.0 E87.512
G1 X17.78 Y-0.58 Z1.26 F2700.0 E87.525
G1 X17.66 Y-0.94 Z1.26 F2700.0 E87.539
G1 X17.47 Y-1.29 Z1.26 F2700.0 E87.552
G1 X17.23 Y-1.59 Z1.26 F2700.0 E87.566
G1 X16.95 Y-1.86 Z1.26 F2700.0 E87.579
G1 X16.62 Y-2.07 Z1.26 F2700.0 E87.593
G1 X16.26 Y-2.22 Z1.26 F2700.0 E87.606
G1 X15.89 Y-2.32 Z1.26 F2700.0 E87.62
G1 X15.5 Y-2.35 Z1.26 F2700.0 E87.633
G1 X15.11 Y-2.32 Z1.26 F2700.0 E87.647
G1 X14.74 Y-2.22 Z1.26 F2700.0 E87.66
G1 X14.38 Y-2.07 Z1.26 F2700.0 E87.674
G1 X14.05 Y-1.86 Z1.26 F2700.0 E87.687
G1 X13.77 Y-1.59 Z1.26 F2700.0 E87.701
G1 X13.53 Y-1.29 Z1.26 F2700.0 E87.714
G1 X13.35 Y-0.94 Z1.26 F2700.0 E87.728
G1 X13.22 Y-0.58 Z1.26 F2700.0 E87.741
G1 X13.18 Y-0.32 Z1.26 F2700.0 E87.751
G1 F1200.0
G1 E86.751
G1 F2700.0
M103
(</loop>)
(<loop> inner )
G1 X-13.16 Y-0.07 Z1.26 F5400.0
G1 F1200.0
G1 E87.751
G1 F5400.0
M101
G1 X-13.16 Y-0.2 Z1.26 F2700.0 E87.755
G1 X-13.22 Y-0.58 Z1.26 F2700.0 E87.768
G1 X-13.35 Y-0.94 Z1.26 F2700.0 E87.782
G1 X-13.53 Y-1.29 Z1.26 F2700.0 E87.795
G1 X-13.77 Y-1.59 Z1.26 F2700.0 E87.809
G1 X-14.05 Y-1.86 Z1.26 F2700.0 E87.822
G1 X-14.38 Y-2.07 Z1.26 F2700.0 E87.836
G1 X-14.74 Y-2.22 Z1.26 F2700.0 E87.849
G1 X-15.11 Y-2.32 Z1.26 F2700.0 E87.863
G1 X-15.5 Y-2.35 Z1.26 F2700.0 E87.876
G1 X-15.89 Y-2.32 Z1.26 F2700.0 E87.89
G1 X-16.26 Y-2.22 Z1.26 F2700.0 E87.903
G1 X-16.62 Y-2.07 Z1.26 F2700.0 E87.917
G1 X-16.95 Y-1.86 Z1.26 F2700.0 E87.93
G1 X-17.23 Y-1.59 Z1.26 F2700.0 E87.944
G1 X-17.47 Y-1.29 Z1.26 F2700.0 E87.957
G1 X-17.66 Y-0.94 Z1.26 F2700.0 E87.971
G1 X-17.78 Y-0.58 Z1.26 F2700.0 E87.984
G1 X-17.84 Y-0.2 Z1.26 F2700.0 E87.998
G1 X-17.84 Y0.2 Z1.26 F2700.0 E88.011
G1 X-17.78 Y0.58 Z1.26 F2700.0 E88.025
G1 X-17.66 Y0.94 Z1.26 F2700.0 E88.038
G1 X-17.47 Y1.29 Z1.26 F2700.0 E88.052
G1 X-17.23 Y1.59 Z1.26 F2700.0 E88.065
G1 X-16.95 Y1.86 Z1.26 F2700.0 E88.079
G1 X-16.62 Y2.07 Z1.26 F2700.0 E88.093
G1 X-16.26 Y2.22 Z1.26 F2700.0 E88.106
G1 X-15.89 Y2.32 Z1.26 F2700.0 E88.12
G1 X-15.5 Y2.35 Z1.26 F2700.0 E88.133
G1 X-15.11 Y2.32 Z1.26 F2700.0 E88.147
G1 X-14.74 Y2.22 Z1.26 F2700.0 E88.16
G1 X-14.38 Y2.07 Z1.26 F2700.0 E88.174
G1 X-14.05 Y1.86 Z1.26 F2700.0 E88.187
G1 X-13.77 Y1.59 Z1.26 F2700.0 E88.201
G1 X-13.53 Y1.29 Z1.26 F2700.0 E88.214
G1 X-13.35 Y0.94 Z1.26 F2700.0 E88.228
G1 X-13.22 Y0.58 Z1.26 F2700.0 E88.241
G1 X-13.16 Y0.2 Z1.26 F2700.0 E88.255
G1 X-13.16 Y-0.07 Z1.26 F2700.0 E88.264
G1 F1200.0
G1 E87.264
G1 F2700.0
M103
(</loop>)
(<loop> outer )
G1 X-12.46 Y-2.14 Z1.26 F5400.0
G1 F1200.0
G1 E88.264
G1 F5400.0
M101
G1 X-12.35 Y-2.1 Z1.26 F2700.0 E88.268
G1 X-11.55 Y-1.92 Z1.26 F2700.0 E88.297
G1 X11.55 Y-1.92 Z1.26 F2700.0 E89.1
G1 X11.96 Y-1.99 Z1.26 F2700.0 E89.115
G1 X12.72 Y-2.25 Z1.26 F2700.0 E89.143
G1 X13.7 Y-2.88 Z1.26 F2700.0 E89.183
G1 X14.37 Y-3.21 Z1.26 F2700.0 E89.209
G1 X15.09 Y-3.38 Z1.26 F2700.0 E89.235
G1 X15.83 Y-3.38 Z1.26 F2700.0 E89.26
G1 X16.55 Y-3.23 Z1.26 F2700.0 E89.286
G1 X17.23 Y-2.93 Z1.26 F2700.0 E89.312
G1 X17.82 Y-2.48 Z1.26 F2700.0 E89.338
G1 X18.3 Y-1.92 Z1.26 F2700.0 E89.364
G1 X18.65 Y-1.27 Z1.26 F2700.0 E89.389
G1 X18.85 Y-0.55 Z1.26 F2700.0 E89.415
G1 X18.89 Y0.19 Z1.26 F2700.0 E89.441
G1 X18.77 Y0.92 Z1.26 F2700.0 E89.467
G1 X18.5 Y1.6 Z1.26 F2700.0 E89.492
G1 X18.08 Y2.21 Z1.26 F2700.0 E89.518
G1 X17.54 Y2.72 Z1.26 F2700.0 E89.544
G1 X16.9 Y3.1 Z1.26 F2700.0 E89.57
G1 X16.2 Y3.33 Z1.26 F2700.0 E89.595
G1 X15.46 Y3.4 Z1.26 F2700.0 E89.621
G1 X15.09 Y3.38 Z1.26 F2700.0 E89.634
G1 X14.37 Y3.21 Z1.26 F2700.0 E89.66
G1 X14.03 Y3.06 Z1.26 F2700.0 E89.673
G1 X12.72 Y2.25 Z1.26 F2700.0 E89.726
G1 X11.96 Y1.99 Z1.26 F2700.0 E89.754
M73 P6 (display progress)
G1 X11.55 Y1.92 Z1.26 F2700.0 E89.768
G1 X-11.55 Y1.92 Z1.26 F2700.0 E90.572
G1 X-12.35 Y2.1 Z1.26 F2700.0 E90.601
G1 X-13.07 Y2.44 Z1.26 F2700.0 E90.628
G1 X-13.7 Y2.88 Z1.26 F2700.0 E90.655
G1 X-14.37 Y3.21 Z1.26 F2700.0 E90.681
G1 X-15.09 Y3.38 Z1.26 F2700.0 E90.707
G1 X-15.83 Y3.38 Z1.26 F2700.0 E90.732
G1 X-16.55 Y3.23 Z1.26 F2700.0 E90.758
G1 X-17.23 Y2.93 Z1.26 F2700.0 E90.784
G1 X-17.82 Y2.48 Z1.26 F2700.0 E90.81
G1 X-18.3 Y1.92 Z1.26 F2700.0 E90.835
G1 X-18.65 Y1.27 Z1.26 F2700.0 E90.861
G1 X-18.85 Y0.55 Z1.26 F2700.0 E90.887
G1 X-18.89 Y-0.19 Z1.26 F2700.0 E90.913
G1 X-18.77 Y-0.92 Z1.26 F2700.0 E90.939
G1 X-18.5 Y-1.6 Z1.26 F2700.0 E90.964
G1 X-18.3 Y-1.92 Z1.26 F2700.0 E90.977
G1 X-17.82 Y-2.48 Z1.26 F2700.0 E91.003
G1 X-17.23 Y-2.93 Z1.26 F2700.0 E91.029
G1 X-16.55 Y-3.23 Z1.26 F2700.0 E91.054
G1 X-16.2 Y-3.33 Z1.26 F2700.0 E91.067
G1 X-15.46 Y-3.4 Z1.26 F2700.0 E91.093
G1 X-14.72 Y-3.31 Z1.26 F2700.0 E91.119
G1 X-14.03 Y-3.06 Z1.26 F2700.0 E91.145
G1 X-12.72 Y-2.25 Z1.26 F2700.0 E91.198
G1 X-12.46 Y-2.14 Z1.26 F2700.0 E91.208
G1 F1200.0
G1 E91.059
G1 F2700.0
M103
(</loop>)
(<infill>)
(<infillBoundary>)
(<infillPoint> X14.368 Y-3.205 Z0.1 </infillPoint>)
(<infillPoint> X15.09 Y-3.375 Z0.1 </infillPoint>)
(<infillPoint> X15.829 Y-3.383 Z0.1 </infillPoint>)
(<infillPoint> X16.555 Y-3.232 Z0.1 </infillPoint>)
(<infillPoint> X17.229 Y-2.927 Z0.1 </infillPoint>)
(<infillPoint> X17.823 Y-2.482 Z0.1 </infillPoint>)
(<infillPoint> X18.305 Y-1.921 Z0.1 </infillPoint>)
(<infillPoint> X18.654 Y-1.267 Z0.1 </infillPoint>)
(<infillPoint> X18.854 Y-0.554 Z0.1 </infillPoint>)
(<infillPoint> X18.894 Y0.186 Z0.1 </infillPoint>)
(<infillPoint> X18.773 Y0.916 Z0.1 </infillPoint>)
(<infillPoint> X18.497 Y1.604 Z0.1 </infillPoint>)
(<infillPoint> X18.079 Y2.214 Z0.1 </infillPoint>)
(<infillPoint> X17.538 Y2.72 Z0.1 </infillPoint>)
(<infillPoint> X16.9 Y3.097 Z0.1 </infillPoint>)
(<infillPoint> X16.196 Y3.327 Z0.1 </infillPoint>)
(<infillPoint> X15.459 Y3.399 Z0.1 </infillPoint>)
(<infillPoint> X15.09 Y3.375 Z0.1 </infillPoint>)
(<infillPoint> X14.368 Y3.205 Z0.1 </infillPoint>)
(<infillPoint> X14.026 Y3.063 Z0.1 </infillPoint>)
(<infillPoint> X12.719 Y2.25 Z0.1 </infillPoint>)
(<infillPoint> X11.963 Y1.988 Z0.1 </infillPoint>)
(<infillPoint> X11.553 Y1.919 Z0.1 </infillPoint>)
(<infillPoint> X-11.553 Y1.919 Z0.1 </infillPoint>)
(<infillPoint> X-12.349 Y2.097 Z0.1 </infillPoint>)
(<infillPoint> X-13.07 Y2.442 Z0.1 </infillPoint>)
(<infillPoint> X-13.701 Y2.884 Z0.1 </infillPoint>)
(<infillPoint> X-14.368 Y3.205 Z0.1 </infillPoint>)
(<infillPoint> X-15.09 Y3.375 Z0.1 </infillPoint>)
(<infillPoint> X-15.829 Y3.383 Z0.1 </infillPoint>)
(<infillPoint> X-16.555 Y3.232 Z0.1 </infillPoint>)
(<infillPoint> X-17.229 Y2.927 Z0.1 </infillPoint>)
(<infillPoint> X-17.823 Y2.482 Z0.1 </infillPoint>)
(<infillPoint> X-18.305 Y1.921 Z0.1 </infillPoint>)
(<infillPoint> X-18.654 Y1.267 Z0.1 </infillPoint>)
(<infillPoint> X-18.854 Y0.554 Z0.1 </infillPoint>)
(<infillPoint> X-18.894 Y-0.186 Z0.1 </infillPoint>)
(<infillPoint> X-18.773 Y-0.916 Z0.1 </infillPoint>)
(<infillPoint> X-18.497 Y-1.604 Z0.1 </infillPoint>)
(<infillPoint> X-18.305 Y-1.921 Z0.1 </infillPoint>)
(<infillPoint> X-17.823 Y-2.482 Z0.1 </infillPoint>)
(<infillPoint> X-17.229 Y-2.927 Z0.1 </infillPoint>)
(<infillPoint> X-16.555 Y-3.232 Z0.1 </infillPoint>)
(<infillPoint> X-16.196 Y-3.327 Z0.1 </infillPoint>)
(<infillPoint> X-15.459 Y-3.399 Z0.1 </infillPoint>)
(<infillPoint> X-14.724 Y-3.309 Z0.1 </infillPoint>)
(<infillPoint> X-14.026 Y-3.063 Z0.1 </infillPoint>)
(<infillPoint> X-12.719 Y-2.25 Z0.1 </infillPoint>)
(<infillPoint> X-12.349 Y-2.097 Z0.1 </infillPoint>)
(<infillPoint> X-11.553 Y-1.919 Z0.1 </infillPoint>)
(<infillPoint> X11.553 Y-1.919 Z0.1 </infillPoint>)
(<infillPoint> X11.963 Y-1.988 Z0.1 </infillPoint>)
(<infillPoint> X12.719 Y-2.25 Z0.1 </infillPoint>)
(<infillPoint> X13.701 Y-2.884 Z0.1 </infillPoint>)
(</infillBoundary>)
(<infillBoundary>)
(<infillPoint> X16.263 Y2.224 Z0.1 </infillPoint>)
(<infillPoint> X16.619 Y2.069 Z0.1 </infillPoint>)
(<infillPoint> X16.945 Y1.856 Z0.1 </infillPoint>)
(<infillPoint> X17.231 Y1.593 Z0.1 </infillPoint>)
(<infillPoint> X17.469 Y1.286 Z0.1 </infillPoint>)
(<infillPoint> X17.655 Y0.945 Z0.1 </infillPoint>)
(<infillPoint> X17.78 Y0.578 Z0.1 </infillPoint>)
(<infillPoint> X17.844 Y0.195 Z0.1 </infillPoint>)
(<infillPoint> X17.844 Y-0.195 Z0.1 </infillPoint>)
(<infillPoint> X17.78 Y-0.578 Z0.1 </infillPoint>)
(<infillPoint> X17.655 Y-0.945 Z0.1 </infillPoint>)
(<infillPoint> X17.469 Y-1.286 Z0.1 </infillPoint>)
(<infillPoint> X17.231 Y-1.593 Z0.1 </infillPoint>)
(<infillPoint> X16.945 Y-1.856 Z0.1 </infillPoint>)
(<infillPoint> X16.619 Y-2.069 Z0.1 </infillPoint>)
(<infillPoint> X16.263 Y-2.224 Z0.1 </infillPoint>)
(<infillPoint> X15.887 Y-2.32 Z0.1 </infillPoint>)
(<infillPoint> X15.5 Y-2.352 Z0.1 </infillPoint>)
(<infillPoint> X15.113 Y-2.32 Z0.1 </infillPoint>)
(<infillPoint> X14.737 Y-2.224 Z0.1 </infillPoint>)
(<infillPoint> X14.381 Y-2.069 Z0.1 </infillPoint>)
(<infillPoint> X14.055 Y-1.856 Z0.1 </infillPoint>)
(<infillPoint> X13.769 Y-1.593 Z0.1 </infillPoint>)
(<infillPoint> X13.531 Y-1.286 Z0.1 </infillPoint>)
(<infillPoint> X13.345 Y-0.945 Z0.1 </infillPoint>)
(<infillPoint> X13.22 Y-0.578 Z0.1 </infillPoint>)
(<infillPoint> X13.156 Y-0.195 Z0.1 </infillPoint>)
(<infillPoint> X13.156 Y0.195 Z0.1 </infillPoint>)
(<infillPoint> X13.22 Y0.578 Z0.1 </infillPoint>)
(<infillPoint> X13.345 Y0.945 Z0.1 </infillPoint>)
(<infillPoint> X13.531 Y1.286 Z0.1 </infillPoint>)
(<infillPoint> X13.769 Y1.593 Z0.1 </infillPoint>)
(<infillPoint> X14.055 Y1.856 Z0.1 </infillPoint>)
(<infillPoint> X14.381 Y2.069 Z0.1 </infillPoint>)
(<infillPoint> X14.737 Y2.224 Z0.1 </infillPoint>)
(<infillPoint> X15.113 Y2.32 Z0.1 </infillPoint>)
(<infillPoint> X15.5 Y2.352 Z0.1 </infillPoint>)
(<infillPoint> X15.887 Y2.32 Z0.1 </infillPoint>)
(</infillBoundary>)
(<infillBoundary>)
(<infillPoint> X-14.737 Y2.224 Z0.1 </infillPoint>)
(<infillPoint> X-14.381 Y2.069 Z0.1 </infillPoint>)
(<infillPoint> X-14.055 Y1.856 Z0.1 </infillPoint>)
(<infillPoint> X-13.769 Y1.593 Z0.1 </infillPoint>)
(<infillPoint> X-13.531 Y1.286 Z0.1 </infillPoint>)
(<infillPoint> X-13.345 Y0.945 Z0.1 </infillPoint>)
(<infillPoint> X-13.22 Y0.578 Z0.1 </infillPoint>)
(<infillPoint> X-13.156 Y0.195 Z0.1 </infillPoint>)
(<infillPoint> X-13.156 Y-0.195 Z0.1 </infillPoint>)
(<infillPoint> X-13.22 Y-0.578 Z0.1 </infillPoint>)
(<infillPoint> X-13.345 Y-0.945 Z0.1 </infillPoint>)
(<infillPoint> X-13.531 Y-1.286 Z0.1 </infillPoint>)
(<infillPoint> X-13.769 Y-1.593 Z0.1 </infillPoint>)
(<infillPoint> X-14.055 Y-1.856 Z0.1 </infillPoint>)
(<infillPoint> X-14.381 Y-2.069 Z0.1 </infillPoint>)
(<infillPoint> X-14.737 Y-2.224 Z0.1 </infillPoint>)
(<infillPoint> X-15.113 Y-2.32 Z0.1 </infillPoint>)
(<infillPoint> X-15.5 Y-2.352 Z0.1 </infillPoint>)
(<infillPoint> X-15.887 Y-2.32 Z0.1 </infillPoint>)
(<infillPoint> X-16.263 Y-2.224 Z0.1 </infillPoint>)
(<infillPoint> X-16.619 Y-2.069 Z0.1 </infillPoint>)
(<infillPoint> X-16.945 Y-1.856 Z0.1 </infillPoint>)
(<infillPoint> X-17.231 Y-1.593 Z0.1 </infillPoint>)
(<infillPoint> X-17.469 Y-1.286 Z0.1 </infillPoint>)
(<infillPoint> X-17.655 Y-0.945 Z0.1 </infillPoint>)
(<infillPoint> X-17.78 Y-0.578 Z0.1 </infillPoint>)
(<infillPoint> X-17.844 Y-0.195 Z0.1 </infillPoint>)
(<infillPoint> X-17.844 Y0.195 Z0.1 </infillPoint>)
(<infillPoint> X-17.78 Y0.578 Z0.1 </infillPoint>)
(<infillPoint> X-17.655 Y0.945 Z0.1 </infillPoint>)
(<infillPoint> X-17.469 Y1.286 Z0.1 </infillPoint>)
(<infillPoint> X-17.231 Y1.593 Z0.1 </infillPoint>)
(<infillPoint> X-16.945 Y1.856 Z0.1 </infillPoint>)
(<infillPoint> X-16.619 Y2.069 Z0.1 </infillPoint>)
(<infillPoint> X-16.263 Y2.224 Z0.1 </infillPoint>)
(<infillPoint> X-15.887 Y2.32 Z0.1 </infillPoint>)
(<infillPoint> X-15.5 Y2.352 Z0.1 </infillPoint>)
(<infillPoint> X-15.113 Y2.32 Z0.1 </infillPoint>)
(</infillBoundary>)
G1 X-13.2 Y-1.26 Z1.26 F5400.0
G1 F1200.0
G1 E91.208
G1 F5400.0
M101
G1 X-13.2 Y-2.22 Z1.26 F2700.0 E91.241
G1 X-13.6 Y-1.82 Z1.26 F2700.0 E91.261
G1 X-13.6 Y-2.47 Z1.26 F2700.0 E91.283
G1 X-14.0 Y-2.72 Z1.26 F2700.0 E91.3
M73 P7 (display progress)
G1 X-14.0 Y-2.15 Z1.26 F2700.0 E91.319
G1 X-14.4 Y-2.38 Z1.26 F2700.0 E91.335
G1 X-14.4 Y-2.9 Z1.26 F2700.0 E91.353
G1 X-14.8 Y-3.04 Z1.26 F2700.0 E91.368
G1 X-14.8 Y-2.53 Z1.26 F2700.0 E91.386
G1 X-15.2 Y-2.61 Z1.26 F2700.0 E91.4
G1 X-15.2 Y-3.08 Z1.26 F2700.0 E91.416
G1 X-15.6 Y-3.1 Z1.26 F2700.0 E91.43
G1 X-15.6 Y-2.63 Z1.26 F2700.0 E91.447
G1 X-16.0 Y-2.58 Z1.26 F2700.0 E91.461
G1 X-16.0 Y-3.06 Z1.26 F2700.0 E91.478
G1 X-16.4 Y-2.98 Z1.26 F2700.0 E91.492
G1 X-16.4 Y-2.47 Z1.26 F2700.0 E91.51
G1 X-16.8 Y-2.29 Z1.26 F2700.0 E91.525
G1 X-16.8 Y-2.81 Z1.26 F2700.0 E91.544
G1 X-17.2 Y-2.6 Z1.26 F2700.0 E91.559
G1 X-17.2 Y-2.0 Z1.26 F2700.0 E91.58
G1 X-17.6 Y-2.3 Z1.26 F2700.0 E91.598
G1 X-17.6 Y-1.57 Z1.26 F2700.0 E91.623
G1 X-18.0 Y-1.85 Z1.26 F2700.0 E91.64
G1 X-18.0 Y-0.8 Z1.26 F2700.0 E91.676
G1 X-18.4 Y-1.09 Z1.26 F2700.0 E91.693
G1 X-18.4 Y1.14 Z1.26 F2700.0 E91.771
G1 X-18.0 Y0.8 Z1.26 F2700.0 E91.789
G1 X-18.0 Y1.85 Z1.26 F2700.0 E91.826
G1 X-17.6 Y1.57 Z1.26 F2700.0 E91.842
G1 X-17.6 Y2.3 Z1.26 F2700.0 E91.868
G1 X-17.2 Y2.0 Z1.26 F2700.0 E91.885
G1 X-17.2 Y2.6 Z1.26 F2700.0 E91.906
G1 X-16.8 Y2.81 Z1.26 F2700.0 E91.921
G1 X-16.8 Y2.29 Z1.26 F2700.0 E91.94
G1 X-16.4 Y2.47 Z1.26 F2700.0 E91.955
G1 X-16.4 Y2.98 Z1.26 F2700.0 E91.973
G1 X-16.0 Y3.06 Z1.26 F2700.0 E91.987
G1 X-16.0 Y2.58 Z1.26 F2700.0 E92.004
G1 X-15.6 Y2.63 Z1.26 F2700.0 E92.018
G1 X-15.6 Y3.1 Z1.26 F2700.0 E92.034
G1 X-15.2 Y3.1 Z1.26 F2700.0 E92.048
G1 X-15.2 Y2.61 Z1.26 F2700.0 E92.065
G1 X-14.8 Y2.53 Z1.26 F2700.0 E92.079
G1 X-14.8 Y3.02 Z1.26 F2700.0 E92.096
G1 X-14.4 Y2.91 Z1.26 F2700.0 E92.111
G1 X-14.4 Y2.38 Z1.26 F2700.0 E92.129
G1 X-14.0 Y2.15 Z1.26 F2700.0 E92.145
G1 X-14.0 Y2.72 Z1.26 F2700.0 E92.165
G1 X-13.6 Y2.47 Z1.26 F2700.0 E92.181
G1 X-13.6 Y1.82 Z1.26 F2700.0 E92.204
G1 X-13.2 Y1.26 Z1.26 F2700.0 E92.228
G1 X-13.2 Y2.19 Z1.26 F2700.0 E92.26
G1 X-12.8 Y2.0 Z1.26 F2700.0 E92.275
G1 X-12.8 Y-1.98 Z1.26 F2700.0 E92.414
G1 X-12.4 Y-1.82 Z1.26 F2700.0 E92.429
G1 X-12.4 Y1.82 Z1.26 F2700.0 E92.556
G1 X-12.0 Y1.73 Z1.26 F2700.0 E92.57
G1 X-12.0 Y-1.73 Z1.26 F2700.0 E92.69
G1 X-11.6 Y-1.64 Z1.26 F2700.0 E92.705
G1 X-11.6 Y1.64 Z1.26 F2700.0 E92.819
G1 X-11.2 Y1.64 Z1.26 F2700.0 E92.833
G1 X-11.2 Y-1.64 Z1.26 F2700.0 E92.947
G1 X-10.8 Y-1.64 Z1.26 F2700.0 E92.961
G1 X-10.8 Y1.64 Z1.26 F2700.0 E93.075
G1 X-10.4 Y1.64 Z1.26 F2700.0 E93.089
G1 X-10.4 Y-1.64 Z1.26 F2700.0 E93.203
G1 X-10.0 Y-1.64 Z1.26 F2700.0 E93.217
G1 X-10.0 Y1.64 Z1.26 F2700.0 E93.331
G1 X-9.6 Y1.64 Z1.26 F2700.0 E93.345
G1 X-9.6 Y-1.64 Z1.26 F2700.0 E93.459
G1 X-9.2 Y-1.64 Z1.26 F2700.0 E93.472
G1 X-9.2 Y1.64 Z1.26 F2700.0 E93.586
G1 X-8.8 Y1.64 Z1.26 F2700.0 E93.6
G1 X-8.8 Y-1.64 Z1.26 F2700.0 E93.714
G1 X-8.4 Y-1.64 Z1.26 F2700.0 E93.728
G1 X-8.4 Y1.64 Z1.26 F2700.0 E93.842
G1 X-8.0 Y1.64 Z1.26 F2700.0 E93.856
G1 X-8.0 Y-1.64 Z1.26 F2700.0 E93.97
G1 X-7.6 Y-1.64 Z1.26 F2700.0 E93.984
G1 X-7.6 Y1.64 Z1.26 F2700.0 E94.098
G1 X-7.2 Y1.64 Z1.26 F2700.0 E94.112
G1 X-7.2 Y-1.64 Z1.26 F2700.0 E94.226
G1 X-6.8 Y-1.64 Z1.26 F2700.0 E94.24
G1 X-6.8 Y1.64 Z1.26 F2700.0 E94.354
G1 X-6.4 Y1.64 Z1.26 F2700.0 E94.368
G1 X-6.4 Y-1.64 Z1.26 F2700.0 E94.482
G1 X-6.0 Y-1.64 Z1.26 F2700.0 E94.496
G1 X-6.0 Y1.64 Z1.26 F2700.0 E94.61
G1 X-5.6 Y1.64 Z1.26 F2700.0 E94.624
G1 X-5.6 Y-1.64 Z1.26 F2700.0 E94.738
G1 X-5.2 Y-1.64 Z1.26 F2700.0 E94.752
G1 X-5.2 Y1.64 Z1.26 F2700.0 E94.866
G1 X-4.8 Y1.64 Z1.26 F2700.0 E94.88
G1 X-4.8 Y-1.64 Z1.26 F2700.0 E94.994
G1 X-4.4 Y-1.64 Z1.26 F2700.0 E95.008
G1 X-4.4 Y1.64 Z1.26 F2700.0 E95.122
G1 X-4.0 Y1.64 Z1.26 F2700.0 E95.135
G1 X-4.0 Y-1.64 Z1.26 F2700.0 E95.25
G1 X-3.6 Y-1.64 Z1.26 F2700.0 E95.263
G1 X-3.6 Y1.64 Z1.26 F2700.0 E95.377
G1 X-3.2 Y1.64 Z1.26 F2700.0 E95.391
G1 X-3.2 Y-1.64 Z1.26 F2700.0 E95.505
G1 X-2.8 Y-1.64 Z1.26 F2700.0 E95.519
G1 X-2.8 Y1.64 Z1.26 F2700.0 E95.633
G1 X-2.4 Y1.64 Z1.26 F2700.0 E95.647
G1 X-2.4 Y-1.64 Z1.26 F2700.0 E95.761
G1 X-2.0 Y-1.64 Z1.26 F2700.0 E95.775
G1 X-2.0 Y1.64 Z1.26 F2700.0 E95.889
G1 X-1.6 Y1.64 Z1.26 F2700.0 E95.903
G1 X-1.6 Y-1.64 Z1.26 F2700.0 E96.017
G1 X-1.2 Y-1.64 Z1.26 F2700.0 E96.031
G1 X-1.2 Y1.64 Z1.26 F2700.0 E96.145
G1 X-0.8 Y1.64 Z1.26 F2700.0 E96.159
G1 X-0.8 Y-1.64 Z1.26 F2700.0 E96.273
G1 X-0.4 Y-1.64 Z1.26 F2700.0 E96.287
G1 X-0.4 Y1.64 Z1.26 F2700.0 E96.401
G1 X0.0 Y1.64 Z1.26 F2700.0 E96.415
G1 X-0.0 Y-1.64 Z1.26 F2700.0 E96.529
G1 X0.4 Y-1.64 Z1.26 F2700.0 E96.543
G1 X0.4 Y1.64 Z1.26 F2700.0 E96.657
G1 X0.8 Y1.64 Z1.26 F2700.0 E96.671
G1 X0.8 Y-1.64 Z1.26 F2700.0 E96.785
G1 X1.2 Y-1.64 Z1.26 F2700.0 E96.799
G1 X1.2 Y1.64 Z1.26 F2700.0 E96.913
G1 X1.6 Y1.64 Z1.26 F2700.0 E96.926
G1 X1.6 Y-1.64 Z1.26 F2700.0 E97.04
G1 X2.0 Y-1.64 Z1.26 F2700.0 E97.054
G1 X2.0 Y1.64 Z1.26 F2700.0 E97.168
G1 X2.4 Y1.64 Z1.26 F2700.0 E97.182
G1 X2.4 Y-1.64 Z1.26 F2700.0 E97.296
G1 X2.8 Y-1.64 Z1.26 F2700.0 E97.31
G1 X2.8 Y1.64 Z1.26 F2700.0 E97.424
G1 X3.2 Y1.64 Z1.26 F2700.0 E97.438
G1 X3.2 Y-1.64 Z1.26 F2700.0 E97.552
G1 X3.6 Y-1.64 Z1.26 F2700.0 E97.566
G1 X3.6 Y1.64 Z1.26 F2700.0 E97.68
G1 X4.0 Y1.64 Z1.26 F2700.0 E97.694
G1 X4.0 Y-1.64 Z1.26 F2700.0 E97.808
G1 X4.4 Y-1.64 Z1.26 F2700.0 E97.822
G1 X4.4 Y1.64 Z1.26 F2700.0 E97.936
G1 X4.8 Y1.64 Z1.26 F2700.0 E97.95
G1 X4.8 Y-1.64 Z1.26 F2700.0 E98.064
G1 X5.2 Y-1.64 Z1.26 F2700.0 E98.078
G1 X5.2 Y1.64 Z1.26 F2700.0 E98.192
G1 X5.6 Y1.64 Z1.26 F2700.0 E98.206
G1 X5.6 Y-1.64 Z1.26 F2700.0 E98.32
G1 X6.0 Y-1.64 Z1.26 F2700.0 E98.334
G1 X6.0 Y1.64 Z1.26 F2700.0 E98.448
G1 X6.4 Y1.64 Z1.26 F2700.0 E98.462
G1 X6.4 Y-1.64 Z1.26 F2700.0 E98.576
G1 X6.8 Y-1.64 Z1.26 F2700.0 E98.59
G1 X6.8 Y1.64 Z1.26 F2700.0 E98.704
G1 X7.2 Y1.64 Z1.26 F2700.0 E98.717
G1 X7.2 Y-1.64 Z1.26 F2700.0 E98.831
G1 X7.6 Y-1.64 Z1.26 F2700.0 E98.845
G1 X7.6 Y1.64 Z1.26 F2700.0 E98.959
G1 X8.0 Y1.64 Z1.26 F2700.0 E98.973
G1 X8.0 Y-1.64 Z1.26 F2700.0 E99.087
G1 X8.4 Y-1.64 Z1.26 F2700.0 E99.101
G1 X8.4 Y1.64 Z1.26 F2700.0 E99.215
G1 X8.8 Y1.64 Z1.26 F2700.0 E99.229
G1 X8.8 Y-1.64 Z1.26 F2700.0 E99.343
G1 X9.2 Y-1.64 Z1.26 F2700.0 E99.357
G1 X9.2 Y1.64 Z1.26 F2700.0 E99.471
G1 X9.6 Y1.64 Z1.26 F2700.0 E99.485
G1 X9.6 Y-1.64 Z1.26 F2700.0 E99.599
G1 X10.0 Y-1.64 Z1.26 F2700.0 E99.613
G1 X10.0 Y1.64 Z1.26 F2700.0 E99.727
G1 X10.4 Y1.64 Z1.26 F2700.0 E99.741
G1 X10.4 Y-1.64 Z1.26 F2700.0 E99.855
G1 X10.8 Y-1.64 Z1.26 F2700.0 E99.869
G1 X10.8 Y1.64 Z1.26 F2700.0 E99.983
G1 X11.2 Y1.64 Z1.26 F2700.0 E99.997
G1 X11.2 Y-1.64 Z1.26 F2700.0 E100.111
G1 X11.6 Y-1.64 Z1.26 F2700.0 E100.125
G1 X11.6 Y1.64 Z1.26 F2700.0 E100.239
G1 X12.0 Y1.71 Z1.26 F2700.0 E100.253
G1 X12.0 Y-1.71 Z1.26 F2700.0 E100.372
G1 X12.4 Y-1.84 Z1.26 F2700.0 E100.387
G1 X12.4 Y1.84 Z1.26 F2700.0 E100.515
M73 P8 (display progress)
G1 X12.8 Y1.98 Z1.26 F2700.0 E100.53
G1 X12.8 Y-1.98 Z1.26 F2700.0 E100.667
G1 X13.2 Y-2.23 Z1.26 F2700.0 E100.684
G1 X13.2 Y-1.26 Z1.26 F2700.0 E100.717
G1 X13.6 Y-1.82 Z1.26 F2700.0 E100.741
G1 X13.6 Y-2.49 Z1.26 F2700.0 E100.764
G1 X14.0 Y-2.72 Z1.26 F2700.0 E100.78
G1 X14.0 Y-2.15 Z1.26 F2700.0 E100.8
G1 X14.4 Y-2.38 Z1.26 F2700.0 E100.816
G1 X14.4 Y-2.91 Z1.26 F2700.0 E100.834
G1 X14.8 Y-3.02 Z1.26 F2700.0 E100.849
G1 X14.8 Y-2.53 Z1.26 F2700.0 E100.866
G1 X15.2 Y-2.61 Z1.26 F2700.0 E100.88
G1 X15.2 Y-3.1 Z1.26 F2700.0 E100.897
G1 X15.6 Y-3.1 Z1.26 F2700.0 E100.911
G1 X15.6 Y-2.63 Z1.26 F2700.0 E100.927
G1 X16.0 Y-2.58 Z1.26 F2700.0 E100.941
G1 X16.0 Y-3.06 Z1.26 F2700.0 E100.958
G1 X16.4 Y-2.98 Z1.26 F2700.0 E100.972
G1 X16.4 Y-2.47 Z1.26 F2700.0 E100.99
G1 X16.8 Y-2.29 Z1.26 F2700.0 E101.005
G1 X16.8 Y-2.81 Z1.26 F2700.0 E101.024
G1 X17.2 Y-2.6 Z1.26 F2700.0 E101.04
G1 X17.2 Y-2.0 Z1.26 F2700.0 E101.06
G1 X17.6 Y-2.3 Z1.26 F2700.0 E101.078
G1 X17.6 Y-1.57 Z1.26 F2700.0 E101.103
G1 X18.0 Y-1.85 Z1.26 F2700.0 E101.12
G1 X18.0 Y-0.8 Z1.26 F2700.0 E101.156
G1 X18.4 Y-1.14 Z1.26 F2700.0 E101.174
G1 X18.4 Y1.09 Z1.26 F2700.0 E101.252
G1 X18.0 Y0.8 Z1.26 F2700.0 E101.269
G1 X18.0 Y1.83 Z1.26 F2700.0 E101.305
G1 X17.6 Y1.57 Z1.26 F2700.0 E101.322
G1 X17.6 Y2.28 Z1.26 F2700.0 E101.346
G1 X17.2 Y2.0 Z1.26 F2700.0 E101.363
G1 X17.2 Y2.6 Z1.26 F2700.0 E101.384
G1 X16.8 Y2.83 Z1.26 F2700.0 E101.4
G1 X16.8 Y2.29 Z1.26 F2700.0 E101.419
G1 X16.4 Y2.47 Z1.26 F2700.0 E101.434
G1 X16.4 Y2.97 Z1.26 F2700.0 E101.452
G1 X16.0 Y3.06 Z1.26 F2700.0 E101.466
G1 X16.0 Y2.58 Z1.26 F2700.0 E101.483
G1 X15.6 Y2.63 Z1.26 F2700.0 E101.497
G1 X15.6 Y3.1 Z1.26 F2700.0 E101.514
G1 X15.2 Y3.1 Z1.26 F2700.0 E101.527
G1 X15.2 Y2.61 Z1.26 F2700.0 E101.545
G1 X14.8 Y2.53 Z1.26 F2700.0 E101.559
G1 X14.8 Y3.02 Z1.26 F2700.0 E101.576
G1 X14.4 Y2.92 Z1.26 F2700.0 E101.59
G1 X14.4 Y2.38 Z1.26 F2700.0 E101.609
G1 X14.0 Y2.15 Z1.26 F2700.0 E101.625
G1 X14.0 Y2.72 Z1.26 F2700.0 E101.644
G1 X13.6 Y2.47 Z1.26 F2700.0 E101.661
G1 X13.6 Y1.82 Z1.26 F2700.0 E101.683
G1 X13.2 Y2.22 Z1.26 F2700.0 E101.703
G1 X13.2 Y1.26 Z1.26 F2700.0 E101.736
G1 F1200.0
G1 E100.858
G1 F2700.0
M103
(</infill>)
(</nestedRing>)
(</rotation>)
(</layer>)
;M108 R50.0
(<layer> 1.46 )
(<rotation> (-1+1.22464679915e-16j) )
(<nestedRing>)
(<boundaryPerimeter>)
(<boundaryPoint> X13.765 Y-3.604 Z1.46 </boundaryPoint>)
(<boundaryPoint> X14.168 Y-3.772 Z1.46 </boundaryPoint>)
(<boundaryPoint> X14.587 Y-3.894 Z1.46 </boundaryPoint>)
(<boundaryPoint> X15.017 Y-3.971 Z1.46 </boundaryPoint>)
(<boundaryPoint> X15.452 Y-4.0 Z1.46 </boundaryPoint>)
(<boundaryPoint> X15.888 Y-3.981 Z1.46 </boundaryPoint>)
(<boundaryPoint> X16.319 Y-3.915 Z1.46 </boundaryPoint>)
(<boundaryPoint> X16.741 Y-3.803 Z1.46 </boundaryPoint>)
(<boundaryPoint> X17.148 Y-3.645 Z1.46 </boundaryPoint>)
(<boundaryPoint> X17.535 Y-3.444 Z1.46 </boundaryPoint>)
(<boundaryPoint> X17.898 Y-3.201 Z1.46 </boundaryPoint>)
(<boundaryPoint> X18.233 Y-2.921 Z1.46 </boundaryPoint>)
(<boundaryPoint> X18.535 Y-2.606 Z1.46 </boundaryPoint>)
(<boundaryPoint> X18.801 Y-2.26 Z1.46 </boundaryPoint>)
(<boundaryPoint> X19.027 Y-1.887 Z1.46 </boundaryPoint>)
(<boundaryPoint> X19.212 Y-1.491 Z1.46 </boundaryPoint>)
(<boundaryPoint> X19.352 Y-1.078 Z1.46 </boundaryPoint>)
(<boundaryPoint> X19.447 Y-0.652 Z1.46 </boundaryPoint>)
(<boundaryPoint> X19.494 Y-0.218 Z1.46 </boundaryPoint>)
(<boundaryPoint> X19.494 Y0.218 Z1.46 </boundaryPoint>)
(<boundaryPoint> X19.447 Y0.652 Z1.46 </boundaryPoint>)
(<boundaryPoint> X19.352 Y1.078 Z1.46 </boundaryPoint>)
(<boundaryPoint> X19.212 Y1.491 Z1.46 </boundaryPoint>)
(<boundaryPoint> X19.027 Y1.887 Z1.46 </boundaryPoint>)
(<boundaryPoint> X18.801 Y2.26 Z1.46 </boundaryPoint>)
(<boundaryPoint> X18.535 Y2.606 Z1.46 </boundaryPoint>)
(<boundaryPoint> X18.233 Y2.921 Z1.46 </boundaryPoint>)
(<boundaryPoint> X17.898 Y3.201 Z1.46 </boundaryPoint>)
(<boundaryPoint> X17.535 Y3.444 Z1.46 </boundaryPoint>)
(<boundaryPoint> X17.148 Y3.645 Z1.46 </boundaryPoint>)
(<boundaryPoint> X16.741 Y3.803 Z1.46 </boundaryPoint>)
(<boundaryPoint> X16.319 Y3.915 Z1.46 </boundaryPoint>)
(<boundaryPoint> X15.888 Y3.981 Z1.46 </boundaryPoint>)
(<boundaryPoint> X15.452 Y4.0 Z1.46 </boundaryPoint>)
(<boundaryPoint> X15.017 Y3.971 Z1.46 </boundaryPoint>)
(<boundaryPoint> X14.587 Y3.894 Z1.46 </boundaryPoint>)
(<boundaryPoint> X14.168 Y3.772 Z1.46 </boundaryPoint>)
(<boundaryPoint> X13.765 Y3.604 Z1.46 </boundaryPoint>)
(<boundaryPoint> X13.383 Y3.394 Z1.46 </boundaryPoint>)
(<boundaryPoint> X12.753 Y2.952 Z1.46 </boundaryPoint>)
(<boundaryPoint> X12.46 Y2.792 Z1.46 </boundaryPoint>)
(<boundaryPoint> X12.152 Y2.665 Z1.46 </boundaryPoint>)
(<boundaryPoint> X11.831 Y2.574 Z1.46 </boundaryPoint>)
(<boundaryPoint> X11.503 Y2.519 Z1.46 </boundaryPoint>)
(<boundaryPoint> X-11.503 Y2.519 Z1.46 </boundaryPoint>)
(<boundaryPoint> X-11.831 Y2.574 Z1.46 </boundaryPoint>)
(<boundaryPoint> X-12.152 Y2.665 Z1.46 </boundaryPoint>)
(<boundaryPoint> X-12.46 Y2.792 Z1.46 </boundaryPoint>)
(<boundaryPoint> X-12.753 Y2.952 Z1.46 </boundaryPoint>)
(<boundaryPoint> X-13.383 Y3.394 Z1.46 </boundaryPoint>)
(<boundaryPoint> X-13.765 Y3.604 Z1.46 </boundaryPoint>)
(<boundaryPoint> X-14.168 Y3.772 Z1.46 </boundaryPoint>)
(<boundaryPoint> X-14.587 Y3.894 Z1.46 </boundaryPoint>)
(<boundaryPoint> X-15.017 Y3.971 Z1.46 </boundaryPoint>)
(<boundaryPoint> X-15.452 Y4.0 Z1.46 </boundaryPoint>)
(<boundaryPoint> X-15.888 Y3.981 Z1.46 </boundaryPoint>)
(<boundaryPoint> X-16.319 Y3.915 Z1.46 </boundaryPoint>)
(<boundaryPoint> X-16.741 Y3.803 Z1.46 </boundaryPoint>)
(<boundaryPoint> X-17.148 Y3.645 Z1.46 </boundaryPoint>)
(<boundaryPoint> X-17.535 Y3.444 Z1.46 </boundaryPoint>)
(<boundaryPoint> X-17.898 Y3.201 Z1.46 </boundaryPoint>)
(<boundaryPoint> X-18.233 Y2.921 Z1.46 </boundaryPoint>)
(<boundaryPoint> X-18.535 Y2.606 Z1.46 </boundaryPoint>)
(<boundaryPoint> X-18.801 Y2.26 Z1.46 </boundaryPoint>)
(<boundaryPoint> X-19.027 Y1.887 Z1.46 </boundaryPoint>)
(<boundaryPoint> X-19.212 Y1.491 Z1.46 </boundaryPoint>)
(<boundaryPoint> X-19.352 Y1.078 Z1.46 </boundaryPoint>)
(<boundaryPoint> X-19.447 Y0.652 Z1.46 </boundaryPoint>)
(<boundaryPoint> X-19.494 Y0.218 Z1.46 </boundaryPoint>)
(<boundaryPoint> X-19.494 Y-0.218 Z1.46 </boundaryPoint>)
(<boundaryPoint> X-19.447 Y-0.652 Z1.46 </boundaryPoint>)
(<boundaryPoint> X-19.352 Y-1.078 Z1.46 </boundaryPoint>)
(<boundaryPoint> X-19.212 Y-1.491 Z1.46 </boundaryPoint>)
(<boundaryPoint> X-19.027 Y-1.887 Z1.46 </boundaryPoint>)
(<boundaryPoint> X-18.801 Y-2.26 Z1.46 </boundaryPoint>)
(<boundaryPoint> X-18.535 Y-2.606 Z1.46 </boundaryPoint>)
(<boundaryPoint> X-18.233 Y-2.921 Z1.46 </boundaryPoint>)
(<boundaryPoint> X-17.898 Y-3.201 Z1.46 </boundaryPoint>)
(<boundaryPoint> X-17.535 Y-3.444 Z1.46 </boundaryPoint>)
(<boundaryPoint> X-17.148 Y-3.645 Z1.46 </boundaryPoint>)
(<boundaryPoint> X-16.741 Y-3.803 Z1.46 </boundaryPoint>)
(<boundaryPoint> X-16.319 Y-3.915 Z1.46 </boundaryPoint>)
(<boundaryPoint> X-15.888 Y-3.981 Z1.46 </boundaryPoint>)
(<boundaryPoint> X-15.452 Y-4.0 Z1.46 </boundaryPoint>)
(<boundaryPoint> X-15.017 Y-3.971 Z1.46 </boundaryPoint>)
(<boundaryPoint> X-14.587 Y-3.894 Z1.46 </boundaryPoint>)
(<boundaryPoint> X-14.168 Y-3.772 Z1.46 </boundaryPoint>)
(<boundaryPoint> X-13.765 Y-3.604 Z1.46 </boundaryPoint>)
(<boundaryPoint> X-13.383 Y-3.394 Z1.46 </boundaryPoint>)
(<boundaryPoint> X-12.753 Y-2.952 Z1.46 </boundaryPoint>)
(<boundaryPoint> X-12.46 Y-2.792 Z1.46 </boundaryPoint>)
(<boundaryPoint> X-12.152 Y-2.665 Z1.46 </boundaryPoint>)
(<boundaryPoint> X-11.831 Y-2.574 Z1.46 </boundaryPoint>)
(<boundaryPoint> X-11.503 Y-2.519 Z1.46 </boundaryPoint>)
(<boundaryPoint> X11.503 Y-2.519 Z1.46 </boundaryPoint>)
(<boundaryPoint> X11.831 Y-2.574 Z1.46 </boundaryPoint>)
(<boundaryPoint> X12.152 Y-2.665 Z1.46 </boundaryPoint>)
(<boundaryPoint> X12.46 Y-2.792 Z1.46 </boundaryPoint>)
(<boundaryPoint> X12.753 Y-2.952 Z1.46 </boundaryPoint>)
(<boundaryPoint> X13.383 Y-3.394 Z1.46 </boundaryPoint>)
(<loop> inner )
G1 X13.23 Y-0.61 Z1.46 F5400.0
G1 F1200.0
G1 E101.736
G1 F5400.0
M101
G1 X13.22 Y-0.58 Z1.46 F3000.0 E101.738
G1 X13.16 Y-0.2 Z1.46 F3000.0 E101.753
G1 X13.16 Y0.2 Z1.46 F3000.0 E101.768
M73 P9 (display progress)
G1 X13.22 Y0.58 Z1.46 F3000.0 E101.783
G1 X13.35 Y0.94 Z1.46 F3000.0 E101.799
G1 X13.53 Y1.29 Z1.46 F3000.0 E101.814
G1 X13.77 Y1.59 Z1.46 F3000.0 E101.829
G1 X14.05 Y1.86 Z1.46 F3000.0 E101.844
G1 X14.38 Y2.07 Z1.46 F3000.0 E101.859
G1 X14.74 Y2.22 Z1.46 F3000.0 E101.875
G1 X15.11 Y2.32 Z1.46 F3000.0 E101.89
G1 X15.5 Y2.35 Z1.46 F3000.0 E101.905
G1 X15.89 Y2.32 Z1.46 F3000.0 E101.92
G1 X16.26 Y2.22 Z1.46 F3000.0 E101.935
G1 X16.62 Y2.07 Z1.46 F3000.0 E101.951
G1 X16.95 Y1.86 Z1.46 F3000.0 E101.966
G1 X17.23 Y1.59 Z1.46 F3000.0 E101.981
G1 X17.47 Y1.29 Z1.46 F3000.0 E101.996
G1 X17.66 Y0.94 Z1.46 F3000.0 E102.011
G1 X17.78 Y0.58 Z1.46 F3000.0 E102.027
G1 X17.84 Y0.2 Z1.46 F3000.0 E102.042
G1 X17.84 Y-0.2 Z1.46 F3000.0 E102.057
G1 X17.78 Y-0.58 Z1.46 F3000.0 E102.072
G1 X17.66 Y-0.94 Z1.46 F3000.0 E102.087
G1 X17.47 Y-1.29 Z1.46 F3000.0 E102.103
G1 X17.23 Y-1.59 Z1.46 F3000.0 E102.118
G1 X16.95 Y-1.86 Z1.46 F3000.0 E102.133
G1 X16.62 Y-2.07 Z1.46 F3000.0 E102.148
G1 X16.26 Y-2.22 Z1.46 F3000.0 E102.163
G1 X15.89 Y-2.32 Z1.46 F3000.0 E102.179
G1 X15.5 Y-2.35 Z1.46 F3000.0 E102.194
G1 X15.11 Y-2.32 Z1.46 F3000.0 E102.209
G1 X14.74 Y-2.22 Z1.46 F3000.0 E102.224
G1 X14.38 Y-2.07 Z1.46 F3000.0 E102.239
G1 X14.05 Y-1.86 Z1.46 F3000.0 E102.255
G1 X13.77 Y-1.59 Z1.46 F3000.0 E102.27
G1 X13.53 Y-1.29 Z1.46 F3000.0 E102.285
G1 X13.35 Y-0.94 Z1.46 F3000.0 E102.3
G1 X13.23 Y-0.61 Z1.46 F3000.0 E102.314
G1 F1200.0
G1 E101.314
G1 F3000.0
M103
(</loop>)
(<loop> inner )
G1 X-13.16 Y0.23 Z1.46 F5400.0
G1 F1200.0
G1 E102.314
G1 F5400.0
M101
G1 X-13.16 Y0.2 Z1.46 F3000.0 E102.315
G1 X-13.16 Y-0.2 Z1.46 F3000.0 E102.331
G1 X-13.22 Y-0.58 Z1.46 F3000.0 E102.346
G1 X-13.35 Y-0.94 Z1.46 F3000.0 E102.361
G1 X-13.53 Y-1.29 Z1.46 F3000.0 E102.376
G1 X-13.77 Y-1.59 Z1.46 F3000.0 E102.391
G1 X-14.05 Y-1.86 Z1.46 F3000.0 E102.407
G1 X-14.38 Y-2.07 Z1.46 F3000.0 E102.422
G1 X-14.74 Y-2.22 Z1.46 F3000.0 E102.437
G1 X-15.11 Y-2.32 Z1.46 F3000.0 E102.452
G1 X-15.5 Y-2.35 Z1.46 F3000.0 E102.467
G1 X-15.89 Y-2.32 Z1.46 F3000.0 E102.483
G1 X-16.26 Y-2.22 Z1.46 F3000.0 E102.498
G1 X-16.62 Y-2.07 Z1.46 F3000.0 E102.513
G1 X-16.95 Y-1.86 Z1.46 F3000.0 E102.528
G1 X-17.23 Y-1.59 Z1.46 F3000.0 E102.543
G1 X-17.47 Y-1.29 Z1.46 F3000.0 E102.559
G1 X-17.66 Y-0.94 Z1.46 F3000.0 E102.574
G1 X-17.78 Y-0.58 Z1.46 F3000.0 E102.589
G1 X-17.84 Y-0.2 Z1.46 F3000.0 E102.604
G1 X-17.84 Y0.2 Z1.46 F3000.0 E102.619
G1 X-17.78 Y0.58 Z1.46 F3000.0 E102.635
G1 X-17.66 Y0.94 Z1.46 F3000.0 E102.65
G1 X-17.47 Y1.29 Z1.46 F3000.0 E102.665
G1 X-17.23 Y1.59 Z1.46 F3000.0 E102.68
G1 X-16.95 Y1.86 Z1.46 F3000.0 E102.695
G1 X-16.62 Y2.07 Z1.46 F3000.0 E102.711
G1 X-16.26 Y2.22 Z1.46 F3000.0 E102.726
G1 X-15.89 Y2.32 Z1.46 F3000.0 E102.741
G1 X-15.5 Y2.35 Z1.46 F3000.0 E102.756
G1 X-15.11 Y2.32 Z1.46 F3000.0 E102.771
G1 X-14.74 Y2.22 Z1.46 F3000.0 E102.787
G1 X-14.38 Y2.07 Z1.46 F3000.0 E102.802
G1 X-14.05 Y1.86 Z1.46 F3000.0 E102.817
G1 X-13.77 Y1.59 Z1.46 F3000.0 E102.832
G1 X-13.53 Y1.29 Z1.46 F3000.0 E102.847
G1 X-13.35 Y0.94 Z1.46 F3000.0 E102.863
G1 X-13.22 Y0.58 Z1.46 F3000.0 E102.878
G1 X-13.16 Y0.23 Z1.46 F3000.0 E102.892
G1 F1200.0
G1 E101.892
G1 F3000.0
M103
(</loop>)
(<loop> outer )
G1 X-12.74 Y-2.27 Z1.46 F5400.0
G1 F1200.0
G1 E102.892
G1 F5400.0
M101
G1 X-12.72 Y-2.25 Z1.46 F3000.0 E102.893
G1 X-12.35 Y-2.1 Z1.46 F3000.0 E102.908
G1 X-11.55 Y-1.92 Z1.46 F3000.0 E102.94
G1 X11.55 Y-1.92 Z1.46 F3000.0 E103.844
G1 X11.96 Y-1.99 Z1.46 F3000.0 E103.861
G1 X12.72 Y-2.25 Z1.46 F3000.0 E103.892
G1 X13.7 Y-2.88 Z1.46 F3000.0 E103.938
G1 X14.37 Y-3.21 Z1.46 F3000.0 E103.967
G1 X15.09 Y-3.38 Z1.46 F3000.0 E103.996
G1 X15.83 Y-3.38 Z1.46 F3000.0 E104.025
G1 X16.55 Y-3.23 Z1.46 F3000.0 E104.054
G1 X17.23 Y-2.93 Z1.46 F3000.0 E104.082
G1 X17.82 Y-2.48 Z1.46 F3000.0 E104.112
G1 X18.3 Y-1.92 Z1.46 F3000.0 E104.14
G1 X18.65 Y-1.27 Z1.46 F3000.0 E104.169
G1 X18.85 Y-0.55 Z1.46 F3000.0 E104.198
G1 X18.89 Y0.19 Z1.46 F3000.0 E104.227
G1 X18.77 Y0.92 Z1.46 F3000.0 E104.256
G1 X18.5 Y1.6 Z1.46 F3000.0 E104.285
G1 X18.08 Y2.21 Z1.46 F3000.0 E104.314
G1 X17.54 Y2.72 Z1.46 F3000.0 E104.343
G1 X16.9 Y3.1 Z1.46 F3000.0 E104.372
G1 X16.2 Y3.33 Z1.46 F3000.0 E104.401
G1 X15.46 Y3.4 Z1.46 F3000.0 E104.43
G1 X15.09 Y3.38 Z1.46 F3000.0 E104.445
G1 X14.37 Y3.21 Z1.46 F3000.0 E104.474
G1 X14.03 Y3.06 Z1.46 F3000.0 E104.488
G1 X12.72 Y2.25 Z1.46 F3000.0 E104.548
G1 X11.96 Y1.99 Z1.46 F3000.0 E104.58
G1 X11.55 Y1.92 Z1.46 F3000.0 E104.596
G1 X-11.55 Y1.92 Z1.46 F3000.0 E105.5
G1 X-12.35 Y2.1 Z1.46 F3000.0 E105.532
G1 X-13.07 Y2.44 Z1.46 F3000.0 E105.563
G1 X-13.7 Y2.88 Z1.46 F3000.0 E105.594
G1 X-14.37 Y3.21 Z1.46 F3000.0 E105.622
G1 X-15.09 Y3.38 Z1.46 F3000.0 E105.652
G1 X-15.83 Y3.38 Z1.46 F3000.0 E105.68
G1 X-16.55 Y3.23 Z1.46 F3000.0 E105.709
G1 X-17.23 Y2.93 Z1.46 F3000.0 E105.738
G1 X-17.82 Y2.48 Z1.46 F3000.0 E105.767
G1 X-18.3 Y1.92 Z1.46 F3000.0 E105.796
G1 X-18.65 Y1.27 Z1.46 F3000.0 E105.825
G1 X-18.85 Y0.55 Z1.46 F3000.0 E105.854
G1 X-18.89 Y-0.19 Z1.46 F3000.0 E105.883
G1 X-18.77 Y-0.92 Z1.46 F3000.0 E105.912
G1 X-18.5 Y-1.6 Z1.46 F3000.0 E105.941
G1 X-18.3 Y-1.92 Z1.46 F3000.0 E105.956
G1 X-17.82 Y-2.48 Z1.46 F3000.0 E105.985
G1 X-17.23 Y-2.93 Z1.46 F3000.0 E106.014
G1 X-16.55 Y-3.23 Z1.46 F3000.0 E106.043
G1 X-16.2 Y-3.33 Z1.46 F3000.0 E106.057
G1 X-15.46 Y-3.4 Z1.46 F3000.0 E106.086
G1 X-14.72 Y-3.31 Z1.46 F3000.0 E106.115
G1 X-14.03 Y-3.06 Z1.46 F3000.0 E106.144
G1 X-12.74 Y-2.27 Z1.46 F3000.0 E106.203
G1 F1200.0
G1 E106.203
G1 F3000.0
M103
(</loop>)
(<edge> outer )
;M108 R25.0
G1 X-12.61 Y-2.65 Z1.46 F5400.0
G1 F1200.0
G1 E106.203
G1 F5400.0
M101
G1 X-12.55 Y-2.61 Z1.46 F1500.0 E106.206
G1 X-12.22 Y-2.48 Z1.46 F1500.0 E106.22
G1 X-11.88 Y-2.38 Z1.46 F1500.0 E106.234
G1 X-11.52 Y-2.32 Z1.46 F1500.0 E106.248
G1 X11.52 Y-2.32 Z1.46 F1500.0 E107.15
G1 X11.88 Y-2.38 Z1.46 F1500.0 E107.164
G1 X12.22 Y-2.48 Z1.46 F1500.0 E107.178
G1 X12.55 Y-2.61 Z1.46 F1500.0 E107.192
G1 X12.86 Y-2.78 Z1.46 F1500.0 E107.206
G1 X13.49 Y-3.22 Z1.46 F1500.0 E107.236
G1 X13.85 Y-3.42 Z1.46 F1500.0 E107.252
G1 X14.23 Y-3.58 Z1.46 F1500.0 E107.268
G1 X14.63 Y-3.7 Z1.46 F1500.0 E107.284
G1 X15.04 Y-3.77 Z1.46 F1500.0 E107.301
M73 P10 (display progress)
G1 X15.45 Y-3.8 Z1.46 F1500.0 E107.317
G1 X15.87 Y-3.78 Z1.46 F1500.0 E107.333
G1 X16.28 Y-3.72 Z1.46 F1500.0 E107.349
G1 X16.68 Y-3.61 Z1.46 F1500.0 E107.365
G1 X17.07 Y-3.46 Z1.46 F1500.0 E107.382
G1 X17.43 Y-3.27 Z1.46 F1500.0 E107.398
G1 X17.78 Y-3.04 Z1.46 F1500.0 E107.414
G1 X18.1 Y-2.77 Z1.46 F1500.0 E107.43
G1 X18.38 Y-2.48 Z1.46 F1500.0 E107.447
G1 X18.64 Y-2.15 Z1.46 F1500.0 E107.463
G1 X18.85 Y-1.79 Z1.46 F1500.0 E107.479
G1 X19.03 Y-1.42 Z1.46 F1500.0 E107.495
G1 X19.16 Y-1.02 Z1.46 F1500.0 E107.511
G1 X19.25 Y-0.62 Z1.46 F1500.0 E107.528
G1 X19.29 Y-0.21 Z1.46 F1500.0 E107.544
G1 X19.29 Y0.21 Z1.46 F1500.0 E107.56
G1 X19.25 Y0.62 Z1.46 F1500.0 E107.576
G1 X19.16 Y1.02 Z1.46 F1500.0 E107.593
G1 X19.03 Y1.42 Z1.46 F1500.0 E107.609
G1 X18.85 Y1.79 Z1.46 F1500.0 E107.625
G1 X18.64 Y2.15 Z1.46 F1500.0 E107.641
G1 X18.38 Y2.48 Z1.46 F1500.0 E107.657
G1 X18.1 Y2.77 Z1.46 F1500.0 E107.674
G1 X17.78 Y3.04 Z1.46 F1500.0 E107.69
G1 X17.43 Y3.27 Z1.46 F1500.0 E107.706
G1 X17.07 Y3.46 Z1.46 F1500.0 E107.722
G1 X16.68 Y3.61 Z1.46 F1500.0 E107.739
G1 X16.28 Y3.72 Z1.46 F1500.0 E107.755
G1 X15.87 Y3.78 Z1.46 F1500.0 E107.771
G1 X15.45 Y3.8 Z1.46 F1500.0 E107.787
G1 X15.04 Y3.77 Z1.46 F1500.0 E107.803
G1 X14.63 Y3.7 Z1.46 F1500.0 E107.82
G1 X14.23 Y3.58 Z1.46 F1500.0 E107.836
G1 X13.85 Y3.42 Z1.46 F1500.0 E107.852
G1 X13.49 Y3.22 Z1.46 F1500.0 E107.868
G1 X12.86 Y2.78 Z1.46 F1500.0 E107.898
G1 X12.55 Y2.61 Z1.46 F1500.0 E107.912
G1 X12.22 Y2.48 Z1.46 F1500.0 E107.926
G1 X11.88 Y2.38 Z1.46 F1500.0 E107.94
G1 X11.52 Y2.32 Z1.46 F1500.0 E107.954
G1 X-11.52 Y2.32 Z1.46 F1500.0 E108.856
G1 X-11.88 Y2.38 Z1.46 F1500.0 E108.87
G1 X-12.22 Y2.48 Z1.46 F1500.0 E108.884
G1 X-12.55 Y2.61 Z1.46 F1500.0 E108.898
G1 X-12.86 Y2.78 Z1.46 F1500.0 E108.912
G1 X-13.49 Y3.22 Z1.46 F1500.0 E108.942
G1 X-13.85 Y3.42 Z1.46 F1500.0 E108.958
G1 X-14.23 Y3.58 Z1.46 F1500.0 E108.974
G1 X-14.63 Y3.7 Z1.46 F1500.0 E108.99
G1 X-15.04 Y3.77 Z1.46 F1500.0 E109.007
G1 X-15.45 Y3.8 Z1.46 F1500.0 E109.023
G1 X-15.87 Y3.78 Z1.46 F1500.0 E109.039
G1 X-16.28 Y3.72 Z1.46 F1500.0 E109.055
G1 X-16.68 Y3.61 Z1.46 F1500.0 E109.072
G1 X-17.07 Y3.46 Z1.46 F1500.0 E109.088
G1 X-17.43 Y3.27 Z1.46 F1500.0 E109.104
G1 X-17.78 Y3.04 Z1.46 F1500.0 E109.12
G1 X-18.1 Y2.77 Z1.46 F1500.0 E109.136
G1 X-18.38 Y2.48 Z1.46 F1500.0 E109.153
G1 X-18.64 Y2.15 Z1.46 F1500.0 E109.169
G1 X-18.85 Y1.79 Z1.46 F1500.0 E109.185
G1 X-19.03 Y1.42 Z1.46 F1500.0 E109.201
G1 X-19.16 Y1.02 Z1.46 F1500.0 E109.218
G1 X-19.25 Y0.62 Z1.46 F1500.0 E109.234
G1 X-19.29 Y0.21 Z1.46 F1500.0 E109.25
G1 X-19.29 Y-0.21 Z1.46 F1500.0 E109.266
G1 X-19.25 Y-0.62 Z1.46 F1500.0 E109.282
G1 X-19.16 Y-1.02 Z1.46 F1500.0 E109.299
G1 X-19.03 Y-1.42 Z1.46 F1500.0 E109.315
G1 X-18.85 Y-1.79 Z1.46 F1500.0 E109.331
G1 X-18.64 Y-2.15 Z1.46 F1500.0 E109.347
G1 X-18.38 Y-2.48 Z1.46 F1500.0 E109.364
G1 X-18.1 Y-2.77 Z1.46 F1500.0 E109.38
G1 X-17.78 Y-3.04 Z1.46 F1500.0 E109.396
G1 X-17.43 Y-3.27 Z1.46 F1500.0 E109.412
G1 X-17.07 Y-3.46 Z1.46 F1500.0 E109.428
G1 X-16.68 Y-3.61 Z1.46 F1500.0 E109.445
G1 X-16.28 Y-3.72 Z1.46 F1500.0 E109.461
G1 X-15.87 Y-3.78 Z1.46 F1500.0 E109.477
G1 X-15.45 Y-3.8 Z1.46 F1500.0 E109.493
G1 X-15.04 Y-3.77 Z1.46 F1500.0 E109.51
G1 X-14.63 Y-3.7 Z1.46 F1500.0 E109.526
G1 X-14.23 Y-3.58 Z1.46 F1500.0 E109.542
G1 X-13.85 Y-3.42 Z1.46 F1500.0 E109.558
G1 X-13.49 Y-3.22 Z1.46 F1500.0 E109.574
G1 X-12.86 Y-2.78 Z1.46 F1500.0 E109.605
G1 X-12.61 Y-2.65 Z1.46 F1500.0 E109.616
G1 F1200.0
G1 E108.616
G1 F1500.0
M103
(</edge>)
(</boundaryPerimeter>)
(<nestedRing>)
(<boundaryPerimeter>)
(<boundaryPoint> X-14.932 Y1.655 Z1.46 </boundaryPoint>)
(<boundaryPoint> X-14.667 Y1.539 Z1.46 </boundaryPoint>)
(<boundaryPoint> X-14.425 Y1.381 Z1.46 </boundaryPoint>)
(<boundaryPoint> X-14.212 Y1.185 Z1.46 </boundaryPoint>)
(<boundaryPoint> X-14.035 Y0.957 Z1.46 </boundaryPoint>)
(<boundaryPoint> X-13.897 Y0.703 Z1.46 </boundaryPoint>)
(<boundaryPoint> X-13.804 Y0.43 Z1.46 </boundaryPoint>)
(<boundaryPoint> X-13.756 Y0.145 Z1.46 </boundaryPoint>)
(<boundaryPoint> X-13.756 Y-0.145 Z1.46 </boundaryPoint>)
(<boundaryPoint> X-13.804 Y-0.43 Z1.46 </boundaryPoint>)
(<boundaryPoint> X-13.897 Y-0.703 Z1.46 </boundaryPoint>)
(<boundaryPoint> X-14.035 Y-0.957 Z1.46 </boundaryPoint>)
(<boundaryPoint> X-14.212 Y-1.185 Z1.46 </boundaryPoint>)
(<boundaryPoint> X-14.425 Y-1.381 Z1.46 </boundaryPoint>)
(<boundaryPoint> X-14.667 Y-1.539 Z1.46 </boundaryPoint>)
(<boundaryPoint> X-14.932 Y-1.655 Z1.46 </boundaryPoint>)
(<boundaryPoint> X-15.212 Y-1.726 Z1.46 </boundaryPoint>)
(<boundaryPoint> X-15.5 Y-1.75 Z1.46 </boundaryPoint>)
(<boundaryPoint> X-15.788 Y-1.726 Z1.46 </boundaryPoint>)
(<boundaryPoint> X-16.068 Y-1.655 Z1.46 </boundaryPoint>)
(<boundaryPoint> X-16.333 Y-1.539 Z1.46 </boundaryPoint>)
(<boundaryPoint> X-16.575 Y-1.381 Z1.46 </boundaryPoint>)
(<boundaryPoint> X-16.788 Y-1.185 Z1.46 </boundaryPoint>)
(<boundaryPoint> X-16.965 Y-0.957 Z1.46 </boundaryPoint>)
(<boundaryPoint> X-17.103 Y-0.703 Z1.46 </boundaryPoint>)
(<boundaryPoint> X-17.196 Y-0.43 Z1.46 </boundaryPoint>)
(<boundaryPoint> X-17.244 Y-0.145 Z1.46 </boundaryPoint>)
(<boundaryPoint> X-17.244 Y0.145 Z1.46 </boundaryPoint>)
(<boundaryPoint> X-17.196 Y0.43 Z1.46 </boundaryPoint>)
(<boundaryPoint> X-17.103 Y0.703 Z1.46 </boundaryPoint>)
(<boundaryPoint> X-16.965 Y0.957 Z1.46 </boundaryPoint>)
(<boundaryPoint> X-16.788 Y1.185 Z1.46 </boundaryPoint>)
(<boundaryPoint> X-16.575 Y1.381 Z1.46 </boundaryPoint>)
(<boundaryPoint> X-16.333 Y1.539 Z1.46 </boundaryPoint>)
(<boundaryPoint> X-16.068 Y1.655 Z1.46 </boundaryPoint>)
(<boundaryPoint> X-15.788 Y1.726 Z1.46 </boundaryPoint>)
(<boundaryPoint> X-15.5 Y1.75 Z1.46 </boundaryPoint>)
(<boundaryPoint> X-15.212 Y1.726 Z1.46 </boundaryPoint>)
(<edge> inner )
G1 X-13.68 Y-0.68 Z1.46 F5400.0
G1 F1200.0
G1 E109.616
G1 F5400.0
M101
G1 X-13.71 Y-0.78 Z1.46 F1500.0 E109.62
G1 X-13.87 Y-1.07 Z1.46 F1500.0 E109.632
G1 X-14.06 Y-1.32 Z1.46 F1500.0 E109.645
G1 X-14.3 Y-1.54 Z1.46 F1500.0 E109.658
G1 X-14.57 Y-1.72 Z1.46 F1500.0 E109.67
G1 X-14.87 Y-1.84 Z1.46 F1500.0 E109.683
G1 X-15.18 Y-1.92 Z1.46 F1500.0 E109.695
G1 X-15.5 Y-1.95 Z1.46 F1500.0 E109.708
G1 X-15.82 Y-1.92 Z1.46 F1500.0 E109.721
G1 X-16.13 Y-1.84 Z1.46 F1500.0 E109.733
G1 X-16.43 Y-1.72 Z1.46 F1500.0 E109.746
G1 X-16.7 Y-1.54 Z1.46 F1500.0 E109.758
G1 X-16.94 Y-1.32 Z1.46 F1500.0 E109.771
G1 X-17.13 Y-1.07 Z1.46 F1500.0 E109.784
G1 X-17.29 Y-0.78 Z1.46 F1500.0 E109.796
G1 X-17.39 Y-0.48 Z1.46 F1500.0 E109.809
G1 X-17.44 Y-0.16 Z1.46 F1500.0 E109.821
G1 X-17.44 Y0.16 Z1.46 F1500.0 E109.834
G1 X-17.39 Y0.48 Z1.46 F1500.0 E109.847
G1 X-17.29 Y0.78 Z1.46 F1500.0 E109.859
G1 X-17.13 Y1.07 Z1.46 F1500.0 E109.872
G1 X-16.94 Y1.32 Z1.46 F1500.0 E109.885
G1 X-16.7 Y1.54 Z1.46 F1500.0 E109.897
G1 X-16.43 Y1.72 Z1.46 F1500.0 E109.91
G1 X-16.13 Y1.84 Z1.46 F1500.0 E109.922
G1 X-15.82 Y1.92 Z1.46 F1500.0 E109.935
G1 X-15.5 Y1.95 Z1.46 F1500.0 E109.948
G1 X-15.18 Y1.92 Z1.46 F1500.0 E109.96
G1 X-14.87 Y1.84 Z1.46 F1500.0 E109.973
G1 X-14.57 Y1.72 Z1.46 F1500.0 E109.985
G1 X-14.3 Y1.54 Z1.46 F1500.0 E109.998
G1 X-14.06 Y1.32 Z1.46 F1500.0 E110.011
G1 X-13.87 Y1.07 Z1.46 F1500.0 E110.023
G1 X-13.71 Y0.78 Z1.46 F1500.0 E110.036
G1 X-13.61 Y0.48 Z1.46 F1500.0 E110.048
G1 X-13.56 Y0.16 Z1.46 F1500.0 E110.061
G1 X-13.56 Y-0.16 Z1.46 F1500.0 E110.074
G1 X-13.61 Y-0.48 Z1.46 F1500.0 E110.086
G1 X-13.68 Y-0.68 Z1.46 F1500.0 E110.095
M73 P11 (display progress)
G1 F1200.0
G1 E109.095
G1 F1500.0
M103
(</edge>)
(</boundaryPerimeter>)
(</nestedRing>)
(<nestedRing>)
(<boundaryPerimeter>)
(<boundaryPoint> X16.068 Y1.655 Z1.46 </boundaryPoint>)
(<boundaryPoint> X16.333 Y1.539 Z1.46 </boundaryPoint>)
(<boundaryPoint> X16.575 Y1.381 Z1.46 </boundaryPoint>)
(<boundaryPoint> X16.788 Y1.185 Z1.46 </boundaryPoint>)
(<boundaryPoint> X16.965 Y0.957 Z1.46 </boundaryPoint>)
(<boundaryPoint> X17.103 Y0.703 Z1.46 </boundaryPoint>)
(<boundaryPoint> X17.196 Y0.43 Z1.46 </boundaryPoint>)
(<boundaryPoint> X17.244 Y0.145 Z1.46 </boundaryPoint>)
(<boundaryPoint> X17.244 Y-0.145 Z1.46 </boundaryPoint>)
(<boundaryPoint> X17.196 Y-0.43 Z1.46 </boundaryPoint>)
(<boundaryPoint> X17.103 Y-0.703 Z1.46 </boundaryPoint>)
(<boundaryPoint> X16.965 Y-0.957 Z1.46 </boundaryPoint>)
(<boundaryPoint> X16.788 Y-1.185 Z1.46 </boundaryPoint>)
(<boundaryPoint> X16.575 Y-1.381 Z1.46 </boundaryPoint>)
(<boundaryPoint> X16.333 Y-1.539 Z1.46 </boundaryPoint>)
(<boundaryPoint> X16.068 Y-1.655 Z1.46 </boundaryPoint>)
(<boundaryPoint> X15.788 Y-1.726 Z1.46 </boundaryPoint>)
(<boundaryPoint> X15.5 Y-1.75 Z1.46 </boundaryPoint>)
(<boundaryPoint> X15.212 Y-1.726 Z1.46 </boundaryPoint>)
(<boundaryPoint> X14.932 Y-1.655 Z1.46 </boundaryPoint>)
(<boundaryPoint> X14.667 Y-1.539 Z1.46 </boundaryPoint>)
(<boundaryPoint> X14.425 Y-1.381 Z1.46 </boundaryPoint>)
(<boundaryPoint> X14.212 Y-1.185 Z1.46 </boundaryPoint>)
(<boundaryPoint> X14.035 Y-0.957 Z1.46 </boundaryPoint>)
(<boundaryPoint> X13.897 Y-0.703 Z1.46 </boundaryPoint>)
(<boundaryPoint> X13.804 Y-0.43 Z1.46 </boundaryPoint>)
(<boundaryPoint> X13.756 Y-0.145 Z1.46 </boundaryPoint>)
(<boundaryPoint> X13.756 Y0.145 Z1.46 </boundaryPoint>)
(<boundaryPoint> X13.804 Y0.43 Z1.46 </boundaryPoint>)
(<boundaryPoint> X13.897 Y0.703 Z1.46 </boundaryPoint>)
(<boundaryPoint> X14.035 Y0.957 Z1.46 </boundaryPoint>)
(<boundaryPoint> X14.212 Y1.185 Z1.46 </boundaryPoint>)
(<boundaryPoint> X14.425 Y1.381 Z1.46 </boundaryPoint>)
(<boundaryPoint> X14.667 Y1.539 Z1.46 </boundaryPoint>)
(<boundaryPoint> X14.932 Y1.655 Z1.46 </boundaryPoint>)
(<boundaryPoint> X15.212 Y1.726 Z1.46 </boundaryPoint>)
(<boundaryPoint> X15.5 Y1.75 Z1.46 </boundaryPoint>)
(<boundaryPoint> X15.788 Y1.726 Z1.46 </boundaryPoint>)
(<edge> inner )
G1 X13.64 Y-0.58 Z1.46 F5400.0
G1 F1200.0
G1 E110.095
G1 F5400.0
M101
G1 X13.61 Y-0.48 Z1.46 F1500.0 E110.099
G1 X13.56 Y-0.16 Z1.46 F1500.0 E110.111
G1 X13.56 Y0.16 Z1.46 F1500.0 E110.124
G1 X13.61 Y0.48 Z1.46 F1500.0 E110.137
G1 X13.71 Y0.78 Z1.46 F1500.0 E110.149
G1 X13.87 Y1.07 Z1.46 F1500.0 E110.162
G1 X14.06 Y1.32 Z1.46 F1500.0 E110.175
G1 X14.3 Y1.54 Z1.46 F1500.0 E110.187
G1 X14.57 Y1.72 Z1.46 F1500.0 E110.2
G1 X14.87 Y1.84 Z1.46 F1500.0 E110.212
G1 X15.18 Y1.92 Z1.46 F1500.0 E110.225
G1 X15.5 Y1.95 Z1.46 F1500.0 E110.238
G1 X15.82 Y1.92 Z1.46 F1500.0 E110.25
G1 X16.13 Y1.84 Z1.46 F1500.0 E110.263
G1 X16.43 Y1.72 Z1.46 F1500.0 E110.275
G1 X16.7 Y1.54 Z1.46 F1500.0 E110.288
G1 X16.94 Y1.32 Z1.46 F1500.0 E110.301
G1 X17.13 Y1.07 Z1.46 F1500.0 E110.313
G1 X17.29 Y0.78 Z1.46 F1500.0 E110.326
G1 X17.39 Y0.48 Z1.46 F1500.0 E110.338
G1 X17.44 Y0.16 Z1.46 F1500.0 E110.351
G1 X17.44 Y-0.16 Z1.46 F1500.0 E110.364
G1 X17.39 Y-0.48 Z1.46 F1500.0 E110.376
G1 X17.29 Y-0.78 Z1.46 F1500.0 E110.389
G1 X17.13 Y-1.07 Z1.46 F1500.0 E110.402
G1 X16.94 Y-1.32 Z1.46 F1500.0 E110.414
G1 X16.7 Y-1.54 Z1.46 F1500.0 E110.427
G1 X16.43 Y-1.72 Z1.46 F1500.0 E110.439
G1 X16.13 Y-1.84 Z1.46 F1500.0 E110.452
G1 X15.82 Y-1.92 Z1.46 F1500.0 E110.465
G1 X15.5 Y-1.95 Z1.46 F1500.0 E110.477
G1 X15.18 Y-1.92 Z1.46 F1500.0 E110.49
G1 X14.87 Y-1.84 Z1.46 F1500.0 E110.502
G1 X14.57 Y-1.72 Z1.46 F1500.0 E110.515
G1 X14.3 Y-1.54 Z1.46 F1500.0 E110.528
G1 X14.06 Y-1.32 Z1.46 F1500.0 E110.54
G1 X13.87 Y-1.07 Z1.46 F1500.0 E110.553
G1 X13.71 Y-0.78 Z1.46 F1500.0 E110.565
G1 X13.64 Y-0.58 Z1.46 F1500.0 E110.574
G1 F1200.0
G1 E109.574
G1 F1500.0
M103
(</edge>)
(</boundaryPerimeter>)
(</nestedRing>)
(<infill>)
(<infillBoundary>)
(<infillPoint> X14.368 Y-3.205 Z0.3 </infillPoint>)
(<infillPoint> X15.09 Y-3.375 Z0.3 </infillPoint>)
(<infillPoint> X15.829 Y-3.383 Z0.3 </infillPoint>)
(<infillPoint> X16.555 Y-3.232 Z0.3 </infillPoint>)
(<infillPoint> X17.229 Y-2.927 Z0.3 </infillPoint>)
(<infillPoint> X17.823 Y-2.482 Z0.3 </infillPoint>)
(<infillPoint> X18.305 Y-1.921 Z0.3 </infillPoint>)
(<infillPoint> X18.654 Y-1.267 Z0.3 </infillPoint>)
(<infillPoint> X18.854 Y-0.554 Z0.3 </infillPoint>)
(<infillPoint> X18.894 Y0.186 Z0.3 </infillPoint>)
(<infillPoint> X18.773 Y0.916 Z0.3 </infillPoint>)
(<infillPoint> X18.497 Y1.604 Z0.3 </infillPoint>)
(<infillPoint> X18.079 Y2.214 Z0.3 </infillPoint>)
(<infillPoint> X17.538 Y2.72 Z0.3 </infillPoint>)
(<infillPoint> X16.9 Y3.097 Z0.3 </infillPoint>)
(<infillPoint> X16.196 Y3.327 Z0.3 </infillPoint>)
(<infillPoint> X15.459 Y3.399 Z0.3 </infillPoint>)
(<infillPoint> X15.09 Y3.375 Z0.3 </infillPoint>)
(<infillPoint> X14.368 Y3.205 Z0.3 </infillPoint>)
(<infillPoint> X14.026 Y3.063 Z0.3 </infillPoint>)
(<infillPoint> X12.719 Y2.25 Z0.3 </infillPoint>)
(<infillPoint> X11.963 Y1.988 Z0.3 </infillPoint>)
(<infillPoint> X11.553 Y1.919 Z0.3 </infillPoint>)
(<infillPoint> X-11.553 Y1.919 Z0.3 </infillPoint>)
(<infillPoint> X-12.349 Y2.097 Z0.3 </infillPoint>)
(<infillPoint> X-13.07 Y2.442 Z0.3 </infillPoint>)
(<infillPoint> X-13.701 Y2.884 Z0.3 </infillPoint>)
(<infillPoint> X-14.368 Y3.205 Z0.3 </infillPoint>)
(<infillPoint> X-15.09 Y3.375 Z0.3 </infillPoint>)
(<infillPoint> X-15.829 Y3.383 Z0.3 </infillPoint>)
(<infillPoint> X-16.555 Y3.232 Z0.3 </infillPoint>)
(<infillPoint> X-17.229 Y2.927 Z0.3 </infillPoint>)
(<infillPoint> X-17.823 Y2.482 Z0.3 </infillPoint>)
(<infillPoint> X-18.305 Y1.921 Z0.3 </infillPoint>)
(<infillPoint> X-18.654 Y1.267 Z0.3 </infillPoint>)
(<infillPoint> X-18.854 Y0.554 Z0.3 </infillPoint>)
(<infillPoint> X-18.894 Y-0.186 Z0.3 </infillPoint>)
(<infillPoint> X-18.773 Y-0.916 Z0.3 </infillPoint>)
(<infillPoint> X-18.497 Y-1.604 Z0.3 </infillPoint>)
(<infillPoint> X-18.305 Y-1.921 Z0.3 </infillPoint>)
(<infillPoint> X-17.823 Y-2.482 Z0.3 </infillPoint>)
(<infillPoint> X-17.229 Y-2.927 Z0.3 </infillPoint>)
(<infillPoint> X-16.555 Y-3.232 Z0.3 </infillPoint>)
(<infillPoint> X-16.196 Y-3.327 Z0.3 </infillPoint>)
(<infillPoint> X-15.459 Y-3.399 Z0.3 </infillPoint>)
(<infillPoint> X-14.724 Y-3.309 Z0.3 </infillPoint>)
(<infillPoint> X-14.026 Y-3.063 Z0.3 </infillPoint>)
(<infillPoint> X-12.719 Y-2.25 Z0.3 </infillPoint>)
(<infillPoint> X-12.349 Y-2.097 Z0.3 </infillPoint>)
(<infillPoint> X-11.553 Y-1.919 Z0.3 </infillPoint>)
(<infillPoint> X11.553 Y-1.919 Z0.3 </infillPoint>)
(<infillPoint> X11.963 Y-1.988 Z0.3 </infillPoint>)
(<infillPoint> X12.719 Y-2.25 Z0.3 </infillPoint>)
(<infillPoint> X13.701 Y-2.884 Z0.3 </infillPoint>)
(</infillBoundary>)
(<infillBoundary>)
(<infillPoint> X16.263 Y2.224 Z0.3 </infillPoint>)
(<infillPoint> X16.619 Y2.069 Z0.3 </infillPoint>)
(<infillPoint> X16.945 Y1.856 Z0.3 </infillPoint>)
(<infillPoint> X17.231 Y1.593 Z0.3 </infillPoint>)
(<infillPoint> X17.469 Y1.286 Z0.3 </infillPoint>)
(<infillPoint> X17.655 Y0.945 Z0.3 </infillPoint>)
(<infillPoint> X17.78 Y0.578 Z0.3 </infillPoint>)
(<infillPoint> X17.844 Y0.195 Z0.3 </infillPoint>)
(<infillPoint> X17.844 Y-0.195 Z0.3 </infillPoint>)
(<infillPoint> X17.78 Y-0.578 Z0.3 </infillPoint>)
(<infillPoint> X17.655 Y-0.945 Z0.3 </infillPoint>)
(<infillPoint> X17.469 Y-1.286 Z0.3 </infillPoint>)
(<infillPoint> X17.231 Y-1.593 Z0.3 </infillPoint>)
(<infillPoint> X16.945 Y-1.856 Z0.3 </infillPoint>)
(<infillPoint> X16.619 Y-2.069 Z0.3 </infillPoint>)
(<infillPoint> X16.263 Y-2.224 Z0.3 </infillPoint>)
(<infillPoint> X15.887 Y-2.32 Z0.3 </infillPoint>)
(<infillPoint> X15.5 Y-2.352 Z0.3 </infillPoint>)
(<infillPoint> X15.113 Y-2.32 Z0.3 </infillPoint>)
(<infillPoint> X14.737 Y-2.224 Z0.3 </infillPoint>)
(<infillPoint> X14.381 Y-2.069 Z0.3 </infillPoint>)
M73 P12 (display progress)
(<infillPoint> X14.055 Y-1.856 Z0.3 </infillPoint>)
(<infillPoint> X13.769 Y-1.593 Z0.3 </infillPoint>)
(<infillPoint> X13.531 Y-1.286 Z0.3 </infillPoint>)
(<infillPoint> X13.345 Y-0.945 Z0.3 </infillPoint>)
(<infillPoint> X13.22 Y-0.578 Z0.3 </infillPoint>)
(<infillPoint> X13.156 Y-0.195 Z0.3 </infillPoint>)
(<infillPoint> X13.156 Y0.195 Z0.3 </infillPoint>)
(<infillPoint> X13.22 Y0.578 Z0.3 </infillPoint>)
(<infillPoint> X13.345 Y0.945 Z0.3 </infillPoint>)
(<infillPoint> X13.531 Y1.286 Z0.3 </infillPoint>)
(<infillPoint> X13.769 Y1.593 Z0.3 </infillPoint>)
(<infillPoint> X14.055 Y1.856 Z0.3 </infillPoint>)
(<infillPoint> X14.381 Y2.069 Z0.3 </infillPoint>)
(<infillPoint> X14.737 Y2.224 Z0.3 </infillPoint>)
(<infillPoint> X15.113 Y2.32 Z0.3 </infillPoint>)
(<infillPoint> X15.5 Y2.352 Z0.3 </infillPoint>)
(<infillPoint> X15.887 Y2.32 Z0.3 </infillPoint>)
(</infillBoundary>)
(<infillBoundary>)
(<infillPoint> X-14.737 Y2.224 Z0.3 </infillPoint>)
(<infillPoint> X-14.381 Y2.069 Z0.3 </infillPoint>)
(<infillPoint> X-14.055 Y1.856 Z0.3 </infillPoint>)
(<infillPoint> X-13.769 Y1.593 Z0.3 </infillPoint>)
(<infillPoint> X-13.531 Y1.286 Z0.3 </infillPoint>)
(<infillPoint> X-13.345 Y0.945 Z0.3 </infillPoint>)
(<infillPoint> X-13.22 Y0.578 Z0.3 </infillPoint>)
(<infillPoint> X-13.156 Y0.195 Z0.3 </infillPoint>)
(<infillPoint> X-13.156 Y-0.195 Z0.3 </infillPoint>)
(<infillPoint> X-13.22 Y-0.578 Z0.3 </infillPoint>)
(<infillPoint> X-13.345 Y-0.945 Z0.3 </infillPoint>)
(<infillPoint> X-13.531 Y-1.286 Z0.3 </infillPoint>)
(<infillPoint> X-13.769 Y-1.593 Z0.3 </infillPoint>)
(<infillPoint> X-14.055 Y-1.856 Z0.3 </infillPoint>)
(<infillPoint> X-14.381 Y-2.069 Z0.3 </infillPoint>)
(<infillPoint> X-14.737 Y-2.224 Z0.3 </infillPoint>)
(<infillPoint> X-15.113 Y-2.32 Z0.3 </infillPoint>)
(<infillPoint> X-15.5 Y-2.352 Z0.3 </infillPoint>)
(<infillPoint> X-15.887 Y-2.32 Z0.3 </infillPoint>)
(<infillPoint> X-16.263 Y-2.224 Z0.3 </infillPoint>)
(<infillPoint> X-16.619 Y-2.069 Z0.3 </infillPoint>)
(<infillPoint> X-16.945 Y-1.856 Z0.3 </infillPoint>)
(<infillPoint> X-17.231 Y-1.593 Z0.3 </infillPoint>)
(<infillPoint> X-17.469 Y-1.286 Z0.3 </infillPoint>)
(<infillPoint> X-17.655 Y-0.945 Z0.3 </infillPoint>)
(<infillPoint> X-17.78 Y-0.578 Z0.3 </infillPoint>)
(<infillPoint> X-17.844 Y-0.195 Z0.3 </infillPoint>)
(<infillPoint> X-17.844 Y0.195 Z0.3 </infillPoint>)
(<infillPoint> X-17.78 Y0.578 Z0.3 </infillPoint>)
(<infillPoint> X-17.655 Y0.945 Z0.3 </infillPoint>)
(<infillPoint> X-17.469 Y1.286 Z0.3 </infillPoint>)
(<infillPoint> X-17.231 Y1.593 Z0.3 </infillPoint>)
(<infillPoint> X-16.945 Y1.856 Z0.3 </infillPoint>)
(<infillPoint> X-16.619 Y2.069 Z0.3 </infillPoint>)
(<infillPoint> X-16.263 Y2.224 Z0.3 </infillPoint>)
(<infillPoint> X-15.887 Y2.32 Z0.3 </infillPoint>)
(<infillPoint> X-15.5 Y2.352 Z0.3 </infillPoint>)
(<infillPoint> X-15.113 Y2.32 Z0.3 </infillPoint>)
(</infillBoundary>)
;M108 R50.0
G1 X-12.79 Y2.0 Z1.46 F5400.0
G1 F1200.0
G1 E110.574
G1 F5400.0
M101
G1 X-13.8 Y2.0 Z1.46 F3000.0 E110.613
G1 X-13.42 Y1.6 Z1.46 F3000.0 E110.635
G1 X13.42 Y1.6 Z1.46 F3000.0 E111.685
G1 X13.17 Y1.2 Z1.46 F3000.0 E111.703
G1 X-13.17 Y1.2 Z1.46 F3000.0 E112.734
G1 X-13.0 Y0.8 Z1.46 F3000.0 E112.751
G1 X13.0 Y0.8 Z1.46 F3000.0 E113.768
G1 X12.91 Y0.4 Z1.46 F3000.0 E113.784
G1 X-12.91 Y0.4 Z1.46 F3000.0 E114.794
G1 X-12.88 Y0.0 Z1.46 F3000.0 E114.81
G1 X12.88 Y-0.0 Z1.46 F3000.0 E115.818
G1 X12.91 Y-0.4 Z1.46 F3000.0 E115.833
G1 X-12.91 Y-0.4 Z1.46 F3000.0 E116.843
G1 X-13.0 Y-0.8 Z1.46 F3000.0 E116.859
G1 X13.0 Y-0.8 Z1.46 F3000.0 E117.877
G1 X13.17 Y-1.2 Z1.46 F3000.0 E117.894
G1 X-13.17 Y-1.2 Z1.46 F3000.0 E118.924
G1 X-13.42 Y-1.6 Z1.46 F3000.0 E118.943
G1 X13.42 Y-1.6 Z1.46 F3000.0 E119.993
G1 X12.85 Y-2.0 Z1.46 F3000.0 E120.02
G1 X13.8 Y-2.0 Z1.46 F3000.0 E120.057
G1 X13.47 Y-2.4 Z1.46 F3000.0 E120.078
G1 X14.44 Y-2.4 Z1.46 F3000.0 E120.116
G1 X14.17 Y-2.8 Z1.46 F3000.0 E120.134
G1 X16.83 Y-2.8 Z1.46 F3000.0 E120.238
G1 X16.56 Y-2.4 Z1.46 F3000.0 E120.257
G1 X17.46 Y-2.4 Z1.46 F3000.0 E120.293
G1 X17.2 Y-2.0 Z1.46 F3000.0 E120.311
G1 X17.87 Y-2.0 Z1.46 F3000.0 E120.338
G1 X17.58 Y-1.6 Z1.46 F3000.0 E120.357
G1 X18.16 Y-1.6 Z1.46 F3000.0 E120.379
G1 X18.37 Y-1.2 Z1.46 F3000.0 E120.397
G1 X17.83 Y-1.2 Z1.46 F3000.0 E120.418
G1 X18.0 Y-0.8 Z1.46 F3000.0 E120.435
G1 X18.49 Y-0.8 Z1.46 F3000.0 E120.455
G1 X18.58 Y-0.4 Z1.46 F3000.0 E120.471
G1 X18.09 Y-0.4 Z1.46 F3000.0 E120.49
G1 X18.12 Y-0.0 Z1.46 F3000.0 E120.505
G1 X18.6 Y-0.0 Z1.46 F3000.0 E120.524
G1 X18.57 Y0.4 Z1.46 F3000.0 E120.54
G1 X18.09 Y0.4 Z1.46 F3000.0 E120.559
G1 X18.0 Y0.8 Z1.46 F3000.0 E120.575
G1 X18.51 Y0.8 Z1.46 F3000.0 E120.595
G1 X18.36 Y1.2 Z1.46 F3000.0 E120.611
G1 X17.83 Y1.2 Z1.46 F3000.0 E120.632
G1 X17.58 Y1.6 Z1.46 F3000.0 E120.651
G1 X18.16 Y1.6 Z1.46 F3000.0 E120.673
G1 X17.89 Y2.0 Z1.46 F3000.0 E120.692
G1 X17.2 Y2.0 Z1.46 F3000.0 E120.719
G1 X17.47 Y2.4 Z1.46 F3000.0 E120.738
G1 X16.56 Y2.4 Z1.46 F3000.0 E120.773
G1 X16.85 Y2.8 Z1.46 F3000.0 E120.793
G1 X14.13 Y2.8 Z1.46 F3000.0 E120.899
G1 X14.44 Y2.4 Z1.46 F3000.0 E120.919
G1 X13.49 Y2.4 Z1.46 F3000.0 E120.956
G1 X13.8 Y2.0 Z1.46 F3000.0 E120.976
G1 X12.85 Y2.0 Z1.46 F3000.0 E121.013
G1 F1200.0
G1 E120.013
G1 F3000.0
M103
G1 X-13.5 Y2.4 Z1.46 F5400.0
G1 F1200.0
G1 E121.013
G1 F5400.0
M101
G1 X-14.44 Y2.4 Z1.46 F3000.0 E121.05
G1 X-14.17 Y2.8 Z1.46 F3000.0 E121.068
G1 X-16.83 Y2.8 Z1.46 F3000.0 E121.172
G1 X-16.56 Y2.4 Z1.46 F3000.0 E121.191
G1 X-17.46 Y2.4 Z1.46 F3000.0 E121.227
G1 X-17.2 Y2.0 Z1.46 F3000.0 E121.245
G1 X-17.87 Y2.0 Z1.46 F3000.0 E121.272
G1 X-17.58 Y1.6 Z1.46 F3000.0 E121.291
G1 X-18.16 Y1.6 Z1.46 F3000.0 E121.313
G1 X-18.37 Y1.2 Z1.46 F3000.0 E121.331
G1 X-17.83 Y1.2 Z1.46 F3000.0 E121.352
G1 X-18.0 Y0.8 Z1.46 F3000.0 E121.369
G1 X-18.49 Y0.8 Z1.46 F3000.0 E121.389
G1 X-18.58 Y0.4 Z1.46 F3000.0 E121.405
G1 X-18.09 Y0.4 Z1.46 F3000.0 E121.424
G1 X-18.12 Y0.0 Z1.46 F3000.0 E121.439
G1 X-18.6 Y0.0 Z1.46 F3000.0 E121.458
G1 X-18.57 Y-0.4 Z1.46 F3000.0 E121.474
G1 X-18.09 Y-0.4 Z1.46 F3000.0 E121.493
G1 X-18.0 Y-0.8 Z1.46 F3000.0 E121.509
G1 X-18.51 Y-0.8 Z1.46 F3000.0 E121.529
G1 X-18.36 Y-1.2 Z1.46 F3000.0 E121.545
G1 X-17.83 Y-1.2 Z1.46 F3000.0 E121.566
G1 X-17.58 Y-1.6 Z1.46 F3000.0 E121.585
G1 X-18.17 Y-1.6 Z1.46 F3000.0 E121.608
G1 X-17.87 Y-2.0 Z1.46 F3000.0 E121.627
G1 X-17.2 Y-2.0 Z1.46 F3000.0 E121.653
G1 X-17.46 Y-2.4 Z1.46 F3000.0 E121.672
G1 X-16.56 Y-2.4 Z1.46 F3000.0 E121.708
G1 X-16.83 Y-2.8 Z1.46 F3000.0 E121.726
G1 X-14.13 Y-2.8 Z1.46 F3000.0 E121.832
G1 X-14.44 Y-2.4 Z1.46 F3000.0 E121.852
G1 X-13.49 Y-2.4 Z1.46 F3000.0 E121.889
G1 X-13.8 Y-2.0 Z1.46 F3000.0 E121.908
G1 X-12.85 Y-2.0 Z1.46 F3000.0 E121.946
G1 F1200.0
G1 E120.946
G1 F3000.0
M103
(</infill>)
(</nestedRing>)
(</rotation>)
(</layer>)
(<operatingLayerEnd> </operatingLayerEnd>)
(<layer> 1.66 )
(<rotation> (6.12323399574e-17+1j) )
(<nestedRing>)
(<boundaryPerimeter>)
M73 P13 (display progress)
(<boundaryPoint> X13.765 Y-3.604 Z1.66 </boundaryPoint>)
(<boundaryPoint> X14.168 Y-3.772 Z1.66 </boundaryPoint>)
(<boundaryPoint> X14.587 Y-3.894 Z1.66 </boundaryPoint>)
(<boundaryPoint> X15.017 Y-3.971 Z1.66 </boundaryPoint>)
(<boundaryPoint> X15.452 Y-4.0 Z1.66 </boundaryPoint>)
(<boundaryPoint> X15.888 Y-3.981 Z1.66 </boundaryPoint>)
(<boundaryPoint> X16.319 Y-3.915 Z1.66 </boundaryPoint>)
(<boundaryPoint> X16.741 Y-3.803 Z1.66 </boundaryPoint>)
(<boundaryPoint> X17.148 Y-3.645 Z1.66 </boundaryPoint>)
(<boundaryPoint> X17.535 Y-3.444 Z1.66 </boundaryPoint>)
(<boundaryPoint> X17.898 Y-3.201 Z1.66 </boundaryPoint>)
(<boundaryPoint> X18.233 Y-2.921 Z1.66 </boundaryPoint>)
(<boundaryPoint> X18.535 Y-2.606 Z1.66 </boundaryPoint>)
(<boundaryPoint> X18.801 Y-2.26 Z1.66 </boundaryPoint>)
(<boundaryPoint> X19.027 Y-1.887 Z1.66 </boundaryPoint>)
(<boundaryPoint> X19.212 Y-1.491 Z1.66 </boundaryPoint>)
(<boundaryPoint> X19.352 Y-1.078 Z1.66 </boundaryPoint>)
(<boundaryPoint> X19.447 Y-0.652 Z1.66 </boundaryPoint>)
(<boundaryPoint> X19.494 Y-0.218 Z1.66 </boundaryPoint>)
(<boundaryPoint> X19.494 Y0.218 Z1.66 </boundaryPoint>)
(<boundaryPoint> X19.447 Y0.652 Z1.66 </boundaryPoint>)
(<boundaryPoint> X19.352 Y1.078 Z1.66 </boundaryPoint>)
(<boundaryPoint> X19.212 Y1.491 Z1.66 </boundaryPoint>)
(<boundaryPoint> X19.027 Y1.887 Z1.66 </boundaryPoint>)
(<boundaryPoint> X18.801 Y2.26 Z1.66 </boundaryPoint>)
(<boundaryPoint> X18.535 Y2.606 Z1.66 </boundaryPoint>)
(<boundaryPoint> X18.233 Y2.921 Z1.66 </boundaryPoint>)
(<boundaryPoint> X17.898 Y3.201 Z1.66 </boundaryPoint>)
(<boundaryPoint> X17.535 Y3.444 Z1.66 </boundaryPoint>)
(<boundaryPoint> X17.148 Y3.645 Z1.66 </boundaryPoint>)
(<boundaryPoint> X16.741 Y3.803 Z1.66 </boundaryPoint>)
(<boundaryPoint> X16.319 Y3.915 Z1.66 </boundaryPoint>)
(<boundaryPoint> X15.888 Y3.981 Z1.66 </boundaryPoint>)
(<boundaryPoint> X15.452 Y4.0 Z1.66 </boundaryPoint>)
(<boundaryPoint> X15.017 Y3.971 Z1.66 </boundaryPoint>)
(<boundaryPoint> X14.587 Y3.894 Z1.66 </boundaryPoint>)
(<boundaryPoint> X14.168 Y3.772 Z1.66 </boundaryPoint>)
(<boundaryPoint> X13.765 Y3.604 Z1.66 </boundaryPoint>)
(<boundaryPoint> X13.383 Y3.394 Z1.66 </boundaryPoint>)
(<boundaryPoint> X12.753 Y2.952 Z1.66 </boundaryPoint>)
(<boundaryPoint> X12.46 Y2.792 Z1.66 </boundaryPoint>)
(<boundaryPoint> X12.152 Y2.665 Z1.66 </boundaryPoint>)
(<boundaryPoint> X11.831 Y2.574 Z1.66 </boundaryPoint>)
(<boundaryPoint> X11.503 Y2.519 Z1.66 </boundaryPoint>)
(<boundaryPoint> X-11.503 Y2.519 Z1.66 </boundaryPoint>)
(<boundaryPoint> X-11.831 Y2.574 Z1.66 </boundaryPoint>)
(<boundaryPoint> X-12.152 Y2.665 Z1.66 </boundaryPoint>)
(<boundaryPoint> X-12.46 Y2.792 Z1.66 </boundaryPoint>)
(<boundaryPoint> X-12.753 Y2.952 Z1.66 </boundaryPoint>)
(<boundaryPoint> X-13.383 Y3.394 Z1.66 </boundaryPoint>)
(<boundaryPoint> X-13.765 Y3.604 Z1.66 </boundaryPoint>)
(<boundaryPoint> X-14.168 Y3.772 Z1.66 </boundaryPoint>)
(<boundaryPoint> X-14.587 Y3.894 Z1.66 </boundaryPoint>)
(<boundaryPoint> X-15.017 Y3.971 Z1.66 </boundaryPoint>)
(<boundaryPoint> X-15.452 Y4.0 Z1.66 </boundaryPoint>)
(<boundaryPoint> X-15.888 Y3.981 Z1.66 </boundaryPoint>)
(<boundaryPoint> X-16.319 Y3.915 Z1.66 </boundaryPoint>)
(<boundaryPoint> X-16.741 Y3.803 Z1.66 </boundaryPoint>)
(<boundaryPoint> X-17.148 Y3.645 Z1.66 </boundaryPoint>)
(<boundaryPoint> X-17.535 Y3.444 Z1.66 </boundaryPoint>)
(<boundaryPoint> X-17.898 Y3.201 Z1.66 </boundaryPoint>)
(<boundaryPoint> X-18.233 Y2.921 Z1.66 </boundaryPoint>)
(<boundaryPoint> X-18.535 Y2.606 Z1.66 </boundaryPoint>)
(<boundaryPoint> X-18.801 Y2.26 Z1.66 </boundaryPoint>)
(<boundaryPoint> X-19.027 Y1.887 Z1.66 </boundaryPoint>)
(<boundaryPoint> X-19.212 Y1.491 Z1.66 </boundaryPoint>)
(<boundaryPoint> X-19.352 Y1.078 Z1.66 </boundaryPoint>)
(<boundaryPoint> X-19.447 Y0.652 Z1.66 </boundaryPoint>)
(<boundaryPoint> X-19.494 Y0.218 Z1.66 </boundaryPoint>)
(<boundaryPoint> X-19.494 Y-0.218 Z1.66 </boundaryPoint>)
(<boundaryPoint> X-19.447 Y-0.652 Z1.66 </boundaryPoint>)
(<boundaryPoint> X-19.352 Y-1.078 Z1.66 </boundaryPoint>)
(<boundaryPoint> X-19.212 Y-1.491 Z1.66 </boundaryPoint>)
(<boundaryPoint> X-19.027 Y-1.887 Z1.66 </boundaryPoint>)
(<boundaryPoint> X-18.801 Y-2.26 Z1.66 </boundaryPoint>)
(<boundaryPoint> X-18.535 Y-2.606 Z1.66 </boundaryPoint>)
(<boundaryPoint> X-18.233 Y-2.921 Z1.66 </boundaryPoint>)
(<boundaryPoint> X-17.898 Y-3.201 Z1.66 </boundaryPoint>)
(<boundaryPoint> X-17.535 Y-3.444 Z1.66 </boundaryPoint>)
(<boundaryPoint> X-17.148 Y-3.645 Z1.66 </boundaryPoint>)
(<boundaryPoint> X-16.741 Y-3.803 Z1.66 </boundaryPoint>)
(<boundaryPoint> X-16.319 Y-3.915 Z1.66 </boundaryPoint>)
(<boundaryPoint> X-15.888 Y-3.981 Z1.66 </boundaryPoint>)
(<boundaryPoint> X-15.452 Y-4.0 Z1.66 </boundaryPoint>)
(<boundaryPoint> X-15.017 Y-3.971 Z1.66 </boundaryPoint>)
(<boundaryPoint> X-14.587 Y-3.894 Z1.66 </boundaryPoint>)
(<boundaryPoint> X-14.168 Y-3.772 Z1.66 </boundaryPoint>)
(<boundaryPoint> X-13.765 Y-3.604 Z1.66 </boundaryPoint>)
(<boundaryPoint> X-13.383 Y-3.394 Z1.66 </boundaryPoint>)
(<boundaryPoint> X-12.753 Y-2.952 Z1.66 </boundaryPoint>)
(<boundaryPoint> X-12.46 Y-2.792 Z1.66 </boundaryPoint>)
(<boundaryPoint> X-12.152 Y-2.665 Z1.66 </boundaryPoint>)
(<boundaryPoint> X-11.831 Y-2.574 Z1.66 </boundaryPoint>)
(<boundaryPoint> X-11.503 Y-2.519 Z1.66 </boundaryPoint>)
(<boundaryPoint> X11.503 Y-2.519 Z1.66 </boundaryPoint>)
(<boundaryPoint> X11.831 Y-2.574 Z1.66 </boundaryPoint>)
(<boundaryPoint> X12.152 Y-2.665 Z1.66 </boundaryPoint>)
(<boundaryPoint> X12.46 Y-2.792 Z1.66 </boundaryPoint>)
(<boundaryPoint> X12.753 Y-2.952 Z1.66 </boundaryPoint>)
(<boundaryPoint> X13.383 Y-3.394 Z1.66 </boundaryPoint>)
(<loop> inner )
G1 X13.16 Y-0.13 Z1.66 F5400.0
G1 F1200.0
G1 E121.946
G1 F5400.0
M101
G1 X13.16 Y0.2 Z1.66 F3000.0 E121.958
G1 X13.22 Y0.58 Z1.66 F3000.0 E121.973
G1 X13.35 Y0.94 Z1.66 F3000.0 E121.989
G1 X13.53 Y1.29 Z1.66 F3000.0 E122.004
G1 X13.77 Y1.59 Z1.66 F3000.0 E122.019
G1 X14.05 Y1.86 Z1.66 F3000.0 E122.034
G1 X14.38 Y2.07 Z1.66 F3000.0 E122.049
G1 X14.74 Y2.22 Z1.66 F3000.0 E122.065
G1 X15.11 Y2.32 Z1.66 F3000.0 E122.08
G1 X15.5 Y2.35 Z1.66 F3000.0 E122.095
G1 X15.89 Y2.32 Z1.66 F3000.0 E122.11
G1 X16.26 Y2.22 Z1.66 F3000.0 E122.125
G1 X16.62 Y2.07 Z1.66 F3000.0 E122.141
G1 X16.95 Y1.86 Z1.66 F3000.0 E122.156
G1 X17.23 Y1.59 Z1.66 F3000.0 E122.171
G1 X17.47 Y1.29 Z1.66 F3000.0 E122.186
G1 X17.66 Y0.94 Z1.66 F3000.0 E122.201
G1 X17.78 Y0.58 Z1.66 F3000.0 E122.217
G1 X17.84 Y0.2 Z1.66 F3000.0 E122.232
G1 X17.84 Y-0.2 Z1.66 F3000.0 E122.247
G1 X17.78 Y-0.58 Z1.66 F3000.0 E122.262
G1 X17.66 Y-0.94 Z1.66 F3000.0 E122.277
G1 X17.47 Y-1.29 Z1.66 F3000.0 E122.293
G1 X17.23 Y-1.59 Z1.66 F3000.0 E122.308
G1 X16.95 Y-1.86 Z1.66 F3000.0 E122.323
G1 X16.62 Y-2.07 Z1.66 F3000.0 E122.338
G1 X16.26 Y-2.22 Z1.66 F3000.0 E122.353
G1 X15.89 Y-2.32 Z1.66 F3000.0 E122.369
G1 X15.5 Y-2.35 Z1.66 F3000.0 E122.384
G1 X15.11 Y-2.32 Z1.66 F3000.0 E122.399
G1 X14.74 Y-2.22 Z1.66 F3000.0 E122.414
G1 X14.38 Y-2.07 Z1.66 F3000.0 E122.429
G1 X14.05 Y-1.86 Z1.66 F3000.0 E122.445
G1 X13.77 Y-1.59 Z1.66 F3000.0 E122.46
G1 X13.53 Y-1.29 Z1.66 F3000.0 E122.475
G1 X13.35 Y-0.94 Z1.66 F3000.0 E122.49
G1 X13.22 Y-0.58 Z1.66 F3000.0 E122.505
G1 X13.16 Y-0.2 Z1.66 F3000.0 E122.521
G1 X13.16 Y-0.13 Z1.66 F3000.0 E122.523
G1 F1200.0
G1 E121.523
G1 F3000.0
M103
(</loop>)
(<loop> inner )
G1 X-13.17 Y-0.26 Z1.66 F5400.0
G1 F1200.0
G1 E122.523
G1 F5400.0
M101
G1 X-13.22 Y-0.58 Z1.66 F3000.0 E122.536
G1 X-13.35 Y-0.94 Z1.66 F3000.0 E122.551
G1 X-13.53 Y-1.29 Z1.66 F3000.0 E122.566
G1 X-13.77 Y-1.59 Z1.66 F3000.0 E122.581
G1 X-14.05 Y-1.86 Z1.66 F3000.0 E122.597
G1 X-14.38 Y-2.07 Z1.66 F3000.0 E122.612
G1 X-14.74 Y-2.22 Z1.66 F3000.0 E122.627
G1 X-15.11 Y-2.32 Z1.66 F3000.0 E122.642
G1 X-15.5 Y-2.35 Z1.66 F3000.0 E122.657
G1 X-15.89 Y-2.32 Z1.66 F3000.0 E122.673
G1 X-16.26 Y-2.22 Z1.66 F3000.0 E122.688
G1 X-16.62 Y-2.07 Z1.66 F3000.0 E122.703
G1 X-16.95 Y-1.86 Z1.66 F3000.0 E122.718
G1 X-17.23 Y-1.59 Z1.66 F3000.0 E122.733
G1 X-17.47 Y-1.29 Z1.66 F3000.0 E122.749
G1 X-17.66 Y-0.94 Z1.66 F3000.0 E122.764
G1 X-17.78 Y-0.58 Z1.66 F3000.0 E122.779
G1 X-17.84 Y-0.2 Z1.66 F3000.0 E122.794
G1 X-17.84 Y0.2 Z1.66 F3000.0 E122.809
G1 X-17.78 Y0.58 Z1.66 F3000.0 E122.825
G1 X-17.66 Y0.94 Z1.66 F3000.0 E122.84
G1 X-17.47 Y1.29 Z1.66 F3000.0 E122.855
M73 P14 (display progress)
G1 X-17.23 Y1.59 Z1.66 F3000.0 E122.87
G1 X-16.95 Y1.86 Z1.66 F3000.0 E122.885
G1 X-16.62 Y2.07 Z1.66 F3000.0 E122.901
G1 X-16.26 Y2.22 Z1.66 F3000.0 E122.916
G1 X-15.89 Y2.32 Z1.66 F3000.0 E122.931
G1 X-15.5 Y2.35 Z1.66 F3000.0 E122.946
G1 X-15.11 Y2.32 Z1.66 F3000.0 E122.961
G1 X-14.74 Y2.22 Z1.66 F3000.0 E122.977
G1 X-14.38 Y2.07 Z1.66 F3000.0 E122.992
G1 X-14.05 Y1.86 Z1.66 F3000.0 E123.007
G1 X-13.77 Y1.59 Z1.66 F3000.0 E123.022
G1 X-13.53 Y1.29 Z1.66 F3000.0 E123.037
G1 X-13.35 Y0.94 Z1.66 F3000.0 E123.053
G1 X-13.22 Y0.58 Z1.66 F3000.0 E123.068
G1 X-13.16 Y0.2 Z1.66 F3000.0 E123.083
G1 X-13.16 Y-0.2 Z1.66 F3000.0 E123.098
G1 X-13.17 Y-0.26 Z1.66 F3000.0 E123.101
G1 F1200.0
G1 E122.101
G1 F3000.0
M103
(</loop>)
(<loop> outer )
G1 X-12.28 Y-2.08 Z1.66 F5400.0
G1 F1200.0
G1 E123.101
G1 F5400.0
M101
G1 X-11.55 Y-1.92 Z1.66 F3000.0 E123.13
G1 X11.55 Y-1.92 Z1.66 F3000.0 E124.034
G1 X11.96 Y-1.99 Z1.66 F3000.0 E124.051
G1 X12.72 Y-2.25 Z1.66 F3000.0 E124.082
G1 X13.7 Y-2.88 Z1.66 F3000.0 E124.128
G1 X14.37 Y-3.21 Z1.66 F3000.0 E124.157
G1 X15.09 Y-3.38 Z1.66 F3000.0 E124.186
G1 X15.83 Y-3.38 Z1.66 F3000.0 E124.214
G1 X16.55 Y-3.23 Z1.66 F3000.0 E124.243
G1 X17.23 Y-2.93 Z1.66 F3000.0 E124.272
G1 X17.82 Y-2.48 Z1.66 F3000.0 E124.301
G1 X18.3 Y-1.92 Z1.66 F3000.0 E124.33
G1 X18.65 Y-1.27 Z1.66 F3000.0 E124.359
G1 X18.85 Y-0.55 Z1.66 F3000.0 E124.388
