(** This GCode was generated by ReplicatorG 55 **)
(*  using Skeinforge (50)  *)
(*  for a Dual headed CNC Machine  *)
(*  on 2022/11/28 13:25:47 (+0800) *)
(**** start.gcode for The MigceTurbine, dual head ****)
M103 (disable RPM)
M73 P0 (Sky802)
G21 (set units to mm)
G90 (set positioning to absolute)
M109 S70 T0 (set HBP temperature) (set HBP temperature)
G4 P500 (Create Anchor)
M104 S200 T0 (set extruder temperature) (temp updated by printOMatic)
M104 S200 T1 (set extruder temperature) (temp updated by printOMatic)
(**** begin homing ****)
G162 X Y F2500 (home XY axes maximum)
G161 Z F1100 (home Z axis minimum)
G92 Z-5 (set Z to -5)
G1 Z0.0 (move Z to "0")
G161 Z F100 (home Z axis minimum)
M132 X Y Z A B (Recall stored home offsets for XYZAB axis)
(**** end homing ****)
G1 X-40.5 Y-55 Z150 F3300.0 (move to waiting position)
G130 X20 Y20 Z20 A20 B20 (Lower stepper Vrefs while heating)
M6 T0 (wait for toolhead, and HBP to reach temperature)
G130 X127 Y127 Z40 A127 B127 (Set Stepper motor Vref to defaults)
M108 R3.0 T0
G0 X-40.5 Y-55 (Position Nozzle)
G0 Z0.15 (Position Height)
M108 R4.0 (Set Extruder Speed)
M101 (Start Extruder)
G4 P2500 (Create Anchor)
G1 X-30.5 Y-54 F1500.0 (Create Pre-Anchor extrude)
G4 P500
G1 X-70.5 Y-55 F1500.0 (Create Pre-Anchor extrude)
G0 Z0.6 (Position Height)
G4 P500 (Create Anchor)
(**** end of start.gcode ****)
M105
(<format> skeinforge gcode </format>)
(<version> 12.03.14 </version>)
(<created> 22.11.28|13:25 </created>)
(<extruderInitialization>)
(<craftTypeName> extrusion </craftTypeName>)
M105
(<decimalPlacesCarried> 3 </decimalPlacesCarried>)
(<layerThickness> 0.2 </layerThickness>)
(<infillWidth> 0.4 </infillWidth>)
(<volumeFraction> 0.82 </volumeFraction>)
(<infillPerimeterOverlap> 0.3 </infillPerimeterOverlap>)
(<sharpestProduct> 0.866 </sharpestProduct>)
(<layerHeight> 0.2 </layerHeight>)
(<threadSequenceString> loops edge infill </threadSequenceString>)
(<maximumZFeedRatePerSecond> 999.0 </maximumZFeedRatePerSecond>)
(<objectFirstLayerFeedRateInfillMultiplier> 0.9 </objectFirstLayerFeedRateInfillMultiplier>)
(<operatingFeedRatePerSecond> 50.0 </operatingFeedRatePerSecond>)
(<objectFirstLayerFlowRateInfillMultiplier> 0.8 </objectFirstLayerFlowRateInfillMultiplier>)
(<operatingFlowRate> 50.0 </operatingFlowRate>)
(<orbitalFeedRatePerSecond> 0.0 </orbitalFeedRatePerSecond>)
(<travelFeedRatePerSecond> 90.0 </travelFeedRatePerSecond>)
(<edgeWidth> 0.4 </edgeWidth>)
(<perimeterWidth> 0.4 </perimeterWidth>)
(<profileName> ABS </profileName>)
(<settings>)
(<setting> alteration Activate_Alteration True </setting>)
(<setting> alteration Name_of_End_File:  </setting>)
(<setting> alteration Name_of_Start_File:  </setting>)
(<setting> alteration Remove_Redundant_Mcode True </setting>)
(<setting> alteration Replace_Variable_with_Setting True </setting>)
(<setting> comb Activate_Comb True </setting>)
(<setting> comb Running_Jump_Space_(mm): 2.0 </setting>)
(<setting> cool Activate_Cool True </setting>)
(<setting> cool Bridge_Cool_(Celcius): 1.0 </setting>)
(<setting> cool Orbit False </setting>)
(<setting> cool Slow_Down True </setting>)
(<setting> cool Maximum_Cool_(Celcius): 1.0 </setting>)
(<setting> cool Minimum_Layer_Time_(seconds): 5.0 </setting>)
(<setting> cool Minimum_Orbital_Radius_(millimeters): 10.0 </setting>)
(<setting> cool Name_of_Cool_End_File: cool_end.gcode </setting>)
(<setting> cool Name_of_Cool_Start_File: cool_start.gcode </setting>)
(<setting> cool Orbital_Outset_(millimeters): 2.0 </setting>)
(<setting> cool Turn_Fan_On_at_Beginning False </setting>)
(<setting> cool Turn_Fan_Off_at_Ending False </setting>)
(<setting> dimension Activate_Dimension True </setting>)
(<setting> dimension Absolute_Extrusion_Distance True </setting>)
(<setting> dimension Relative_Extrusion_Distance False </setting>)
(<setting> dimension Extruder_Retraction_Speed_(mm/s): 20.0 </setting>)
(<setting> dimension Filament_Diameter_(mm): 1.75 </setting>)
(<setting> dimension Filament_Packing_Density_(ratio): 0.85 </setting>)
(<setting> dimension Maximum_E_Value_before_Reset_(float): 91234.0 </setting>)
(<setting> dimension Minimum_Travel_for_Retraction_(millimeters): 1.0 </setting>)
(<setting> dimension Retract_Within_Island False </setting>)
(<setting> dimension Retraction_Distance_(millimeters): 1.0 </setting>)
(<setting> dimension Restart_Extra_Distance_(millimeters): 0.0 </setting>)
(<setting> export Activate_Export True </setting>)
(<setting> export Add_Descriptive_Extension False </setting>)
(<setting> export Add_Export_Suffix False </setting>)
(<setting> export Add_Profile_Extension False </setting>)
(<setting> export Add_Timestamp_Extension False </setting>)
(<setting> export Also_Send_Output_To:  </setting>)
(<setting> export Analyze_Gcode True </setting>)
(<setting> export Do_Not_Delete_Comments True </setting>)
(<setting> export Delete_Crafting_Comments False </setting>)
(<setting> export Delete_All_Comments False </setting>)
(<setting> export Do_Not_Change_Output True </setting>)
(<setting> export binary_16_byte False </setting>)
(<setting> export gcode_step False </setting>)
(<setting> export gcode_time_segment False </setting>)
(<setting> export gcode_small False </setting>)
(<setting> export File_Extension: gcode </setting>)
(<setting> export Name_of_Replace_File: replace.csv </setting>)
(<setting> export Save_Penultimate_Gcode False </setting>)
(<setting> fill Activate_Fill True </setting>)
(<setting> fill Diaphragm_Period_(layers): 100 </setting>)
(<setting> fill Diaphragm_Thickness_(layers): 0 </setting>)
(<setting> fill Extra_Shells_on_Alternating_Solid_Layer_(layers): 1 </setting>)
(<setting> fill Extra_Shells_on_Base_(layers): 1 </setting>)
(<setting> fill Extra_Shells_on_Sparse_Layer_(layers): 1 </setting>)
(<setting> fill Grid_Circle_Separation_over_Perimeter_Width_(ratio): 0.2 </setting>)
(<setting> fill Grid_Extra_Overlap_(ratio): 0.1 </setting>)
(<setting> fill Grid_Junction_Separation_Band_Height_(layers): 10 </setting>)
(<setting> fill Grid_Junction_Separation_over_Octogon_Radius_At_End_(ratio): 0.0 </setting>)
(<setting> fill Grid_Junction_Separation_over_Octogon_Radius_At_Middle_(ratio): 0.0 </setting>)
(<setting> fill Infill_Begin_Rotation_(degrees): 90.0 </setting>)
(<setting> fill Infill_Begin_Rotation_Repeat_(layers): 1 </setting>)
(<setting> fill Infill_Odd_Layer_Extra_Rotation_(degrees): 90.0 </setting>)
(<setting> fill Grid_Circular False </setting>)
(<setting> fill Grid_Hexagonal False </setting>)
(<setting> fill Grid_Rectangular True </setting>)
(<setting> fill Line False </setting>)
(<setting> fill Infill_Perimeter_Overlap_(ratio): 0.3 </setting>)
(<setting> fill Infill_Solidity_(ratio): 0.1 </setting>)
(<setting> fill Sharpest_Angle_(degrees): 60.0 </setting>)
(<setting> fill Solid_Surface_Thickness_(layers): 3 </setting>)
(<setting> fill Lower_Left True </setting>)
(<setting> fill Nearest False </setting>)
(<setting> fill Surrounding_Angle_(degrees): 60.0 </setting>)
(<setting> fill Infill_>_Loops_>_Perimeter False </setting>)
(<setting> fill Infill_>_Perimeter_>_Loops False </setting>)
(<setting> fill Loops_>_Infill_>_Perimeter False </setting>)
(<setting> fill Loops_>_Perimeter_>_Infill True </setting>)
(<setting> fill Perimeter_>_Infill_>_Loops False </setting>)
(<setting> fill Perimeter_>_Loops_>_Infill False </setting>)
(<setting> home Activate_Home True </setting>)
(<setting> home Name_of_Home_File: home.gcode </setting>)
(<setting> jitter Activate_Jitter True </setting>)
(<setting> jitter Jitter_Over_Perimeter_Width_(ratio): 2.0 </setting>)
(<setting> raft Activate_Raft True </setting>)
(<setting> raft Add_Raft,_Elevate_Nozzle,_Orbit: True </setting>)
(<setting> raft Base_Feed_Rate_Multiplier_(ratio): 0.75 </setting>)
(<setting> raft Base_Flow_Rate_Multiplier_(ratio): 0.6 </setting>)
(<setting> raft Base_Infill_Density_(ratio): 0.3 </setting>)
(<setting> raft Base_Layer_Thickness_over_Layer_Thickness: 2.2 </setting>)
(<setting> raft Base_Layers_(integer): 1 </setting>)
(<setting> raft Base_Nozzle_Lift_over_Base_Layer_Thickness_(ratio): 0.3 </setting>)
(<setting> raft Initial_Circling: False </setting>)
(<setting> raft Infill_Overhang_over_Extrusion_Width_(ratio): 0.1 </setting>)
(<setting> raft Interface_Feed_Rate_Multiplier_(ratio): 1.5 </setting>)
(<setting> raft Interface_Flow_Rate_Multiplier_(ratio): 0.7 </setting>)
(<setting> raft Interface_Infill_Density_(ratio): 0.4 </setting>)
(<setting> raft Interface_Layer_Thickness_over_Layer_Thickness: 1.8 </setting>)
(<setting> raft Interface_Layers_(integer): 2 </setting>)
(<setting> raft Interface_Nozzle_Lift_over_Interface_Layer_Thickness_(ratio): 0.3 </setting>)
(<setting> raft Name_of_Support_End_File: support_end.gcode </setting>)
(<setting> raft Name_of_Support_Start_File: support_start.gcode </setting>)
(<setting> raft Operating_Nozzle_Lift_over_Layer_Thickness_(ratio): 0.0 </setting>)
(<setting> raft Raft_Additional_Margin_over_Length_(%): 2.5 </setting>)
(<setting> raft Raft_Margin_(mm): 2.5 </setting>)
(<setting> raft Support_Cross_Hatch False </setting>)
(<setting> raft Support_Flow_Rate_over_Operating_Flow_Rate_(ratio): 0.7 </setting>)
(<setting> raft Support_Gap_over_Perimeter_Extrusion_Width_(ratio): 0.005 </setting>)
(<setting> raft None True </setting>)
(<setting> raft Empty_Layers_Only False </setting>)
(<setting> raft Everywhere False </setting>)
(<setting> raft Exterior_Only False </setting>)
(<setting> raft Support_Minimum_Angle_(degrees): 45.0 </setting>)
(<setting> speed Activate_Speed True </setting>)
(<setting> speed Add_Flow_Rate: True </setting>)
(<setting> speed Bridge_Feed_Rate_Multiplier_(ratio): 1.0 </setting>)
(<setting> speed Bridge_Flow_Rate_Multiplier_(ratio): 1.0 </setting>)
(<setting> speed Duty_Cyle_at_Beginning_(portion): 1.0 </setting>)
(<setting> speed Duty_Cyle_at_Ending_(portion): 0.0 </setting>)
(<setting> speed Feed_Rate_(mm/s): 50.0 </setting>)
(<setting> speed Flow_Rate_Setting_(float): 50.0 </setting>)
(<setting> speed Object_First_Layer_Feed_Rate_Infill_Multiplier_(ratio): 0.9 </setting>)
(<setting> speed Object_First_Layer_Feed_Rate_Perimeter_Multiplier_(ratio): 0.9 </setting>)
(<setting> speed Object_First_Layer_Flow_Rate_Infill_Multiplier_(ratio): 0.8 </setting>)
(<setting> speed Object_First_Layer_Flow_Rate_Perimeter_Multiplier_(ratio): 0.9 </setting>)
(<setting> speed Orbital_Feed_Rate_over_Operating_Feed_Rate_(ratio): 0.0 </setting>)
(<setting> speed Maximum_Z_Feed_Rate_(mm/s): 999.0 </setting>)
(<setting> speed Perimeter_Feed_Rate_Multiplier_(ratio): 0.5 </setting>)
(<setting> speed Perimeter_Flow_Rate_Multiplier_(ratio): 0.5 </setting>)
(<setting> speed Travel_Feed_Rate_(mm/s): 90.0 </setting>)
(</settings>)
(<timeStampPreface> 20221128_132511 </timeStampPreface>)
(<procedureName> carve </procedureName>)
(<procedureName> preface </procedureName>)
(<procedureName> inset </procedureName>)
(<procedureName> fill </procedureName>)
(<procedureName> speed </procedureName>)
(<procedureName> raft </procedureName>)
(<procedureName> jitter </procedureName>)
(<procedureName> comb </procedureName>)
(<procedureName> cool </procedureName>)
(<procedureName> dimension </procedureName>)
(<procedureName> alteration </procedureName>)
(<procedureName> export </procedureName>)
(</extruderInitialization>)
(<crafting>)
;M113 S1.0
;M108 R30.0
(<raftPerimeter>)
(<raftPoint> X3.725 Y-16.908 </raftPoint>)
(<raftPoint> X7.325 Y-15.108 </raftPoint>)
(<raftPoint> X14.532 Y-15.108 </raftPoint>)
(<raftPoint> X15.267 Y-14.717 </raftPoint>)
(<raftPoint> X15.267 Y14.717 </raftPoint>)
(<raftPoint> X14.532 Y15.108 </raftPoint>)
(<raftPoint> X-14.532 Y15.108 </raftPoint>)
(<raftPoint> X-15.267 Y14.717 </raftPoint>)
(<raftPoint> X-15.267 Y-14.717 </raftPoint>)
(<raftPoint> X-14.718 Y-15.009 </raftPoint>)
(<raftPoint> X-12.819 Y-16.908 </raftPoint>)
(</raftPerimeter>)
(<layer> 0.352 )
G1 X-14.67 Y-14.49 Z0.35 F5400.0
G1 F1200.0
G1 E1.0
G1 F5400.0
M101
G1 X-14.67 Y14.49 Z0.35 F464.876 E5.39
G1 X-11.73 Y14.49 Z0.35 F464.876 E5.835
G1 X-11.73 Y-16.29 Z0.35 F464.876 E10.498
G1 X-8.8 Y-16.29 Z0.35 F464.876 E10.942
M73 P1 (display progress)
G1 X-8.8 Y14.49 Z0.35 F464.876 E15.605
G1 X-5.87 Y14.49 Z0.35 F464.876 E16.049
G1 X-5.87 Y-16.29 Z0.35 F464.876 E20.712
G1 X-2.93 Y-16.29 Z0.35 F464.876 E21.157
G1 X-2.93 Y14.49 Z0.35 F464.876 E25.819
G1 X0.0 Y14.49 Z0.35 F464.876 E26.264
G1 X0.0 Y-16.29 Z0.35 F464.876 E30.927
G1 X2.93 Y-16.29 Z0.35 F464.876 E31.371
G1 X2.93 Y14.49 Z0.35 F464.876 E36.034
G1 X5.87 Y14.49 Z0.35 F464.876 E36.478
G1 X5.87 Y-14.49 Z0.35 F464.876 E40.869
G1 X8.8 Y-14.49 Z0.35 F464.876 E41.313
G1 X8.8 Y14.49 Z0.35 F464.876 E45.703
G1 X11.73 Y14.49 Z0.35 F464.876 E46.147
G1 X11.73 Y-14.49 Z0.35 F464.876 E50.538
G1 X14.67 Y-14.49 Z0.35 F464.876 E50.982
G1 X14.67 Y14.49 Z0.35 F464.876 E55.372
G1 F1200.0
G1 E54.372
G1 F464.876
M103
;M108 R35.0
(</layer>)
(<layer> 0.728 )
G1 X-14.74 Y0.0 Z0.73 F5400.0
G1 F1200.0
G1 E55.372
G1 F5400.0
M101
G1 X14.74 Y0.0 Z0.73 F1388.889 E57.116
G1 X14.74 Y-1.8 Z0.73 F1388.889 E57.223
G1 X-14.74 Y-1.8 Z0.73 F1388.889 E58.967
G1 X-14.74 Y-3.6 Z0.73 F1388.889 E59.073
G1 X14.74 Y-3.6 Z0.73 F1388.889 E60.817
G1 X14.74 Y-5.4 Z0.73 F1388.889 E60.924
G1 X-14.74 Y-5.4 Z0.73 F1388.889 E62.668
G1 X-14.74 Y-7.2 Z0.73 F1388.889 E62.774
G1 X14.74 Y-7.2 Z0.73 F1388.889 E64.518
G1 X14.74 Y-9.0 Z0.73 F1388.889 E64.625
G1 X-14.74 Y-9.0 Z0.73 F1388.889 E66.369
G1 X-14.74 Y-10.8 Z0.73 F1388.889 E66.475
G1 X14.74 Y-10.8 Z0.73 F1388.889 E68.219
G1 X14.74 Y-12.6 Z0.73 F1388.889 E68.326
G1 X-14.74 Y-12.6 Z0.73 F1388.889 E70.07
G1 X-14.74 Y-14.4 Z0.73 F1388.889 E70.177
G1 X14.74 Y-14.4 Z0.73 F1388.889 E71.921
G1 F1200.0
G1 E70.921
G1 F1388.889
M103
G1 X3.0 Y-16.2 Z0.73 F5400.0
G1 F1200.0
G1 E71.921
G1 F5400.0
M101
G1 X-11.8 Y-16.2 Z0.73 F1388.889 E72.797
G1 F1200.0
G1 E71.797
G1 F1388.889
M103
G1 X-14.74 Y1.8 Z0.73 F5400.0
G1 F1200.0
G1 E72.797
G1 F5400.0
M101
G1 X14.74 Y1.8 Z0.73 F1388.889 E74.541
G1 X14.74 Y3.6 Z0.73 F1388.889 E74.647
G1 X-14.74 Y3.6 Z0.73 F1388.889 E76.391
G1 X-14.74 Y5.4 Z0.73 F1388.889 E76.498
G1 X14.74 Y5.4 Z0.73 F1388.889 E78.242
G1 X14.74 Y7.2 Z0.73 F1388.889 E78.348
G1 X-14.74 Y7.2 Z0.73 F1388.889 E80.092
G1 X-14.74 Y9.0 Z0.73 F1388.889 E80.199
G1 X14.74 Y9.0 Z0.73 F1388.889 E81.943
G1 X14.74 Y10.8 Z0.73 F1388.889 E82.049
G1 X-14.74 Y10.8 Z0.73 F1388.889 E83.793
G1 X-14.74 Y12.6 Z0.73 F1388.889 E83.9
G1 X14.74 Y12.6 Z0.73 F1388.889 E85.644
G1 X14.74 Y14.4 Z0.73 F1388.889 E85.75
G1 X-14.74 Y14.4 Z0.73 F1388.889 E87.495
G1 F1200.0
G1 E86.495
G1 F1388.889
M103
;M108 R35.0
(</layer>)
(<layer> 1.088 )
G1 X-14.74 Y0.0 Z1.09 F5400.0
G1 F1200.0
G1 E87.495
G1 F5400.0
M101
G1 X14.74 Y0.0 Z1.09 F1388.889 E89.239
G1 X14.74 Y-1.8 Z1.09 F1388.889 E89.345
G1 X-14.74 Y-1.8 Z1.09 F1388.889 E91.089
G1 X-14.74 Y-3.6 Z1.09 F1388.889 E91.196
G1 X14.74 Y-3.6 Z1.09 F1388.889 E92.94
G1 X14.74 Y-5.4 Z1.09 F1388.889 E93.046
G1 X-14.74 Y-5.4 Z1.09 F1388.889 E94.79
G1 X-14.74 Y-7.2 Z1.09 F1388.889 E94.897
G1 X14.74 Y-7.2 Z1.09 F1388.889 E96.641
G1 X14.74 Y-9.0 Z1.09 F1388.889 E96.747
G1 X-14.74 Y-9.0 Z1.09 F1388.889 E98.491
G1 X-14.74 Y-10.8 Z1.09 F1388.889 E98.598
G1 X14.74 Y-10.8 Z1.09 F1388.889 E100.342
G1 X14.74 Y-12.6 Z1.09 F1388.889 E100.448
G1 X-14.74 Y-12.6 Z1.09 F1388.889 E102.192
G1 X-14.74 Y-14.4 Z1.09 F1388.889 E102.299
G1 X14.74 Y-14.4 Z1.09 F1388.889 E104.043
G1 F1200.0
G1 E103.043
G1 F1388.889
M103
G1 X3.0 Y-16.2 Z1.09 F5400.0
G1 F1200.0
G1 E104.043
G1 F5400.0
M101
G1 X-11.8 Y-16.2 Z1.09 F1388.889 E104.919
G1 F1200.0
G1 E103.919
G1 F1388.889
M103
G1 X-14.74 Y1.8 Z1.09 F5400.0
G1 F1200.0
G1 E104.919
G1 F5400.0
M101
G1 X14.74 Y1.8 Z1.09 F1388.889 E106.663
G1 X14.74 Y3.6 Z1.09 F1388.889 E106.77
G1 X-14.74 Y3.6 Z1.09 F1388.889 E108.514
G1 X-14.74 Y5.4 Z1.09 F1388.889 E108.62
G1 X14.74 Y5.4 Z1.09 F1388.889 E110.364
G1 X14.74 Y7.2 Z1.09 F1388.889 E110.471
G1 X-14.74 Y7.2 Z1.09 F1388.889 E112.215
G1 X-14.74 Y9.0 Z1.09 F1388.889 E112.321
G1 X14.74 Y9.0 Z1.09 F1388.889 E114.065
G1 X14.74 Y10.8 Z1.09 F1388.889 E114.172
G1 X-14.74 Y10.8 Z1.09 F1388.889 E115.916
G1 X-14.74 Y12.6 Z1.09 F1388.889 E116.022
G1 X14.74 Y12.6 Z1.09 F1388.889 E117.766
G1 X14.74 Y14.4 Z1.09 F1388.889 E117.873
G1 X-14.74 Y14.4 Z1.09 F1388.889 E119.617
G1 F1200.0
G1 E118.617
G1 F1388.889
M103
;M108 R22.5
(</layer>)
(<raftLayerEnd> </raftLayerEnd>)
(<layer> 1.26 )
(<rotation> (6.12323399574e-17+1j) )
(<nestedRing>)
(<boundaryPerimeter>)
(<boundaryPoint> X9.368 Y12.175 Z1.26 </boundaryPoint>)
(<boundaryPoint> X-9.368 Y12.175 Z1.26 </boundaryPoint>)
(<boundaryPoint> X-9.739 Y11.984 Z1.26 </boundaryPoint>)
(<boundaryPoint> X-9.908 Y11.649 Z1.26 </boundaryPoint>)
(<boundaryPoint> X-9.923 Y-12.676 Z1.26 </boundaryPoint>)
(<boundaryPoint> X-9.832 Y-12.901 Z1.26 </boundaryPoint>)
(<boundaryPoint> X-9.573 Y-13.083 Z1.26 </boundaryPoint>)
(<boundaryPoint> X-9.427 Y-13.117 Z1.26 </boundaryPoint>)
(<boundaryPoint> X9.256 Y-13.14 Z1.26 </boundaryPoint>)
(<boundaryPoint> X9.573 Y-13.083 Z1.26 </boundaryPoint>)
(<boundaryPoint> X9.832 Y-12.901 Z1.26 </boundaryPoint>)
(<boundaryPoint> X9.923 Y-12.676 Z1.26 </boundaryPoint>)
(<boundaryPoint> X9.908 Y11.649 Z1.26 </boundaryPoint>)
(<boundaryPoint> X9.739 Y11.984 Z1.26 </boundaryPoint>)
(<edge> outer )
G1 X-9.71 Y-12.66 Z1.26 F5400.0
G1 F1200.0
G1 E119.617
G1 F5400.0
M101
G1 X-9.67 Y-12.77 Z1.26 F1350.0 E119.621
G1 X-9.49 Y-12.9 Z1.26 F1350.0 E119.63
G1 X-9.4 Y-12.92 Z1.26 F1350.0 E119.634
G1 X9.24 Y-12.94 Z1.26 F1350.0 E120.363
G1 X9.49 Y-12.89 Z1.26 F1350.0 E120.373
G1 X9.67 Y-12.77 Z1.26 F1350.0 E120.382
G1 X9.72 Y-12.64 Z1.26 F1350.0 E120.387
G1 X9.71 Y11.6 Z1.26 F1350.0 E121.336
G1 X9.59 Y11.84 Z1.26 F1350.0 E121.346
G1 X9.32 Y11.97 Z1.26 F1350.0 E121.358
G1 X-9.32 Y11.97 Z1.26 F1350.0 E122.087
G1 X-9.59 Y11.84 Z1.26 F1350.0 E122.099
G1 X-9.71 Y11.6 Z1.26 F1350.0 E122.109
G1 X-9.72 Y-12.64 Z1.26 F1350.0 E123.058
G1 X-9.71 Y-12.66 Z1.26 F1350.0 E123.059
G1 F1200.0
G1 E123.059
G1 F1350.0
M103
(</edge>)
(</boundaryPerimeter>)
(<loop> outer )
;M108 R40.0
G1 X-9.32 Y-12.33 Z1.26 F5400.0
G1 F1200.0
G1 E123.059
G1 F5400.0
M101
G1 X-9.32 Y-12.46 Z1.26 F2700.0 E123.063
G1 X-9.25 Y-12.52 Z1.26 F2700.0 E123.066
G1 X9.12 Y-12.54 Z1.26 F2700.0 E123.705
G1 X9.32 Y-12.41 Z1.26 F2700.0 E123.713
G1 X9.31 Y11.43 Z1.26 F2700.0 E124.543
G1 X9.16 Y11.57 Z1.26 F2700.0 E124.55
G1 X-9.16 Y11.57 Z1.26 F2700.0 E125.187
G1 X-9.31 Y11.43 Z1.26 F2700.0 E125.194
G1 X-9.32 Y-12.33 Z1.26 F2700.0 E126.021
G1 F1200.0
G1 E125.021
G1 F2700.0
M103
(</loop>)
(<infill>)
(<infillBoundary>)
(<infillPoint> X9.158 Y11.575 Z0.1 </infillPoint>)
(<infillPoint> X-9.158 Y11.575 Z0.1 </infillPoint>)
(<infillPoint> X-9.308 Y11.431 Z0.1 </infillPoint>)
(<infillPoint> X-9.323 Y-12.456 Z0.1 </infillPoint>)
(<infillPoint> X-9.253 Y-12.517 Z0.1 </infillPoint>)
(<infillPoint> X9.124 Y-12.54 Z0.1 </infillPoint>)
(<infillPoint> X9.323 Y-12.415 Z0.1 </infillPoint>)
(<infillPoint> X9.308 Y11.431 Z0.1 </infillPoint>)
(</infillBoundary>)
G1 X-0.0 Y-12.25 Z1.26 F5400.0
G1 F1200.0
G1 E126.021
G1 F5400.0
M101
G1 X0.0 Y11.29 Z1.26 F2700.0 E126.84
G1 X-0.4 Y11.29 Z1.26 F2700.0 E126.854
G1 X-0.4 Y-12.25 Z1.26 F2700.0 E127.673
G1 X-0.8 Y-12.25 Z1.26 F2700.0 E127.687
G1 X-0.8 Y11.29 Z1.26 F2700.0 E128.505
G1 X-1.2 Y11.29 Z1.26 F2700.0 E128.519
G1 X-1.2 Y-12.25 Z1.26 F2700.0 E129.338
G1 X-1.6 Y-12.25 Z1.26 F2700.0 E129.352
G1 X-1.6 Y11.29 Z1.26 F2700.0 E130.171
G1 X-2.0 Y11.29 Z1.26 F2700.0 E130.185
G1 X-2.0 Y-12.25 Z1.26 F2700.0 E131.004
G1 X-2.4 Y-12.25 Z1.26 F2700.0 E131.018
G1 X-2.4 Y11.29 Z1.26 F2700.0 E131.836
G1 X-2.8 Y11.29 Z1.26 F2700.0 E131.85
G1 X-2.8 Y-12.24 Z1.26 F2700.0 E132.669
G1 X-3.2 Y-12.24 Z1.26 F2700.0 E132.683
G1 X-3.2 Y11.29 Z1.26 F2700.0 E133.502
G1 X-3.6 Y11.29 Z1.26 F2700.0 E133.516
G1 X-3.6 Y-12.24 Z1.26 F2700.0 E134.334
G1 X-4.0 Y-12.24 Z1.26 F2700.0 E134.348
G1 X-4.0 Y11.29 Z1.26 F2700.0 E135.167
G1 X-4.4 Y11.29 Z1.26 F2700.0 E135.181
G1 X-4.4 Y-12.24 Z1.26 F2700.0 E136.0
G1 X-4.8 Y-12.24 Z1.26 F2700.0 E136.014
G1 X-4.8 Y11.29 Z1.26 F2700.0 E136.832
G1 X-5.2 Y11.29 Z1.26 F2700.0 E136.846
G1 X-5.2 Y-12.24 Z1.26 F2700.0 E137.665
G1 X-5.6 Y-12.24 Z1.26 F2700.0 E137.679
G1 X-5.6 Y11.29 Z1.26 F2700.0 E138.497
G1 X-6.0 Y11.29 Z1.26 F2700.0 E138.511
G1 X-6.0 Y-12.24 Z1.26 F2700.0 E139.33
G1 X-6.4 Y-12.24 Z1.26 F2700.0 E139.344
G1 X-6.4 Y11.29 Z1.26 F2700.0 E140.162
G1 X-6.8 Y11.29 Z1.26 F2700.0 E140.176
G1 X-6.8 Y-12.24 Z1.26 F2700.0 E140.995
G1 X-7.2 Y-12.24 Z1.26 F2700.0 E141.009
G1 X-7.2 Y11.29 Z1.26 F2700.0 E141.827
G1 X-7.6 Y11.29 Z1.26 F2700.0 E141.841
G1 X-7.6 Y-12.24 Z1.26 F2700.0 E142.66
G1 X-8.0 Y-12.24 Z1.26 F2700.0 E142.674
G1 X-8.0 Y11.29 Z1.26 F2700.0 E143.492
G1 X-8.4 Y11.29 Z1.26 F2700.0 E143.506
G1 X-8.4 Y-12.24 Z1.26 F2700.0 E144.325
G1 X-8.8 Y-12.24 Z1.26 F2700.0 E144.339
G1 X-8.8 Y11.29 Z1.26 F2700.0 E145.157
G1 F1200.0
G1 E144.157
G1 F2700.0
M103
G1 X0.4 Y11.29 Z1.26 F5400.0
G1 F1200.0
G1 E145.157
G1 F5400.0
M101
G1 X0.4 Y-12.25 Z1.26 F2700.0 E145.976
G1 X0.8 Y-12.25 Z1.26 F2700.0 E145.99
G1 X0.8 Y11.29 Z1.26 F2700.0 E146.809
G1 X1.2 Y11.29 Z1.26 F2700.0 E146.823
G1 X1.2 Y-12.25 Z1.26 F2700.0 E147.642
G1 X1.6 Y-12.25 Z1.26 F2700.0 E147.656
G1 X1.6 Y11.29 Z1.26 F2700.0 E148.475
G1 X2.0 Y11.29 Z1.26 F2700.0 E148.489
G1 X2.0 Y-12.25 Z1.26 F2700.0 E149.308
G1 X2.4 Y-12.25 Z1.26 F2700.0 E149.322
G1 X2.4 Y11.29 Z1.26 F2700.0 E150.141
G1 X2.8 Y11.29 Z1.26 F2700.0 E150.154
G1 X2.8 Y-12.25 Z1.26 F2700.0 E150.973
G1 X3.2 Y-12.25 Z1.26 F2700.0 E150.987
G1 X3.2 Y11.29 Z1.26 F2700.0 E151.806
G1 X3.6 Y11.29 Z1.26 F2700.0 E151.82
G1 X3.6 Y-12.25 Z1.26 F2700.0 E152.639
G1 X4.0 Y-12.25 Z1.26 F2700.0 E152.653
G1 X4.0 Y11.29 Z1.26 F2700.0 E153.472
G1 X4.4 Y11.29 Z1.26 F2700.0 E153.486
G1 X4.4 Y-12.25 Z1.26 F2700.0 E154.305
G1 X4.8 Y-12.26 Z1.26 F2700.0 E154.319
G1 X4.8 Y11.29 Z1.26 F2700.0 E155.138
G1 X5.2 Y11.29 Z1.26 F2700.0 E155.152
G1 X5.2 Y-12.26 Z1.26 F2700.0 E155.971
G1 X5.6 Y-12.26 Z1.26 F2700.0 E155.985
G1 X5.6 Y11.29 Z1.26 F2700.0 E156.804
G1 X6.0 Y11.29 Z1.26 F2700.0 E156.818
G1 X6.0 Y-12.26 Z1.26 F2700.0 E157.637
G1 X6.4 Y-12.26 Z1.26 F2700.0 E157.651
G1 X6.4 Y11.29 Z1.26 F2700.0 E158.471
G1 X6.8 Y11.29 Z1.26 F2700.0 E158.484
G1 X6.8 Y-12.26 Z1.26 F2700.0 E159.304
G1 X7.2 Y-12.26 Z1.26 F2700.0 E159.318
G1 X7.2 Y11.29 Z1.26 F2700.0 E160.137
G1 X7.6 Y11.29 Z1.26 F2700.0 E160.151
G1 X7.6 Y-12.26 Z1.26 F2700.0 E160.97
G1 X8.0 Y-12.26 Z1.26 F2700.0 E160.984
G1 X8.0 Y11.29 Z1.26 F2700.0 E161.803
G1 X8.4 Y11.29 Z1.26 F2700.0 E161.817
G1 X8.4 Y-12.26 Z1.26 F2700.0 E162.636
G1 X8.8 Y-12.26 Z1.26 F2700.0 E162.65
G1 X8.8 Y11.29 Z1.26 F2700.0 E163.469
G1 F1200.0
G1 E162.469
G1 F2700.0
M103
(</infill>)
(</nestedRing>)
(</rotation>)
(</layer>)
;M108 R50.0
(<layer> 1.46 )
(<rotation> (-1+1.22464679915e-16j) )
(<nestedRing>)
(<boundaryPerimeter>)
(<boundaryPoint> X-9.994 Y12.374 Z1.46 </boundaryPoint>)
(<boundaryPoint> X-10.233 Y12.104 Z1.46 </boundaryPoint>)
(<boundaryPoint> X-10.355 Y11.794 Z1.46 </boundaryPoint>)
(<boundaryPoint> X-10.381 Y-12.676 Z1.46 </boundaryPoint>)
(<boundaryPoint> X-10.335 Y-12.901 Z1.46 </boundaryPoint>)
(<boundaryPoint> X-10.198 Y-13.117 Z1.46 </boundaryPoint>)
(<boundaryPoint> X-9.905 Y-13.316 Z1.46 </boundaryPoint>)
(<boundaryPoint> X-9.544 Y-13.42 Z1.46 </boundaryPoint>)
(<boundaryPoint> X9.544 Y-13.42 Z1.46 </boundaryPoint>)
(<boundaryPoint> X9.905 Y-13.316 Z1.46 </boundaryPoint>)
(<boundaryPoint> X10.198 Y-13.117 Z1.46 </boundaryPoint>)
(<boundaryPoint> X10.335 Y-12.901 Z1.46 </boundaryPoint>)
(<boundaryPoint> X10.381 Y-12.676 Z1.46 </boundaryPoint>)
(<boundaryPoint> X10.355 Y11.794 Z1.46 </boundaryPoint>)
(<boundaryPoint> X10.233 Y12.104 Z1.46 </boundaryPoint>)
(<boundaryPoint> X9.994 Y12.374 Z1.46 </boundaryPoint>)
(<boundaryPoint> X9.773 Y12.524 Z1.46 </boundaryPoint>)
(<boundaryPoint> X9.624 Y12.588 Z1.46 </boundaryPoint>)
(<boundaryPoint> X9.389 Y12.641 Z1.46 </boundaryPoint>)
(<boundaryPoint> X-9.389 Y12.641 Z1.46 </boundaryPoint>)
(<boundaryPoint> X-9.624 Y12.588 Z1.46 </boundaryPoint>)
(<boundaryPoint> X-9.773 Y12.524 Z1.46 </boundaryPoint>)
(<loop> outer )
G1 X-9.78 Y-12.42 Z1.46 F5400.0
G1 F1200.0
G1 E163.469
G1 F5400.0
M101
G1 X-9.78 Y-12.52 Z1.46 F3000.0 E163.473
G1 X-9.58 Y-12.79 Z1.46 F3000.0 E163.486
G1 X-9.46 Y-12.82 Z1.46 F3000.0 E163.491
G1 X9.46 Y-12.82 Z1.46 F3000.0 E164.231
G1 X9.58 Y-12.79 Z1.46 F3000.0 E164.236
G1 X9.78 Y-12.52 Z1.46 F3000.0 E164.249
G1 X9.76 Y11.68 Z1.46 F3000.0 E165.196
G1 X9.71 Y11.79 Z1.46 F3000.0 E165.201
G1 X9.6 Y11.92 Z1.46 F3000.0 E165.208
G1 X9.44 Y12.02 Z1.46 F3000.0 E165.215
G1 X-9.32 Y12.04 Z1.46 F3000.0 E165.949
G1 X-9.48 Y11.99 Z1.46 F3000.0 E165.955
G1 X-9.6 Y11.92 Z1.46 F3000.0 E165.961
G1 X-9.71 Y11.79 Z1.46 F3000.0 E165.968
G1 X-9.76 Y11.68 Z1.46 F3000.0 E165.972
G1 X-9.78 Y-12.42 Z1.46 F3000.0 E166.915
G1 F1200.0
G1 E166.915
G1 F3000.0
M103
(</loop>)
(<edge> outer )
;M108 R25.0
G1 X-10.13 Y-12.85 Z1.46 F5400.0
G1 F1200.0
G1 E166.915
G1 F5400.0
M101
G1 X-10.05 Y-12.97 Z1.46 F1500.0 E166.921
G1 X-9.82 Y-13.13 Z1.46 F1500.0 E166.932
G1 X-9.52 Y-13.22 Z1.46 F1500.0 E166.944
G1 X9.52 Y-13.22 Z1.46 F1500.0 E167.689
G1 X9.82 Y-13.13 Z1.46 F1500.0 E167.701
G1 X10.05 Y-12.97 Z1.46 F1500.0 E167.712
G1 X10.15 Y-12.82 Z1.46 F1500.0 E167.719
G1 X10.18 Y-12.66 Z1.46 F1500.0 E167.726
G1 X10.15 Y11.76 Z1.46 F1500.0 E168.681
G1 X10.06 Y12.0 Z1.46 F1500.0 E168.692
G1 X9.86 Y12.22 Z1.46 F1500.0 E168.703
G1 X9.68 Y12.35 Z1.46 F1500.0 E168.712
G1 X9.56 Y12.4 Z1.46 F1500.0 E168.717
G1 X9.37 Y12.44 Z1.46 F1500.0 E168.725
G1 X-9.37 Y12.44 Z1.46 F1500.0 E169.458
G1 X-9.56 Y12.4 Z1.46 F1500.0 E169.466
G1 X-9.68 Y12.35 Z1.46 F1500.0 E169.471
G1 X-9.86 Y12.22 Z1.46 F1500.0 E169.479
G1 X-10.06 Y12.0 Z1.46 F1500.0 E169.491
G1 X-10.15 Y11.76 Z1.46 F1500.0 E169.501
G1 X-10.18 Y-12.66 Z1.46 F1500.0 E170.456
G1 X-10.15 Y-12.82 Z1.46 F1500.0 E170.463
G1 X-10.13 Y-12.85 Z1.46 F1500.0 E170.464
G1 F1200.0
G1 E169.464
G1 F1500.0
M103
(</edge>)
(</boundaryPerimeter>)
(<infill>)
(<infillBoundary>)
(<infillPoint> X-9.595 Y11.92 Z0.3 </infillPoint>)
(<infillPoint> X-9.713 Y11.786 Z0.3 </infillPoint>)
(<infillPoint> X-9.755 Y11.68 Z0.3 </infillPoint>)
(<infillPoint> X-9.781 Y-12.521 Z0.3 </infillPoint>)
(<infillPoint> X-9.581 Y-12.785 Z0.3 </infillPoint>)
(<infillPoint> X-9.459 Y-12.82 Z0.3 </infillPoint>)
(<infillPoint> X9.459 Y-12.82 Z0.3 </infillPoint>)
(<infillPoint> X9.581 Y-12.785 Z0.3 </infillPoint>)
(<infillPoint> X9.781 Y-12.521 Z0.3 </infillPoint>)
(<infillPoint> X9.755 Y11.68 Z0.3 </infillPoint>)
(<infillPoint> X9.713 Y11.786 Z0.3 </infillPoint>)
(<infillPoint> X9.595 Y11.92 Z0.3 </infillPoint>)
(<infillPoint> X9.438 Y12.015 Z0.3 </infillPoint>)
(<infillPoint> X-9.322 Y12.041 Z0.3 </infillPoint>)
(<infillPoint> X-9.484 Y11.995 Z0.3 </infillPoint>)
(</infillBoundary>)
;M108 R50.0
G1 X9.5 Y-12.4 Z1.46 F5400.0
G1 F1200.0
G1 E170.464
G1 F5400.0
M101
G1 X-9.5 Y-12.4 Z1.46 F3000.0 E171.208
G1 X-9.5 Y-12.0 Z1.46 F3000.0 E171.224
G1 X9.5 Y-12.0 Z1.46 F3000.0 E171.967
G1 X9.5 Y-11.6 Z1.46 F3000.0 E171.983
G1 X-9.5 Y-11.6 Z1.46 F3000.0 E172.726
G1 X-9.5 Y-11.2 Z1.46 F3000.0 E172.742
G1 X9.5 Y-11.2 Z1.46 F3000.0 E173.485
G1 X9.5 Y-10.8 Z1.46 F3000.0 E173.501
G1 X-9.5 Y-10.8 Z1.46 F3000.0 E174.244
G1 X-9.5 Y-10.4 Z1.46 F3000.0 E174.26
G1 X9.5 Y-10.4 Z1.46 F3000.0 E175.003
G1 X9.5 Y-10.0 Z1.46 F3000.0 E175.019
G1 X-9.5 Y-10.0 Z1.46 F3000.0 E175.762
G1 X-9.5 Y-9.6 Z1.46 F3000.0 E175.778
G1 X9.5 Y-9.6 Z1.46 F3000.0 E176.521
G1 X9.5 Y-9.2 Z1.46 F3000.0 E176.537
G1 X-9.5 Y-9.2 Z1.46 F3000.0 E177.28
G1 X-9.5 Y-8.8 Z1.46 F3000.0 E177.296
G1 X9.5 Y-8.8 Z1.46 F3000.0 E178.039
G1 X9.5 Y-8.4 Z1.46 F3000.0 E178.054
G1 X-9.5 Y-8.4 Z1.46 F3000.0 E178.798
G1 X-9.5 Y-8.0 Z1.46 F3000.0 E178.813
G1 X9.49 Y-8.0 Z1.46 F3000.0 E179.556
G1 X9.49 Y-7.6 Z1.46 F3000.0 E179.572
G1 X-9.5 Y-7.6 Z1.46 F3000.0 E180.315
G1 X-9.49 Y-7.2 Z1.46 F3000.0 E180.331
G1 X9.49 Y-7.2 Z1.46 F3000.0 E181.074
G1 X9.49 Y-6.8 Z1.46 F3000.0 E181.089
G1 X-9.49 Y-6.8 Z1.46 F3000.0 E181.832
G1 X-9.49 Y-6.4 Z1.46 F3000.0 E181.848
G1 X9.49 Y-6.4 Z1.46 F3000.0 E182.591
G1 X9.49 Y-6.0 Z1.46 F3000.0 E182.607
G1 X-9.49 Y-6.0 Z1.46 F3000.0 E183.35
G1 X-9.49 Y-5.6 Z1.46 F3000.0 E183.365
G1 X9.49 Y-5.6 Z1.46 F3000.0 E184.108
G1 X9.49 Y-5.2 Z1.46 F3000.0 E184.124
G1 X-9.49 Y-5.2 Z1.46 F3000.0 E184.867
G1 X-9.49 Y-4.8 Z1.46 F3000.0 E184.882
G1 X9.49 Y-4.8 Z1.46 F3000.0 E185.625
G1 X9.49 Y-4.4 Z1.46 F3000.0 E185.641
G1 X-9.49 Y-4.4 Z1.46 F3000.0 E186.384
G1 X-9.49 Y-4.0 Z1.46 F3000.0 E186.399
G1 X9.49 Y-4.0 Z1.46 F3000.0 E187.142
G1 X9.49 Y-3.6 Z1.46 F3000.0 E187.158
G1 X-9.49 Y-3.6 Z1.46 F3000.0 E187.9
G1 X-9.49 Y-3.2 Z1.46 F3000.0 E187.916
G1 X9.49 Y-3.2 Z1.46 F3000.0 E188.659
G1 X9.49 Y-2.8 Z1.46 F3000.0 E188.674
G1 X-9.49 Y-2.8 Z1.46 F3000.0 E189.417
G1 X-9.49 Y-2.4 Z1.46 F3000.0 E189.433
G1 X9.49 Y-2.4 Z1.46 F3000.0 E190.175
G1 X9.49 Y-2.0 Z1.46 F3000.0 E190.191
G1 X-9.49 Y-2.0 Z1.46 F3000.0 E190.934
G1 X-9.49 Y-1.6 Z1.46 F3000.0 E190.949
G1 X9.49 Y-1.6 Z1.46 F3000.0 E191.692
G1 X9.49 Y-1.2 Z1.46 F3000.0 E191.707
G1 X-9.49 Y-1.2 Z1.46 F3000.0 E192.45
G1 X-9.49 Y-0.8 Z1.46 F3000.0 E192.466
G1 X9.49 Y-0.8 Z1.46 F3000.0 E193.208
G1 X9.49 Y-0.4 Z1.46 F3000.0 E193.224
G1 X-9.49 Y-0.4 Z1.46 F3000.0 E193.966
G1 X-9.49 Y0.0 Z1.46 F3000.0 E193.982
G1 X9.48 Y-0.0 Z1.46 F3000.0 E194.724
G1 X9.48 Y0.4 Z1.46 F3000.0 E194.74
G1 X-9.49 Y0.4 Z1.46 F3000.0 E195.482
G1 X-9.49 Y0.8 Z1.46 F3000.0 E195.498
G1 X9.48 Y0.8 Z1.46 F3000.0 E196.24
G1 X9.48 Y1.2 Z1.46 F3000.0 E196.256
G1 X-9.49 Y1.2 Z1.46 F3000.0 E196.998
G1 X-9.49 Y1.6 Z1.46 F3000.0 E197.014
G1 X9.48 Y1.6 Z1.46 F3000.0 E197.756
G1 X9.48 Y2.0 Z1.46 F3000.0 E197.772
G1 X-9.48 Y2.0 Z1.46 F3000.0 E198.514
G1 X-9.48 Y2.4 Z1.46 F3000.0 E198.53
G1 X9.48 Y2.4 Z1.46 F3000.0 E199.272
G1 X9.48 Y2.8 Z1.46 F3000.0 E199.287
G1 X-9.48 Y2.8 Z1.46 F3000.0 E200.03
G1 X-9.48 Y3.2 Z1.46 F3000.0 E200.045
G1 X9.48 Y3.2 Z1.46 F3000.0 E200.787
G1 X9.48 Y3.6 Z1.46 F3000.0 E200.803
G1 X-9.48 Y3.6 Z1.46 F3000.0 E201.545
G1 X-9.48 Y4.0 Z1.46 F3000.0 E201.561
G1 X9.48 Y4.0 Z1.46 F3000.0 E202.303
G1 X9.48 Y4.4 Z1.46 F3000.0 E202.318
G1 X-9.48 Y4.4 Z1.46 F3000.0 E203.06
G1 X-9.48 Y4.8 Z1.46 F3000.0 E203.076
G1 X9.48 Y4.8 Z1.46 F3000.0 E203.818
G1 X9.48 Y5.2 Z1.46 F3000.0 E203.834
G1 X-9.48 Y5.2 Z1.46 F3000.0 E204.576
G1 X-9.48 Y5.6 Z1.46 F3000.0 E204.591
G1 X9.48 Y5.6 Z1.46 F3000.0 E205.333
G1 X9.48 Y6.0 Z1.46 F3000.0 E205.349
G1 X-9.48 Y6.0 Z1.46 F3000.0 E206.091
G1 X-9.48 Y6.4 Z1.46 F3000.0 E206.106
G1 X9.48 Y6.4 Z1.46 F3000.0 E206.848
G1 X9.48 Y6.8 Z1.46 F3000.0 E206.864
G1 X-9.48 Y6.8 Z1.46 F3000.0 E207.606
G1 X-9.48 Y7.2 Z1.46 F3000.0 E207.621
G1 X9.48 Y7.2 Z1.46 F3000.0 E208.363
G1 X9.48 Y7.6 Z1.46 F3000.0 E208.379
G1 X-9.48 Y7.6 Z1.46 F3000.0 E209.12
G1 X-9.48 Y8.0 Z1.46 F3000.0 E209.136
G1 X9.48 Y8.0 Z1.46 F3000.0 E209.878
G1 X9.47 Y8.4 Z1.46 F3000.0 E209.893
G1 X-9.48 Y8.4 Z1.46 F3000.0 E210.635
G1 X-9.48 Y8.8 Z1.46 F3000.0 E210.651
G1 X9.47 Y8.8 Z1.46 F3000.0 E211.392
G1 X9.47 Y9.2 Z1.46 F3000.0 E211.408
G1 X-9.48 Y9.2 Z1.46 F3000.0 E212.149
G1 X-9.48 Y9.6 Z1.46 F3000.0 E212.165
G1 X9.47 Y9.6 Z1.46 F3000.0 E212.907
G1 X9.47 Y10.0 Z1.46 F3000.0 E212.922
G1 X-9.48 Y10.0 Z1.46 F3000.0 E213.664
G1 X-9.48 Y10.4 Z1.46 F3000.0 E213.679
G1 X9.47 Y10.4 Z1.46 F3000.0 E214.421
G1 X9.47 Y10.8 Z1.46 F3000.0 E214.437
G1 X-9.48 Y10.8 Z1.46 F3000.0 E215.178
G1 X-9.48 Y11.2 Z1.46 F3000.0 E215.194
G1 X9.47 Y11.2 Z1.46 F3000.0 E215.935
G1 X9.47 Y11.6 Z1.46 F3000.0 E215.951
G1 X-9.47 Y11.6 Z1.46 F3000.0 E216.692
G1 F1200.0
G1 E215.692
G1 F3000.0
M103
(</infill>)
(</nestedRing>)
(</rotation>)
M73 P2 (display progress)
(</layer>)
(<operatingLayerEnd> </operatingLayerEnd>)
(<layer> 1.66 )
(<rotation> (6.12323399574e-17+1j) )
(<nestedRing>)
(<boundaryPerimeter>)
(<boundaryPoint> X-10.535 Y-13.117 Z1.66 </boundaryPoint>)
(<boundaryPoint> X-10.343 Y-13.316 Z1.66 </boundaryPoint>)
(<boundaryPoint> X-10.032 Y-13.491 Z1.66 </boundaryPoint>)
(<boundaryPoint> X-9.515 Y-13.609 Z1.66 </boundaryPoint>)
(<boundaryPoint> X9.515 Y-13.609 Z1.66 </boundaryPoint>)
(<boundaryPoint> X9.786 Y-13.561 Z1.66 </boundaryPoint>)
(<boundaryPoint> X10.08 Y-13.47 Z1.66 </boundaryPoint>)
(<boundaryPoint> X10.343 Y-13.316 Z1.66 </boundaryPoint>)
(<boundaryPoint> X10.535 Y-13.117 Z1.66 </boundaryPoint>)
(<boundaryPoint> X10.644 Y-12.901 Z1.66 </boundaryPoint>)
(<boundaryPoint> X10.681 Y-12.676 Z1.66 </boundaryPoint>)
(<boundaryPoint> X10.647 Y11.84 Z1.66 </boundaryPoint>)
(<boundaryPoint> X10.536 Y12.155 Z1.66 </boundaryPoint>)
(<boundaryPoint> X10.345 Y12.449 Z1.66 </boundaryPoint>)
(<boundaryPoint> X10.057 Y12.705 Z1.66 </boundaryPoint>)
(<boundaryPoint> X9.576 Y12.916 Z1.66 </boundaryPoint>)
(<boundaryPoint> X-9.576 Y12.916 Z1.66 </boundaryPoint>)
(<boundaryPoint> X-10.057 Y12.705 Z1.66 </boundaryPoint>)
(<boundaryPoint> X-10.345 Y12.449 Z1.66 </boundaryPoint>)
(<boundaryPoint> X-10.536 Y12.155 Z1.66 </boundaryPoint>)
(<boundaryPoint> X-10.647 Y11.84 Z1.66 </boundaryPoint>)
(<boundaryPoint> X-10.681 Y-12.676 Z1.66 </boundaryPoint>)
(<boundaryPoint> X-10.644 Y-12.901 Z1.66 </boundaryPoint>)
(<loop> outer )
G1 X-9.91 Y-12.87 Z1.66 F5400.0
G1 F1200.0
G1 E216.692
G1 F5400.0
M101
G1 X-9.81 Y-12.93 Z1.66 F3000.0 E216.697
G1 X-9.45 Y-13.01 Z1.66 F3000.0 E216.711
G1 X9.46 Y-13.01 Z1.66 F3000.0 E217.451
G1 X9.84 Y-12.92 Z1.66 F3000.0 E217.466
G1 X10.04 Y-12.77 Z1.66 F3000.0 E217.476
G1 X10.08 Y-12.63 Z1.66 F3000.0 E217.482
G1 X10.05 Y11.74 Z1.66 F3000.0 E218.435
G1 X9.99 Y11.89 Z1.66 F3000.0 E218.442
G1 X9.89 Y12.05 Z1.66 F3000.0 E218.449
G1 X9.73 Y12.19 Z1.66 F3000.0 E218.458
G1 X9.45 Y12.32 Z1.66 F3000.0 E218.469
G1 X-9.45 Y12.32 Z1.66 F3000.0 E219.209
G1 X-9.73 Y12.19 Z1.66 F3000.0 E219.221
G1 X-9.89 Y12.05 Z1.66 F3000.0 E219.229
G1 X-9.99 Y11.89 Z1.66 F3000.0 E219.237
G1 X-10.05 Y11.74 Z1.66 F3000.0 E219.243
G1 X-10.07 Y-12.71 Z1.66 F3000.0 E220.2
G1 X-9.97 Y-12.84 Z1.66 F3000.0 E220.206
G1 X-9.91 Y-12.87 Z1.66 F3000.0 E220.209
G1 F1200.0
G1 E220.209
G1 F3000.0
M103
(</loop>)
(<edge> outer )
;M108 R25.0
G1 X-10.16 Y-13.19 Z1.66 F5400.0
G1 F1200.0
G1 E220.209
G1 F5400.0
M101
G1 X-9.96 Y-13.3 Z1.66 F1500.0 E220.218
G1 X-9.49 Y-13.41 Z1.66 F1500.0 E220.236
G1 X9.5 Y-13.41 Z1.66 F1500.0 E220.979
G1 X9.74 Y-13.37 Z1.66 F1500.0 E220.989
G1 X10.0 Y-13.29 Z1.66 F1500.0 E221.0
G1 X10.22 Y-13.16 Z1.66 F1500.0 E221.01
G1 X10.37 Y-13.0 Z1.66 F1500.0 E221.018
G1 X10.45 Y-12.84 Z1.66 F1500.0 E221.025
G1 X10.48 Y-12.66 Z1.66 F1500.0 E221.032
G1 X10.45 Y11.81 Z1.66 F1500.0 E221.99
G1 X10.36 Y12.07 Z1.66 F1500.0 E222.0
G1 X10.19 Y12.32 Z1.66 F1500.0 E222.012
G1 X9.95 Y12.54 Z1.66 F1500.0 E222.025
G1 X9.53 Y12.72 Z1.66 F1500.0 E222.043
G1 X-9.53 Y12.72 Z1.66 F1500.0 E222.789
G1 X-9.95 Y12.54 Z1.66 F1500.0 E222.806
G1 X-10.19 Y12.32 Z1.66 F1500.0 E222.819
G1 X-10.36 Y12.07 Z1.66 F1500.0 E222.831
G1 X-10.45 Y11.81 Z1.66 F1500.0 E222.842
G1 X-10.48 Y-12.66 Z1.66 F1500.0 E223.799
G1 X-10.45 Y-12.84 Z1.66 F1500.0 E223.806
G1 X-10.37 Y-13.0 Z1.66 F1500.0 E223.813
G1 X-10.22 Y-13.16 Z1.66 F1500.0 E223.822
G1 X-10.16 Y-13.19 Z1.66 F1500.0 E223.824
G1 F1200.0
G1 E222.824
G1 F1500.0
M103
(</edge>)
(</boundaryPerimeter>)
(<infill>)
(<infillBoundary>)
(<infillPoint> X-9.972 Y-12.836 Z0.5 </infillPoint>)
(<infillPoint> X-9.814 Y-12.925 Z0.5 </infillPoint>)
(<infillPoint> X-9.447 Y-13.009 Z0.5 </infillPoint>)
(<infillPoint> X9.462 Y-13.009 Z0.5 </infillPoint>)
(<infillPoint> X9.837 Y-12.917 Z0.5 </infillPoint>)
(<infillPoint> X10.04 Y-12.766 Z0.5 </infillPoint>)
(<infillPoint> X10.081 Y-12.627 Z0.5 </infillPoint>)
(<infillPoint> X10.047 Y11.737 Z0.5 </infillPoint>)
(<infillPoint> X9.994 Y11.888 Z0.5 </infillPoint>)
(<infillPoint> X9.886 Y12.054 Z0.5 </infillPoint>)
(<infillPoint> X9.729 Y12.194 Z0.5 </infillPoint>)
(<infillPoint> X9.45 Y12.316 Z0.5 </infillPoint>)
(<infillPoint> X-9.45 Y12.316 Z0.5 </infillPoint>)
(<infillPoint> X-9.729 Y12.194 Z0.5 </infillPoint>)
(<infillPoint> X-9.886 Y12.054 Z0.5 </infillPoint>)
(<infillPoint> X-9.994 Y11.888 Z0.5 </infillPoint>)
(<infillPoint> X-10.047 Y11.737 Z0.5 </infillPoint>)
(<infillPoint> X-10.067 Y-12.713 Z0.5 </infillPoint>)
(</infillBoundary>)
;M108 R50.0
G1 X-0.0 Y-12.73 Z1.66 F5400.0
G1 F1200.0
G1 E223.824
G1 F5400.0
M101
G1 X0.0 Y12.04 Z1.66 F3000.0 E224.793
G1 X-0.4 Y12.04 Z1.66 F3000.0 E224.809
G1 X-0.4 Y-12.73 Z1.66 F3000.0 E225.778
G1 X-0.8 Y-12.73 Z1.66 F3000.0 E225.794
G1 X-0.8 Y12.04 Z1.66 F3000.0 E226.763
G1 X-1.2 Y12.04 Z1.66 F3000.0 E226.778
G1 X-1.2 Y-12.73 Z1.66 F3000.0 E227.747
G1 X-1.6 Y-12.73 Z1.66 F3000.0 E227.763
G1 X-1.6 Y12.04 Z1.66 F3000.0 E228.732
G1 X-2.0 Y12.04 Z1.66 F3000.0 E228.748
G1 X-2.0 Y-12.73 Z1.66 F3000.0 E229.717
G1 X-2.4 Y-12.73 Z1.66 F3000.0 E229.733
G1 X-2.4 Y12.04 Z1.66 F3000.0 E230.702
G1 X-2.8 Y12.04 Z1.66 F3000.0 E230.717
G1 X-2.8 Y-12.73 Z1.66 F3000.0 E231.686
G1 X-3.2 Y-12.73 Z1.66 F3000.0 E231.702
G1 X-3.2 Y12.04 Z1.66 F3000.0 E232.671
G1 X-3.6 Y12.04 Z1.66 F3000.0 E232.687
G1 X-3.6 Y-12.73 Z1.66 F3000.0 E233.656
G1 X-4.0 Y-12.73 Z1.66 F3000.0 E233.671
G1 X-4.0 Y12.04 Z1.66 F3000.0 E234.64
G1 X-4.4 Y12.04 Z1.66 F3000.0 E234.656
G1 X-4.4 Y-12.73 Z1.66 F3000.0 E235.625
G1 X-4.8 Y-12.73 Z1.66 F3000.0 E235.641
G1 X-4.8 Y12.04 Z1.66 F3000.0 E236.61
G1 X-5.2 Y12.04 Z1.66 F3000.0 E236.625
G1 X-5.2 Y-12.73 Z1.66 F3000.0 E237.594
G1 X-5.6 Y-12.73 Z1.66 F3000.0 E237.61
G1 X-5.6 Y12.04 Z1.66 F3000.0 E238.579
G1 X-6.0 Y12.04 Z1.66 F3000.0 E238.595
G1 X-6.0 Y-12.73 Z1.66 F3000.0 E239.564
G1 X-6.4 Y-12.73 Z1.66 F3000.0 E239.579
G1 X-6.4 Y12.04 Z1.66 F3000.0 E240.549
G1 X-6.8 Y12.04 Z1.66 F3000.0 E240.564
G1 X-6.8 Y-12.73 Z1.66 F3000.0 E241.533
G1 X-7.2 Y-12.73 Z1.66 F3000.0 E241.549
G1 X-7.2 Y12.04 Z1.66 F3000.0 E242.518
G1 X-7.6 Y12.04 Z1.66 F3000.0 E242.534
G1 X-7.6 Y-12.73 Z1.66 F3000.0 E243.503
G1 X-8.0 Y-12.73 Z1.66 F3000.0 E243.518
G1 X-8.0 Y12.04 Z1.66 F3000.0 E244.487
G1 X-8.4 Y12.04 Z1.66 F3000.0 E244.503
G1 X-8.4 Y-12.73 Z1.66 F3000.0 E245.472
G1 X-8.8 Y-12.73 Z1.66 F3000.0 E245.488
G1 X-8.8 Y12.04 Z1.66 F3000.0 E246.457
G1 X-9.2 Y12.04 Z1.66 F3000.0 E246.472
G1 X-9.2 Y-12.73 Z1.66 F3000.0 E247.441
G1 X-9.6 Y-12.69 Z1.66 F3000.0 E247.457
G1 X-9.6 Y11.93 Z1.66 F3000.0 E248.421
G1 F1200.0
G1 E247.421
G1 F3000.0
M103
G1 X0.4 Y12.04 Z1.66 F5400.0
G1 F1200.0
G1 E248.421
G1 F5400.0
M101
G1 X0.4 Y-12.73 Z1.66 F3000.0 E249.39
G1 X0.8 Y-12.73 Z1.66 F3000.0 E249.405
G1 X0.8 Y12.04 Z1.66 F3000.0 E250.374
G1 X1.2 Y12.04 Z1.66 F3000.0 E250.39
G1 X1.2 Y-12.73 Z1.66 F3000.0 E251.359
G1 X1.6 Y-12.73 Z1.66 F3000.0 E251.375
G1 X1.6 Y12.04 Z1.66 F3000.0 E252.344
G1 X2.0 Y12.04 Z1.66 F3000.0 E252.359
G1 X2.0 Y-12.73 Z1.66 F3000.0 E253.328
G1 X2.4 Y-12.73 Z1.66 F3000.0 E253.344
G1 X2.4 Y12.04 Z1.66 F3000.0 E254.313
G1 X2.8 Y12.04 Z1.66 F3000.0 E254.329
G1 X2.8 Y-12.73 Z1.66 F3000.0 E255.298
G1 X3.2 Y-12.73 Z1.66 F3000.0 E255.313
G1 X3.2 Y12.04 Z1.66 F3000.0 E256.282
G1 X3.6 Y12.04 Z1.66 F3000.0 E256.298
G1 X3.6 Y-12.73 Z1.66 F3000.0 E257.267
G1 X4.0 Y-12.73 Z1.66 F3000.0 E257.283
G1 X4.0 Y12.04 Z1.66 F3000.0 E258.252
G1 X4.4 Y12.04 Z1.66 F3000.0 E258.267
G1 X4.4 Y-12.73 Z1.66 F3000.0 E259.237
G1 X4.8 Y-12.73 Z1.66 F3000.0 E259.252
G1 X4.8 Y12.04 Z1.66 F3000.0 E260.221
G1 X5.2 Y12.04 Z1.66 F3000.0 E260.237
G1 X5.2 Y-12.73 Z1.66 F3000.0 E261.206
G1 X5.6 Y-12.73 Z1.66 F3000.0 E261.222
G1 X5.6 Y12.04 Z1.66 F3000.0 E262.191
G1 X6.0 Y12.04 Z1.66 F3000.0 E262.206
G1 X6.0 Y-12.73 Z1.66 F3000.0 E263.175
G1 X6.4 Y-12.73 Z1.66 F3000.0 E263.191
G1 X6.4 Y12.04 Z1.66 F3000.0 E264.16
G1 X6.8 Y12.04 Z1.66 F3000.0 E264.176
G1 X6.8 Y-12.73 Z1.66 F3000.0 E265.145
G1 X7.2 Y-12.73 Z1.66 F3000.0 E265.16
G1 X7.2 Y12.04 Z1.66 F3000.0 E266.129
G1 X7.6 Y12.04 Z1.66 F3000.0 E266.145
G1 X7.6 Y-12.73 Z1.66 F3000.0 E267.114
G1 X8.0 Y-12.73 Z1.66 F3000.0 E267.13
G1 X8.0 Y12.04 Z1.66 F3000.0 E268.099
G1 X8.4 Y12.04 Z1.66 F3000.0 E268.114
G1 X8.4 Y-12.73 Z1.66 F3000.0 E269.083
G1 X8.8 Y-12.73 Z1.66 F3000.0 E269.099
G1 X8.8 Y12.04 Z1.66 F3000.0 E270.068
G1 X9.2 Y12.04 Z1.66 F3000.0 E270.084
G1 X9.2 Y-12.73 Z1.66 F3000.0 E271.053
G1 X9.6 Y-12.69 Z1.66 F3000.0 E271.069
G1 X9.6 Y11.93 Z1.66 F3000.0 E272.032
G1 F1200.0
G1 E271.032
G1 F3000.0
M103
(</infill>)
(</nestedRing>)
(</rotation>)
(</layer>)
(<layer> 1.86 )
(<rotation> (-1+1.22464679915e-16j) )
(<nestedRing>)
(<boundaryPerimeter>)
(<boundaryPoint> X10.902 Y-12.676 Z1.86 </boundaryPoint>)
(<boundaryPoint> X10.871 Y11.852 Z1.86 </boundaryPoint>)
(<boundaryPoint> X10.771 Y12.173 Z1.86 </boundaryPoint>)
(<boundaryPoint> X10.604 Y12.478 Z1.86 </boundaryPoint>)
(<boundaryPoint> X10.353 Y12.753 Z1.86 </boundaryPoint>)
(<boundaryPoint> X10.014 Y12.985 Z1.86 </boundaryPoint>)
(<boundaryPoint> X9.79 Y13.08 Z1.86 </boundaryPoint>)
(<boundaryPoint> X9.39 Y13.167 Z1.86 </boundaryPoint>)
(<boundaryPoint> X-9.543 Y13.146 Z1.86 </boundaryPoint>)
(<boundaryPoint> X-9.79 Y13.08 Z1.86 </boundaryPoint>)
(<boundaryPoint> X-10.014 Y12.985 Z1.86 </boundaryPoint>)
(<boundaryPoint> X-10.353 Y12.753 Z1.86 </boundaryPoint>)
(<boundaryPoint> X-10.604 Y12.478 Z1.86 </boundaryPoint>)
(<boundaryPoint> X-10.771 Y12.173 Z1.86 </boundaryPoint>)
(<boundaryPoint> X-10.871 Y11.852 Z1.86 </boundaryPoint>)
(<boundaryPoint> X-10.902 Y-12.676 Z1.86 </boundaryPoint>)
(<boundaryPoint> X-10.871 Y-12.901 Z1.86 </boundaryPoint>)
(<boundaryPoint> X-10.778 Y-13.117 Z1.86 </boundaryPoint>)
(<boundaryPoint> X-10.625 Y-13.316 Z1.86 </boundaryPoint>)
(<boundaryPoint> X-10.386 Y-13.491 Z1.86 </boundaryPoint>)
(<boundaryPoint> X-9.988 Y-13.649 Z1.86 </boundaryPoint>)
(<boundaryPoint> X-9.486 Y-13.726 Z1.86 </boundaryPoint>)
(<boundaryPoint> X9.486 Y-13.726 Z1.86 </boundaryPoint>)
(<boundaryPoint> X10.048 Y-13.634 Z1.86 </boundaryPoint>)
(<boundaryPoint> X10.386 Y-13.491 Z1.86 </boundaryPoint>)
(<boundaryPoint> X10.625 Y-13.316 Z1.86 </boundaryPoint>)
(<boundaryPoint> X10.778 Y-13.117 Z1.86 </boundaryPoint>)
(<boundaryPoint> X10.871 Y-12.901 Z1.86 </boundaryPoint>)
(<loop> outer )
G1 X-10.29 Y-12.58 Z1.86 F5400.0
G1 F1200.0
G1 E272.032
G1 F5400.0
M101
G1 X-10.29 Y-12.74 Z1.86 F3000.0 E272.038
G1 X-10.26 Y-12.81 Z1.86 F3000.0 E272.041
G1 X-10.09 Y-12.96 Z1.86 F3000.0 E272.05
G1 X-9.83 Y-13.07 Z1.86 F3000.0 E272.061
G1 X-9.44 Y-13.13 Z1.86 F3000.0 E272.077
G1 X9.44 Y-13.13 Z1.86 F3000.0 E272.815
G1 X9.88 Y-13.05 Z1.86 F3000.0 E272.833
G1 X10.2 Y-12.88 Z1.86 F3000.0 E272.847
G1 X10.29 Y-12.74 Z1.86 F3000.0 E272.854
G1 X10.27 Y11.76 Z1.86 F3000.0 E273.812
G1 X10.11 Y12.13 Z1.86 F3000.0 E273.828
G1 X9.96 Y12.3 Z1.86 F3000.0 E273.837
G1 X9.72 Y12.46 Z1.86 F3000.0 E273.848
G1 X9.33 Y12.57 Z1.86 F3000.0 E273.864
G1 X-9.46 Y12.55 Z1.86 F3000.0 E274.599
G1 X-9.72 Y12.46 Z1.86 F3000.0 E274.61
G1 X-9.96 Y12.3 Z1.86 F3000.0 E274.621
G1 X-10.11 Y12.13 Z1.86 F3000.0 E274.63
G1 X-10.27 Y11.76 Z1.86 F3000.0 E274.646
G1 X-10.29 Y-12.58 Z1.86 F3000.0 E275.598
G1 F1200.0
G1 E275.598
G1 F3000.0
M103
(</loop>)
(<edge> outer )
;M108 R25.0
G1 X-10.68 Y-12.79 Z1.86 F5400.0
G1 F1200.0
G1 E275.598
G1 F5400.0
M101
G1 X-10.68 Y-12.85 Z1.86 F1500.0 E275.6
G1 X-10.6 Y-13.02 Z1.86 F1500.0 E275.607
G1 X-10.48 Y-13.17 Z1.86 F1500.0 E275.615
G1 X-10.29 Y-13.31 Z1.86 F1500.0 E275.625
G1 X-9.94 Y-13.46 Z1.86 F1500.0 E275.64
G1 X-9.47 Y-13.53 Z1.86 F1500.0 E275.658
G1 X9.47 Y-13.53 Z1.86 F1500.0 E276.399
G1 X9.99 Y-13.44 Z1.86 F1500.0 E276.42
G1 X10.29 Y-13.32 Z1.86 F1500.0 E276.432
G1 X10.48 Y-13.17 Z1.86 F1500.0 E276.442
G1 X10.6 Y-13.02 Z1.86 F1500.0 E276.45
G1 X10.68 Y-12.85 Z1.86 F1500.0 E276.457
G1 X10.7 Y-12.66 Z1.86 F1500.0 E276.464
G1 X10.67 Y11.82 Z1.86 F1500.0 E277.422
G1 X10.59 Y12.09 Z1.86 F1500.0 E277.433
G1 X10.44 Y12.36 Z1.86 F1500.0 E277.445
G1 X10.22 Y12.6 Z1.86 F1500.0 E277.458
G1 X9.92 Y12.81 Z1.86 F1500.0 E277.472
G1 X9.73 Y12.89 Z1.86 F1500.0 E277.48
G1 X9.37 Y12.97 Z1.86 F1500.0 E277.495
G1 X-9.52 Y12.95 Z1.86 F1500.0 E278.234
G1 X-9.72 Y12.89 Z1.86 F1500.0 E278.242
G1 X-9.92 Y12.81 Z1.86 F1500.0 E278.25
G1 X-10.22 Y12.6 Z1.86 F1500.0 E278.265
G1 X-10.44 Y12.36 Z1.86 F1500.0 E278.277
G1 X-10.59 Y12.09 Z1.86 F1500.0 E278.289
G1 X-10.67 Y11.82 Z1.86 F1500.0 E278.301
G1 X-10.7 Y-12.66 Z1.86 F1500.0 E279.259
G1 X-10.68 Y-12.79 Z1.86 F1500.0 E279.264
G1 F1200.0
G1 E278.264
G1 F1500.0
M103
(</edge>)
(</boundaryPerimeter>)
(<infill>)
(<infillBoundary>)
(<infillPoint> X10.271 Y11.76 Z0.7 </infillPoint>)
(<infillPoint> X10.112 Y12.127 Z0.7 </infillPoint>)
(<infillPoint> X9.957 Y12.297 Z0.7 </infillPoint>)
(<infillPoint> X9.725 Y12.456 Z0.7 </infillPoint>)
(<infillPoint> X9.326 Y12.567 Z0.7 </infillPoint>)
(<infillPoint> X-9.464 Y12.546 Z0.7 </infillPoint>)
(<infillPoint> X-9.725 Y12.456 Z0.7 </infillPoint>)
(<infillPoint> X-9.957 Y12.297 Z0.7 </infillPoint>)
(<infillPoint> X-10.112 Y12.127 Z0.7 </infillPoint>)
(<infillPoint> X-10.271 Y11.76 Z0.7 </infillPoint>)
(<infillPoint> X-10.288 Y-12.738 Z0.7 </infillPoint>)
(<infillPoint> X-10.257 Y-12.811 Z0.7 </infillPoint>)
(<infillPoint> X-10.093 Y-12.962 Z0.7 </infillPoint>)
(<infillPoint> X-9.83 Y-13.066 Z0.7 </infillPoint>)
(<infillPoint> X-9.44 Y-13.126 Z0.7 </infillPoint>)
(<infillPoint> X9.437 Y-13.126 Z0.7 </infillPoint>)
(<infillPoint> X9.88 Y-13.053 Z0.7 </infillPoint>)
(<infillPoint> X10.201 Y-12.882 Z0.7 </infillPoint>)
(<infillPoint> X10.288 Y-12.738 Z0.7 </infillPoint>)
(</infillBoundary>)
;M108 R50.0
G1 X-10.01 Y-8.4 Z1.86 F5400.0
G1 F1200.0
G1 E279.264
G1 F5400.0
M101
G1 X-10.0 Y-6.13 Z1.86 F3000.0 E279.353
G1 X-9.86 Y-6.13 Z1.86 F3000.0 E279.358
G1 X-6.14 Y-9.87 Z1.86 F3000.0 E279.565
G1 X-5.86 Y-9.87 Z1.86 F3000.0 E279.576
G1 X-2.14 Y-6.13 Z1.86 F3000.0 E279.782
G1 X-1.86 Y-6.13 Z1.86 F3000.0 E279.793
G1 X1.86 Y-9.87 Z1.86 F3000.0 E280.0
G1 X2.14 Y-9.87 Z1.86 F3000.0 E280.011
G1 X5.86 Y-6.13 Z1.86 F3000.0 E280.218
G1 X6.14 Y-6.13 Z1.86 F3000.0 E280.228
G1 X10.0 Y-4.8 Z1.86 F3000.0 E280.388
G1 X10.01 Y-8.4 Z1.86 F3000.0 E280.529
G1 F1200.0
G1 E279.529
G1 F3000.0
M103
G1 X10.01 Y-12.4 Z1.86 F5400.0
G1 F1200.0
G1 E280.529
G1 F5400.0
M101
G1 X10.01 Y-8.8 Z1.86 F3000.0 E280.67
G1 X2.14 Y-10.13 Z1.86 F3000.0 E280.982
G1 X-6.14 Y-10.13 Z1.86 F3000.0 E281.306
G1 X-10.01 Y-8.8 Z1.86 F3000.0 E281.466
G1 X-10.01 Y-12.4 Z1.86 F3000.0 E281.607
G1 X-9.72 Y-12.8 Z1.86 F3000.0 E281.626
G1 X9.7 Y-12.8 Z1.86 F3000.0 E282.386
G1 F1200.0
G1 E281.386
G1 F3000.0
M103
G1 X9.85 Y12.0 Z1.86 F5400.0
G1 F1200.0
G1 E282.386
G1 F5400.0
M101
G1 X6.14 Y10.13 Z1.86 F3000.0 E282.548
G1 X-2.14 Y10.13 Z1.86 F3000.0 E282.872
G1 X-9.85 Y12.0 Z1.86 F3000.0 E283.183
G1 X-9.99 Y11.6 Z1.86 F3000.0 E283.199
G1 X-9.99 Y7.6 Z1.86 F3000.0 E283.356
G1 X-6.14 Y6.13 Z1.86 F3000.0 E283.517
G1 X-5.86 Y6.13 Z1.86 F3000.0 E283.528
G1 X-2.14 Y9.87 Z1.86 F3000.0 E283.735
G1 X-1.86 Y9.87 Z1.86 F3000.0 E283.746
G1 X1.86 Y6.13 Z1.86 F3000.0 E283.953
G1 X2.14 Y6.13 Z1.86 F3000.0 E283.964
G1 X5.86 Y9.87 Z1.86 F3000.0 E284.17
G1 X6.14 Y9.87 Z1.86 F3000.0 E284.181
G1 X9.99 Y11.6 Z1.86 F3000.0 E284.346
G1 X10.0 Y4.0 Z1.86 F3000.0 E284.644
G1 X6.14 Y2.13 Z1.86 F3000.0 E284.811
G1 X5.86 Y2.13 Z1.86 F3000.0 E284.822
G1 X2.14 Y5.87 Z1.86 F3000.0 E285.029
G1 X1.86 Y5.87 Z1.86 F3000.0 E285.04
G1 X-1.86 Y2.13 Z1.86 F3000.0 E285.247
G1 X-2.14 Y2.13 Z1.86 F3000.0 E285.258
G1 X-5.86 Y5.87 Z1.86 F3000.0 E285.464
G1 X-6.14 Y5.87 Z1.86 F3000.0 E285.475
G1 X-9.99 Y7.2 Z1.86 F3000.0 E285.635
G1 X-10.0 Y-0.4 Z1.86 F3000.0 E285.932
G1 X-6.14 Y-1.87 Z1.86 F3000.0 E286.094
G1 X-5.86 Y-1.87 Z1.86 F3000.0 E286.105
G1 X-2.14 Y1.87 Z1.86 F3000.0 E286.311
G1 X-1.86 Y1.87 Z1.86 F3000.0 E286.322
G1 X1.86 Y-1.87 Z1.86 F3000.0 E286.529
G1 X2.14 Y-1.87 Z1.86 F3000.0 E286.54
G1 X5.86 Y1.87 Z1.86 F3000.0 E286.746
G1 X6.14 Y1.87 Z1.86 F3000.0 E286.757
G1 X10.0 Y3.6 Z1.86 F3000.0 E286.923
G1 X10.0 Y-4.4 Z1.86 F3000.0 E287.236
G1 X6.14 Y-5.87 Z1.86 F3000.0 E287.397
G1 X5.86 Y-5.87 Z1.86 F3000.0 E287.408
G1 X2.14 Y-2.13 Z1.86 F3000.0 E287.615
G1 X1.86 Y-2.13 Z1.86 F3000.0 E287.626
G1 X-1.86 Y-5.87 Z1.86 F3000.0 E287.833
G1 X-2.14 Y-5.87 Z1.86 F3000.0 E287.844
G1 X-5.86 Y-2.13 Z1.86 F3000.0 E288.05
G1 X-6.14 Y-2.13 Z1.86 F3000.0 E288.061
G1 X-10.0 Y-5.87 Z1.86 F3000.0 E288.272
G1 X-10.0 Y-0.8 Z1.86 F3000.0 E288.47
G1 F1200.0
G1 E287.47
G1 F3000.0
M103
(</infill>)
(</nestedRing>)
(</rotation>)
(</layer>)
(<layer> 2.06 )
(<rotation> (6.12323399574e-17+1j) )
(<nestedRing>)
(<boundaryPerimeter>)
(<boundaryPoint> X11.049 Y11.842 Z2.06 </boundaryPoint>)
(<boundaryPoint> X10.961 Y12.168 Z2.06 </boundaryPoint>)
(<boundaryPoint> X10.808 Y12.481 Z2.06 </boundaryPoint>)
(<boundaryPoint> X10.585 Y12.769 Z2.06 </boundaryPoint>)
(<boundaryPoint> X10.289 Y13.023 Z2.06 </boundaryPoint>)
(<boundaryPoint> X10.014 Y13.18 Z2.06 </boundaryPoint>)
(<boundaryPoint> X9.63 Y13.304 Z2.06 </boundaryPoint>)
(<boundaryPoint> X9.296 Y13.348 Z2.06 </boundaryPoint>)
(<boundaryPoint> X-9.296 Y13.348 Z2.06 </boundaryPoint>)
(<boundaryPoint> X-9.63 Y13.304 Z2.06 </boundaryPoint>)
(<boundaryPoint> X-9.903 Y13.226 Z2.06 </boundaryPoint>)
(<boundaryPoint> X-10.289 Y13.023 Z2.06 </boundaryPoint>)
(<boundaryPoint> X-10.585 Y12.769 Z2.06 </boundaryPoint>)
(<boundaryPoint> X-10.808 Y12.481 Z2.06 </boundaryPoint>)
(<boundaryPoint> X-10.961 Y12.168 Z2.06 </boundaryPoint>)
(<boundaryPoint> X-11.049 Y11.842 Z2.06 </boundaryPoint>)
(<boundaryPoint> X-11.048 Y-12.901 Z2.06 </boundaryPoint>)
(<boundaryPoint> X-10.966 Y-13.117 Z2.06 </boundaryPoint>)
(<boundaryPoint> X-10.828 Y-13.316 Z2.06 </boundaryPoint>)
(<boundaryPoint> X-10.626 Y-13.491 Z2.06 </boundaryPoint>)
(<boundaryPoint> X-10.363 Y-13.634 Z2.06 </boundaryPoint>)
(<boundaryPoint> X-9.999 Y-13.74 Z2.06 </boundaryPoint>)
(<boundaryPoint> X-9.458 Y-13.793 Z2.06 </boundaryPoint>)
(<boundaryPoint> X9.668 Y-13.78 Z2.06 </boundaryPoint>)
(<boundaryPoint> X9.999 Y-13.74 Z2.06 </boundaryPoint>)
(<boundaryPoint> X10.363 Y-13.634 Z2.06 </boundaryPoint>)
(<boundaryPoint> X10.626 Y-13.491 Z2.06 </boundaryPoint>)
(<boundaryPoint> X10.828 Y-13.316 Z2.06 </boundaryPoint>)
(<boundaryPoint> X10.966 Y-13.117 Z2.06 </boundaryPoint>)
(<boundaryPoint> X11.048 Y-12.901 Z2.06 </boundaryPoint>)
(<loop> outer )
G1 X-10.16 Y-13.04 Z2.06 F5400.0
G1 F1200.0
G1 E288.47
G1 F5400.0
M101
G1 X-9.88 Y-13.15 Z2.06 F3000.0 E288.482
G1 X9.88 Y-13.15 Z2.06 F3000.0 E289.255
G1 X10.28 Y-12.99 Z2.06 F3000.0 E289.272
G1 X10.38 Y-12.91 Z2.06 F3000.0 E289.277
G1 X10.45 Y-12.79 Z2.06 F3000.0 E289.283
G1 X10.45 Y11.76 Z2.06 F3000.0 E290.243
G1 X10.3 Y12.16 Z2.06 F3000.0 E290.26
G1 X10.15 Y12.35 Z2.06 F3000.0 E290.27
G1 X9.77 Y12.63 Z2.06 F3000.0 E290.288
G1 X9.26 Y12.75 Z2.06 F3000.0 E290.308
G1 X-9.51 Y12.71 Z2.06 F3000.0 E291.043
G1 X-9.95 Y12.52 Z2.06 F3000.0 E291.062
G1 X-10.15 Y12.35 Z2.06 F3000.0 E291.072
G1 X-10.3 Y12.16 Z2.06 F3000.0 E291.081
G1 X-10.45 Y11.76 Z2.06 F3000.0 E291.098
G1 X-10.45 Y-12.79 Z2.06 F3000.0 E292.059
G1 X-10.38 Y-12.91 Z2.06 F3000.0 E292.064
G1 X-10.28 Y-12.99 Z2.06 F3000.0 E292.069
G1 X-10.16 Y-13.04 Z2.06 F3000.0 E292.074
G1 F1200.0
G1 E292.074
G1 F3000.0
M103
(</loop>)
(<edge> outer )
;M108 R25.0
G1 X-10.48 Y-13.34 Z2.06 F5400.0
G1 F1200.0
G1 E292.074
G1 F5400.0
M101
G1 X-10.29 Y-13.45 Z2.06 F1500.0 E292.083
G1 X-9.96 Y-13.54 Z2.06 F1500.0 E292.096
G1 X-9.45 Y-13.59 Z2.06 F1500.0 E292.116
G1 X9.66 Y-13.58 Z2.06 F1500.0 E292.864
G1 X9.96 Y-13.54 Z2.06 F1500.0 E292.876
G1 X10.29 Y-13.45 Z2.06 F1500.0 E292.889
G1 X10.51 Y-13.33 Z2.06 F1500.0 E292.899
G1 X10.68 Y-13.18 Z2.06 F1500.0 E292.908
G1 X10.79 Y-13.02 Z2.06 F1500.0 E292.915
G1 X10.85 Y-12.86 Z2.06 F1500.0 E292.922
G1 X10.85 Y11.81 Z2.06 F1500.0 E293.888
G1 X10.77 Y12.1 Z2.06 F1500.0 E293.899
G1 X10.64 Y12.38 Z2.06 F1500.0 E293.911
G1 X10.44 Y12.63 Z2.06 F1500.0 E293.924
G1 X10.17 Y12.86 Z2.06 F1500.0 E293.938
G1 X9.93 Y13.0 Z2.06 F1500.0 E293.948
G1 X9.59 Y13.11 Z2.06 F1500.0 E293.963
G1 X9.28 Y13.15 Z2.06 F1500.0 E293.975
G1 X-9.28 Y13.15 Z2.06 F1500.0 E294.701
G1 X-9.59 Y13.11 Z2.06 F1500.0 E294.713
G1 X-9.83 Y13.04 Z2.06 F1500.0 E294.723
G1 X-10.18 Y12.86 Z2.06 F1500.0 E294.738
G1 X-10.44 Y12.63 Z2.06 F1500.0 E294.752
G1 X-10.64 Y12.38 Z2.06 F1500.0 E294.764
G1 X-10.77 Y12.1 Z2.06 F1500.0 E294.777
G1 X-10.85 Y11.81 Z2.06 F1500.0 E294.788
G1 X-10.85 Y-12.86 Z2.06 F1500.0 E295.754
G1 X-10.79 Y-13.02 Z2.06 F1500.0 E295.76
G1 X-10.68 Y-13.18 Z2.06 F1500.0 E295.768
G1 X-10.51 Y-13.33 Z2.06 F1500.0 E295.777
G1 X-10.48 Y-13.34 Z2.06 F1500.0 E295.778
G1 F1200.0
G1 E294.778
G1 F1500.0
M103
(</edge>)
(</boundaryPerimeter>)
(<infill>)
(<infillBoundary>)
(<infillPoint> X10.449 Y11.762 Z0.9 </infillPoint>)
(<infillPoint> X10.296 Y12.162 Z0.9 </infillPoint>)
(<infillPoint> X10.148 Y12.353 Z0.9 </infillPoint>)
(<infillPoint> X9.77 Y12.628 Z0.9 </infillPoint>)
(<infillPoint> X9.257 Y12.748 Z0.9 </infillPoint>)
(<infillPoint> X-9.508 Y12.715 Z0.9 </infillPoint>)
(<infillPoint> X-9.95 Y12.524 Z0.9 </infillPoint>)
(<infillPoint> X-10.148 Y12.353 Z0.9 </infillPoint>)
(<infillPoint> X-10.296 Y12.162 Z0.9 </infillPoint>)
M73 P3 (display progress)
(<infillPoint> X-10.449 Y11.762 Z0.9 </infillPoint>)
(<infillPoint> X-10.448 Y-12.791 Z0.9 </infillPoint>)
(<infillPoint> X-10.378 Y-12.912 Z0.9 </infillPoint>)
(<infillPoint> X-10.282 Y-12.995 Z0.9 </infillPoint>)
(<infillPoint> X-9.885 Y-13.148 Z0.9 </infillPoint>)
(<infillPoint> X9.878 Y-13.15 Z0.9 </infillPoint>)
(<infillPoint> X10.282 Y-12.995 Z0.9 </infillPoint>)
(<infillPoint> X10.378 Y-12.912 Z0.9 </infillPoint>)
(<infillPoint> X10.448 Y-12.791 Z0.9 </infillPoint>)
(</infillBoundary>)
;M108 R50.0
G1 X7.2 Y-12.87 Z2.06 F5400.0
G1 F1200.0
G1 E295.778
G1 F5400.0
M101
G1 X4.0 Y-12.87 Z2.06 F3000.0 E295.903
G1 X2.13 Y-10.14 Z2.06 F3000.0 E296.033
G1 X2.13 Y-9.86 Z2.06 F3000.0 E296.044
G1 X5.87 Y-6.14 Z2.06 F3000.0 E296.25
G1 X5.87 Y-5.86 Z2.06 F3000.0 E296.261
G1 X2.13 Y-2.14 Z2.06 F3000.0 E296.468
G1 X2.13 Y-1.86 Z2.06 F3000.0 E296.479
G1 X5.87 Y1.86 Z2.06 F3000.0 E296.685
G1 X5.87 Y2.14 Z2.06 F3000.0 E296.696
G1 X2.13 Y5.86 Z2.06 F3000.0 E296.903
G1 X2.13 Y6.14 Z2.06 F3000.0 E296.914
G1 X5.87 Y9.86 Z2.06 F3000.0 E297.121
G1 X5.87 Y10.14 Z2.06 F3000.0 E297.132
G1 X7.2 Y12.46 Z2.06 F3000.0 E297.236
G1 X-0.4 Y12.45 Z2.06 F3000.0 E297.534
G1 X-1.87 Y10.14 Z2.06 F3000.0 E297.641
G1 X-1.87 Y9.86 Z2.06 F3000.0 E297.652
G1 X1.87 Y6.14 Z2.06 F3000.0 E297.858
G1 X1.87 Y5.86 Z2.06 F3000.0 E297.869
G1 X-1.87 Y2.14 Z2.06 F3000.0 E298.076
G1 X-1.87 Y1.86 Z2.06 F3000.0 E298.087
G1 X1.87 Y-1.86 Z2.06 F3000.0 E298.294
G1 X1.87 Y-2.14 Z2.06 F3000.0 E298.305
G1 X-1.87 Y-5.86 Z2.06 F3000.0 E298.511
G1 X-1.87 Y-6.14 Z2.06 F3000.0 E298.522
G1 X1.87 Y-9.86 Z2.06 F3000.0 E298.729
G1 X1.87 Y-10.14 Z2.06 F3000.0 E298.74
G1 X3.6 Y-12.87 Z2.06 F3000.0 E298.866
G1 X-4.4 Y-12.87 Z2.06 F3000.0 E299.179
G1 X-5.87 Y-10.14 Z2.06 F3000.0 E299.301
G1 X-5.87 Y-9.86 Z2.06 F3000.0 E299.312
G1 X-2.13 Y-6.14 Z2.06 F3000.0 E299.518
G1 X-2.13 Y-5.86 Z2.06 F3000.0 E299.529
G1 X-5.87 Y-2.14 Z2.06 F3000.0 E299.736
G1 X-5.87 Y-1.86 Z2.06 F3000.0 E299.747
G1 X-2.13 Y1.86 Z2.06 F3000.0 E299.953
G1 X-2.13 Y2.14 Z2.06 F3000.0 E299.964
G1 X-5.87 Y5.86 Z2.06 F3000.0 E300.171
G1 X-5.87 Y6.14 Z2.06 F3000.0 E300.182
G1 X-2.13 Y9.86 Z2.06 F3000.0 E300.389
G1 X-2.13 Y10.14 Z2.06 F3000.0 E300.399
G1 X-0.8 Y12.45 Z2.06 F3000.0 E300.504
G1 X-4.4 Y12.44 Z2.06 F3000.0 E300.645
G1 F1200.0
G1 E299.645
G1 F3000.0
M103
G1 X-8.4 Y12.44 Z2.06 F5400.0
G1 F1200.0
G1 E300.645
G1 F5400.0
M101
G1 X-4.8 Y12.44 Z2.06 F3000.0 E300.785
G1 X-6.13 Y6.14 Z2.06 F3000.0 E301.037
G1 X-6.13 Y-10.14 Z2.06 F3000.0 E301.674
G1 X-4.8 Y-12.87 Z2.06 F3000.0 E301.793
G1 X-9.6 Y-12.87 Z2.06 F3000.0 E301.981
G1 X-10.0 Y-12.8 Z2.06 F3000.0 E301.997
G1 X-10.0 Y12.09 Z2.06 F3000.0 E302.971
G1 X-9.6 Y12.37 Z2.06 F3000.0 E302.99
G1 X-9.2 Y12.44 Z2.06 F3000.0 E303.006
G1 X-8.8 Y12.44 Z2.06 F3000.0 E303.022
G1 F1200.0
G1 E302.022
G1 F3000.0
M103
G1 X9.6 Y-12.87 Z2.06 F5400.0
G1 F1200.0
G1 E303.022
G1 F5400.0
M101
G1 X7.6 Y-12.87 Z2.06 F3000.0 E303.1
G1 X6.13 Y-6.14 Z2.06 F3000.0 E303.369
G1 X6.13 Y10.14 Z2.06 F3000.0 E304.006
G1 X7.6 Y12.46 Z2.06 F3000.0 E304.114
G1 X9.2 Y12.47 Z2.06 F3000.0 E304.177
G1 X9.6 Y12.38 Z2.06 F3000.0 E304.193
G1 X10.0 Y12.09 Z2.06 F3000.0 E304.212
G1 X10.0 Y-12.8 Z2.06 F3000.0 E305.186
G1 F1200.0
G1 E304.186
G1 F3000.0
M103
(</infill>)
(</nestedRing>)
(</rotation>)
(</layer>)
(<layer> 2.26 )
(<rotation> (-1+1.22464679915e-16j) )
(<nestedRing>)
(<boundaryPerimeter>)
(<boundaryPoint> X-10.983 Y-13.316 Z2.26 </boundaryPoint>)
(<boundaryPoint> X-10.805 Y-13.491 Z2.26 </boundaryPoint>)
(<boundaryPoint> X-10.58 Y-13.634 Z2.26 </boundaryPoint>)
(<boundaryPoint> X-10.298 Y-13.74 Z2.26 </boundaryPoint>)
(<boundaryPoint> X-9.916 Y-13.806 Z2.26 </boundaryPoint>)
(<boundaryPoint> X9.916 Y-13.806 Z2.26 </boundaryPoint>)
(<boundaryPoint> X10.299 Y-13.74 Z2.26 </boundaryPoint>)
(<boundaryPoint> X10.58 Y-13.634 Z2.26 </boundaryPoint>)
(<boundaryPoint> X10.805 Y-13.491 Z2.26 </boundaryPoint>)
(<boundaryPoint> X10.983 Y-13.316 Z2.26 </boundaryPoint>)
(<boundaryPoint> X11.116 Y-13.117 Z2.26 </boundaryPoint>)
(<boundaryPoint> X11.192 Y-12.901 Z2.26 </boundaryPoint>)
(<boundaryPoint> X11.194 Y11.814 Z2.26 </boundaryPoint>)
(<boundaryPoint> X11.117 Y12.146 Z2.26 </boundaryPoint>)
(<boundaryPoint> X10.975 Y12.464 Z2.26 </boundaryPoint>)
(<boundaryPoint> X10.774 Y12.763 Z2.26 </boundaryPoint>)
(<boundaryPoint> X10.506 Y13.031 Z2.26 </boundaryPoint>)
(<boundaryPoint> X10.169 Y13.259 Z2.26 </boundaryPoint>)
(<boundaryPoint> X9.734 Y13.425 Z2.26 </boundaryPoint>)
(<boundaryPoint> X9.291 Y13.485 Z2.26 </boundaryPoint>)
(<boundaryPoint> X-9.483 Y13.468 Z2.26 </boundaryPoint>)
(<boundaryPoint> X-9.841 Y13.394 Z2.26 </boundaryPoint>)
(<boundaryPoint> X-10.169 Y13.259 Z2.26 </boundaryPoint>)
(<boundaryPoint> X-10.506 Y13.031 Z2.26 </boundaryPoint>)
(<boundaryPoint> X-10.774 Y12.763 Z2.26 </boundaryPoint>)
(<boundaryPoint> X-10.975 Y12.464 Z2.26 </boundaryPoint>)
(<boundaryPoint> X-11.117 Y12.146 Z2.26 </boundaryPoint>)
(<boundaryPoint> X-11.194 Y11.814 Z2.26 </boundaryPoint>)
(<boundaryPoint> X-11.192 Y-12.901 Z2.26 </boundaryPoint>)
(<boundaryPoint> X-11.116 Y-13.117 Z2.26 </boundaryPoint>)
(<loop> outer )
G1 X-10.57 Y-12.8 Z2.26 F5400.0
G1 F1200.0
G1 E305.186
G1 F5400.0
M101
G1 X-10.57 Y-12.85 Z2.26 F3000.0 E305.188
G1 X-10.43 Y-13.02 Z2.26 F3000.0 E305.197
G1 X-10.31 Y-13.09 Z2.26 F3000.0 E305.202
G1 X-9.87 Y-13.21 Z2.26 F3000.0 E305.22
G1 X9.87 Y-13.21 Z2.26 F3000.0 E305.992
G1 X10.14 Y-13.16 Z2.26 F3000.0 E306.003
G1 X10.43 Y-13.02 Z2.26 F3000.0 E306.016
G1 X10.52 Y-12.93 Z2.26 F3000.0 E306.021
G1 X10.59 Y-12.8 Z2.26 F3000.0 E306.027
G1 X10.59 Y11.74 Z2.26 F3000.0 E306.987
G1 X10.55 Y11.95 Z2.26 F3000.0 E306.995
G1 X10.31 Y12.38 Z2.26 F3000.0 E307.015
G1 X10.12 Y12.57 Z2.26 F3000.0 E307.025
G1 X9.89 Y12.72 Z2.26 F3000.0 E307.036
G1 X9.59 Y12.84 Z2.26 F3000.0 E307.049
G1 X-9.42 Y12.87 Z2.26 F3000.0 E307.792
G1 X-9.66 Y12.82 Z2.26 F3000.0 E307.802
G1 X-9.88 Y12.73 Z2.26 F3000.0 E307.811
G1 X-10.12 Y12.57 Z2.26 F3000.0 E307.823
G1 X-10.31 Y12.38 Z2.26 F3000.0 E307.833
G1 X-10.45 Y12.17 Z2.26 F3000.0 E307.843
G1 X-10.59 Y11.74 Z2.26 F3000.0 E307.86
G1 X-10.57 Y-12.8 Z2.26 F3000.0 E308.821
G1 F1200.0
G1 E308.821
G1 F3000.0
M103
(</loop>)
(<edge> outer )
;M108 R25.0
G1 X-10.95 Y-12.98 Z2.26 F5400.0
G1 F1200.0
G1 E308.821
G1 F5400.0
M101
G1 X-10.94 Y-13.03 Z2.26 F1500.0 E308.823
G1 X-10.83 Y-13.19 Z2.26 F1500.0 E308.83
G1 X-10.68 Y-13.33 Z2.26 F1500.0 E308.838
G1 X-10.49 Y-13.45 Z2.26 F1500.0 E308.847
G1 X-10.24 Y-13.55 Z2.26 F1500.0 E308.857
G1 X-9.9 Y-13.61 Z2.26 F1500.0 E308.871
G1 X9.9 Y-13.61 Z2.26 F1500.0 E309.646
G1 X10.25 Y-13.55 Z2.26 F1500.0 E309.66
G1 X10.49 Y-13.45 Z2.26 F1500.0 E309.67
G1 X10.68 Y-13.33 Z2.26 F1500.0 E309.679
G1 X10.83 Y-13.19 Z2.26 F1500.0 E309.687
G1 X10.94 Y-13.03 Z2.26 F1500.0 E309.694
G1 X10.99 Y-12.87 Z2.26 F1500.0 E309.701
G1 X10.99 Y11.79 Z2.26 F1500.0 E310.666
G1 X10.93 Y12.08 Z2.26 F1500.0 E310.677
G1 X10.8 Y12.37 Z2.26 F1500.0 E310.69
G1 X10.62 Y12.63 Z2.26 F1500.0 E310.702
G1 X10.38 Y12.88 Z2.26 F1500.0 E310.716
G1 X10.08 Y13.08 Z2.26 F1500.0 E310.73
G1 X9.68 Y13.23 Z2.26 F1500.0 E310.746
G1 X9.28 Y13.29 Z2.26 F1500.0 E310.762
G1 X-9.46 Y13.27 Z2.26 F1500.0 E311.496
G1 X-9.78 Y13.2 Z2.26 F1500.0 E311.508
G1 X-10.07 Y13.08 Z2.26 F1500.0 E311.521
G1 X-10.38 Y12.88 Z2.26 F1500.0 E311.535
G1 X-10.62 Y12.63 Z2.26 F1500.0 E311.548
G1 X-10.8 Y12.37 Z2.26 F1500.0 E311.561
G1 X-10.93 Y12.08 Z2.26 F1500.0 E311.573
G1 X-10.99 Y11.79 Z2.26 F1500.0 E311.585
G1 X-10.99 Y-12.87 Z2.26 F1500.0 E312.55
G1 X-10.95 Y-12.98 Z2.26 F1500.0 E312.555
G1 F1200.0
G1 E312.555
G1 F1500.0
M103
(</edge>)
(</boundaryPerimeter>)
(<infill>)
(<infillBoundary>)
(<infillPoint> X-10.43 Y-13.019 Z1.1 </infillPoint>)
(<infillPoint> X-10.311 Y-13.094 Z1.1 </infillPoint>)
(<infillPoint> X-9.865 Y-13.206 Z1.1 </infillPoint>)
(<infillPoint> X9.865 Y-13.206 Z1.1 </infillPoint>)
(<infillPoint> X10.141 Y-13.158 Z1.1 </infillPoint>)
(<infillPoint> X10.43 Y-13.019 Z1.1 </infillPoint>)
(<infillPoint> X10.518 Y-12.931 Z1.1 </infillPoint>)
(<infillPoint> X10.592 Y-12.798 Z1.1 </infillPoint>)
(<infillPoint> X10.594 Y11.745 Z1.1 </infillPoint>)
(<infillPoint> X10.546 Y11.954 Z1.1 </infillPoint>)
(<infillPoint> X10.309 Y12.38 Z1.1 </infillPoint>)
(<infillPoint> X10.122 Y12.566 Z1.1 </infillPoint>)
(<infillPoint> X9.89 Y12.723 Z1.1 </infillPoint>)
(<infillPoint> X9.585 Y12.84 Z1.1 </infillPoint>)
(<infillPoint> X-9.421 Y12.868 Z1.1 </infillPoint>)
(<infillPoint> X-9.665 Y12.818 Z1.1 </infillPoint>)
(<infillPoint> X-9.884 Y12.728 Z1.1 </infillPoint>)
(<infillPoint> X-10.122 Y12.566 Z1.1 </infillPoint>)
(<infillPoint> X-10.309 Y12.38 Z1.1 </infillPoint>)
(<infillPoint> X-10.448 Y12.172 Z1.1 </infillPoint>)
(<infillPoint> X-10.594 Y11.745 Z1.1 </infillPoint>)
(<infillPoint> X-10.575 Y-12.846 Z1.1 </infillPoint>)
(</infillBoundary>)
;M108 R50.0
G1 X-10.29 Y-12.4 Z2.26 F5400.0
G1 F1200.0
G1 E312.555
G1 F5400.0
M101
G1 X-10.3 Y-8.8 Z2.26 F3000.0 E312.695
G1 X-6.14 Y-10.13 Z2.26 F3000.0 E312.866
G1 X2.14 Y-10.13 Z2.26 F3000.0 E313.19
G1 X10.31 Y-8.8 Z2.26 F3000.0 E313.514
G1 X10.31 Y-12.4 Z2.26 F3000.0 E313.655
G1 X10.24 Y-12.8 Z2.26 F3000.0 E313.671
G1 X-10.25 Y-12.8 Z2.26 F3000.0 E314.473
G1 F1200.0
G1 E313.473
G1 F3000.0
M103
G1 X10.31 Y-8.4 Z2.26 F5400.0
G1 F1200.0
G1 E314.473
G1 F5400.0
M101
G1 X10.31 Y-4.8 Z2.26 F3000.0 E314.613
G1 X6.14 Y-6.13 Z2.26 F3000.0 E314.785
G1 X5.86 Y-6.13 Z2.26 F3000.0 E314.796
G1 X2.14 Y-9.87 Z2.26 F3000.0 E315.002
G1 X1.86 Y-9.87 Z2.26 F3000.0 E315.013
G1 X-1.86 Y-6.13 Z2.26 F3000.0 E315.22
G1 X-2.14 Y-6.13 Z2.26 F3000.0 E315.231
G1 X-5.86 Y-9.87 Z2.26 F3000.0 E315.438
G1 X-6.14 Y-9.87 Z2.26 F3000.0 E315.449
G1 X-9.86 Y-6.13 Z2.26 F3000.0 E315.655
G1 X-10.14 Y-6.13 Z2.26 F3000.0 E315.666
G1 X-10.3 Y-6.4 Z2.26 F3000.0 E315.679
G1 X-10.3 Y-8.4 Z2.26 F3000.0 E315.757
G1 F1200.0
G1 E314.757
G1 F3000.0
M103
G1 X-10.31 Y7.2 Z2.26 F5400.0
G1 F1200.0
G1 E315.757
G1 F5400.0
M101
G1 X-10.31 Y2.0 Z2.26 F3000.0 E315.96
G1 X-10.14 Y2.13 Z2.26 F3000.0 E315.968
G1 X-9.86 Y2.13 Z2.26 F3000.0 E315.979
G1 X-6.14 Y5.87 Z2.26 F3000.0 E316.186
G1 X-5.86 Y5.87 Z2.26 F3000.0 E316.197
G1 X-2.14 Y2.13 Z2.26 F3000.0 E316.404
G1 X-1.86 Y2.13 Z2.26 F3000.0 E316.415
G1 X1.86 Y5.87 Z2.26 F3000.0 E316.621
G1 X2.14 Y5.87 Z2.26 F3000.0 E316.632
G1 X5.86 Y2.13 Z2.26 F3000.0 E316.839
G1 X6.14 Y2.13 Z2.26 F3000.0 E316.85
G1 X10.31 Y4.0 Z2.26 F3000.0 E317.029
G1 X10.31 Y11.6 Z2.26 F3000.0 E317.326
G1 X6.14 Y9.87 Z2.26 F3000.0 E317.503
G1 X5.86 Y9.87 Z2.26 F3000.0 E317.514
G1 X2.14 Y6.13 Z2.26 F3000.0 E317.72
G1 X1.86 Y6.13 Z2.26 F3000.0 E317.731
G1 X-1.86 Y9.87 Z2.26 F3000.0 E317.938
G1 X-2.14 Y9.87 Z2.26 F3000.0 E317.949
G1 X-5.86 Y6.13 Z2.26 F3000.0 E318.156
G1 X-6.14 Y6.13 Z2.26 F3000.0 E318.167
G1 X-9.86 Y9.87 Z2.26 F3000.0 E318.373
G1 X-10.14 Y9.87 Z2.26 F3000.0 E318.384
G1 X-10.31 Y10.0 Z2.26 F3000.0 E318.393
G1 X-10.31 Y7.6 Z2.26 F3000.0 E318.486
G1 F1200.0
G1 E317.486
G1 F3000.0
M103
G1 X-10.21 Y12.0 Z2.26 F5400.0
G1 F1200.0
G1 E318.486
G1 F5400.0
M101
G1 X-10.31 Y11.6 Z2.26 F3000.0 E318.503
G1 X-10.31 Y10.4 Z2.26 F3000.0 E318.55
G1 X-10.14 Y10.13 Z2.26 F3000.0 E318.562
G1 X6.14 Y10.13 Z2.26 F3000.0 E319.199
G1 X10.2 Y12.0 Z2.26 F3000.0 E319.374
G1 X9.87 Y12.4 Z2.26 F3000.0 E319.395
G1 X-9.87 Y12.4 Z2.26 F3000.0 E320.167
G1 F1200.0
G1 E319.167
G1 F3000.0
M103
G1 X10.31 Y-0.4 Z2.26 F5400.0
G1 F1200.0
G1 E320.167
G1 F5400.0
M101
G1 X10.31 Y3.6 Z2.26 F3000.0 E320.323
G1 X6.14 Y1.87 Z2.26 F3000.0 E320.5
G1 X5.86 Y1.87 Z2.26 F3000.0 E320.511
G1 X2.14 Y-1.87 Z2.26 F3000.0 E320.718
G1 X1.86 Y-1.87 Z2.26 F3000.0 E320.729
G1 X-1.86 Y1.87 Z2.26 F3000.0 E320.935
G1 X-2.14 Y1.87 Z2.26 F3000.0 E320.946
G1 X-5.86 Y-1.87 Z2.26 F3000.0 E321.153
G1 X-6.14 Y-1.87 Z2.26 F3000.0 E321.164
G1 X-9.86 Y1.87 Z2.26 F3000.0 E321.37
G1 X-10.14 Y1.87 Z2.26 F3000.0 E321.381
G1 X-10.31 Y1.6 Z2.26 F3000.0 E321.394
G1 X-10.3 Y-6.0 Z2.26 F3000.0 E321.691
G1 X-10.14 Y-5.87 Z2.26 F3000.0 E321.699
G1 X-9.86 Y-5.87 Z2.26 F3000.0 E321.71
G1 X-6.14 Y-2.13 Z2.26 F3000.0 E321.917
G1 X-5.86 Y-2.13 Z2.26 F3000.0 E321.928
G1 X-2.14 Y-5.87 Z2.26 F3000.0 E322.134
G1 X-1.86 Y-5.87 Z2.26 F3000.0 E322.145
G1 X1.86 Y-2.13 Z2.26 F3000.0 E322.352
G1 X2.14 Y-2.13 Z2.26 F3000.0 E322.363
G1 X5.86 Y-5.87 Z2.26 F3000.0 E322.57
G1 X6.14 Y-5.87 Z2.26 F3000.0 E322.581
G1 X10.31 Y-4.4 Z2.26 F3000.0 E322.754
G1 X10.31 Y-0.8 Z2.26 F3000.0 E322.895
G1 F1200.0
G1 E321.895
G1 F3000.0
M103
(</infill>)
(</nestedRing>)
(</rotation>)
(</layer>)
(<layer> 2.46 )
(<rotation> (6.12323399574e-17+1j) )
(<nestedRing>)
(<boundaryPerimeter>)
(<boundaryPoint> X10.377 Y13.263 Z2.46 </boundaryPoint>)
(<boundaryPoint> X9.999 Y13.457 Z2.46 </boundaryPoint>)
(<boundaryPoint> X9.516 Y13.577 Z2.46 </boundaryPoint>)
(<boundaryPoint> X-9.309 Y13.595 Z2.46 </boundaryPoint>)
(<boundaryPoint> X-9.676 Y13.549 Z2.46 </boundaryPoint>)
(<boundaryPoint> X-10.053 Y13.435 Z2.46 </boundaryPoint>)
(<boundaryPoint> X-10.377 Y13.263 Z2.46 </boundaryPoint>)
(<boundaryPoint> X-10.683 Y13.02 Z2.46 </boundaryPoint>)
(<boundaryPoint> X-10.933 Y12.743 Z2.46 </boundaryPoint>)
(<boundaryPoint> X-11.113 Y12.433 Z2.46 </boundaryPoint>)
(<boundaryPoint> X-11.243 Y12.109 Z2.46 </boundaryPoint>)
(<boundaryPoint> X-11.311 Y11.773 Z2.46 </boundaryPoint>)
(<boundaryPoint> X-11.301 Y-12.901 Z2.46 </boundaryPoint>)
(<boundaryPoint> X-11.227 Y-13.117 Z2.46 </boundaryPoint>)
(<boundaryPoint> X-11.106 Y-13.316 Z2.46 </boundaryPoint>)
(<boundaryPoint> X-10.943 Y-13.491 Z2.46 </boundaryPoint>)
(<boundaryPoint> X-10.737 Y-13.634 Z2.46 </boundaryPoint>)
(<boundaryPoint> X-10.489 Y-13.74 Z2.46 </boundaryPoint>)
(<boundaryPoint> X-10.194 Y-13.806 Z2.46 </boundaryPoint>)
(<boundaryPoint> X10.194 Y-13.806 Z2.46 </boundaryPoint>)
(<boundaryPoint> X10.489 Y-13.74 Z2.46 </boundaryPoint>)
(<boundaryPoint> X10.737 Y-13.634 Z2.46 </boundaryPoint>)
(<boundaryPoint> X10.943 Y-13.491 Z2.46 </boundaryPoint>)
(<boundaryPoint> X11.106 Y-13.316 Z2.46 </boundaryPoint>)
(<boundaryPoint> X11.227 Y-13.117 Z2.46 </boundaryPoint>)
(<boundaryPoint> X11.301 Y-12.901 Z2.46 </boundaryPoint>)
(<boundaryPoint> X11.311 Y11.773 Z2.46 </boundaryPoint>)
(<boundaryPoint> X11.243 Y12.109 Z2.46 </boundaryPoint>)
(<boundaryPoint> X11.113 Y12.433 Z2.46 </boundaryPoint>)
(<boundaryPoint> X10.921 Y12.757 Z2.46 </boundaryPoint>)
(<boundaryPoint> X10.683 Y13.02 Z2.46 </boundaryPoint>)
(<loop> outer )
G1 X-10.7 Y-12.73 Z2.46 F5400.0
G1 F1200.0
G1 E322.895
G1 F5400.0
M101
G1 X-10.7 Y-12.8 Z2.46 F3000.0 E322.897
G1 X-10.63 Y-12.95 Z2.46 F3000.0 E322.904
G1 X-10.55 Y-13.04 Z2.46 F3000.0 E322.909
G1 X-10.3 Y-13.17 Z2.46 F3000.0 E322.919
G1 X-10.13 Y-13.21 Z2.46 F3000.0 E322.926
G1 X10.13 Y-13.21 Z2.46 F3000.0 E323.719
G1 X10.45 Y-13.11 Z2.46 F3000.0 E323.732
G1 X10.55 Y-13.04 Z2.46 F3000.0 E323.737
G1 X10.68 Y-12.86 Z2.46 F3000.0 E323.745
G1 X10.71 Y11.71 Z2.46 F3000.0 E324.707
G1 X10.57 Y12.17 Z2.46 F3000.0 E324.726
G1 X10.44 Y12.4 Z2.46 F3000.0 E324.736
G1 X10.05 Y12.76 Z2.46 F3000.0 E324.757
G1 X9.79 Y12.89 Z2.46 F3000.0 E324.768
G1 X9.44 Y12.98 Z2.46 F3000.0 E324.782
G1 X-9.55 Y12.96 Z2.46 F3000.0 E325.525
G1 X-9.82 Y12.88 Z2.46 F3000.0 E325.537
G1 X-10.05 Y12.76 Z2.46 F3000.0 E325.546
G1 X-10.45 Y12.39 Z2.46 F3000.0 E325.568
G1 X-10.67 Y11.94 Z2.46 F3000.0 E325.587
G1 X-10.71 Y11.71 Z2.46 F3000.0 E325.596
G1 X-10.7 Y-12.73 Z2.46 F3000.0 E326.553
G1 F1200.0
G1 E326.553
G1 F3000.0
M103
(</loop>)
(<edge> outer )
;M108 R25.0
G1 X-11.03 Y-13.06 Z2.46 F5400.0
G1 F1200.0
G1 E326.553
G1 F5400.0
M101
G1 X-10.95 Y-13.2 Z2.46 F1500.0 E326.559
G1 X-10.81 Y-13.34 Z2.46 F1500.0 E326.567
G1 X-10.64 Y-13.46 Z2.46 F1500.0 E326.575
G1 X-10.43 Y-13.55 Z2.46 F1500.0 E326.584
G1 X-10.17 Y-13.61 Z2.46 F1500.0 E326.594
G1 X10.17 Y-13.61 Z2.46 F1500.0 E327.39
G1 X10.43 Y-13.55 Z2.46 F1500.0 E327.4
G1 X10.64 Y-13.46 Z2.46 F1500.0 E327.409
G1 X10.81 Y-13.34 Z2.46 F1500.0 E327.418
G1 X10.95 Y-13.2 Z2.46 F1500.0 E327.425
G1 X11.04 Y-13.03 Z2.46 F1500.0 E327.433
G1 X11.1 Y-12.87 Z2.46 F1500.0 E327.44
G1 X11.11 Y11.75 Z2.46 F1500.0 E328.403
G1 X11.05 Y12.05 Z2.46 F1500.0 E328.415
G1 X10.93 Y12.34 Z2.46 F1500.0 E328.427
G1 X10.76 Y12.64 Z2.46 F1500.0 E328.441
G1 X10.55 Y12.87 Z2.46 F1500.0 E328.453
G1 X10.27 Y13.09 Z2.46 F1500.0 E328.467
G1 X9.93 Y13.27 Z2.46 F1500.0 E328.482
G1 X9.49 Y13.38 Z2.46 F1500.0 E328.499
G1 X-9.3 Y13.39 Z2.46 F1500.0 E329.235
G1 X-9.63 Y13.35 Z2.46 F1500.0 E329.248
G1 X-9.98 Y13.25 Z2.46 F1500.0 E329.262
G1 X-10.27 Y13.1 Z2.46 F1500.0 E329.275
G1 X-10.55 Y12.87 Z2.46 F1500.0 E329.289
G1 X-10.77 Y12.63 Z2.46 F1500.0 E329.302
G1 X-10.93 Y12.35 Z2.46 F1500.0 E329.314
G1 X-11.05 Y12.05 Z2.46 F1500.0 E329.327
G1 X-11.11 Y11.75 Z2.46 F1500.0 E329.339
G1 X-11.1 Y-12.87 Z2.46 F1500.0 E330.302
G1 X-11.04 Y-13.03 Z2.46 F1500.0 E330.309
G1 X-11.03 Y-13.06 Z2.46 F1500.0 E330.31
G1 F1200.0
G1 E329.31
G1 F1500.0
M103
(</edge>)
(</boundaryPerimeter>)
(<infill>)
(<infillBoundary>)
(<infillPoint> X10.05 Y12.756 Z1.3 </infillPoint>)
(<infillPoint> X9.787 Y12.891 Z1.3 </infillPoint>)
(<infillPoint> X9.442 Y12.977 Z1.3 </infillPoint>)
(<infillPoint> X-9.551 Y12.96 Z1.3 </infillPoint>)
(<infillPoint> X-9.823 Y12.878 Z1.3 </infillPoint>)
(<infillPoint> X-10.047 Y12.759 Z1.3 </infillPoint>)
(<infillPoint> X-10.446 Y12.388 Z1.3 </infillPoint>)
(<infillPoint> X-10.666 Y11.936 Z1.3 </infillPoint>)
(<infillPoint> X-10.711 Y11.713 Z1.3 </infillPoint>)
(<infillPoint> X-10.701 Y-12.801 Z1.3 </infillPoint>)
(<infillPoint> X-10.625 Y-12.952 Z1.3 </infillPoint>)
(<infillPoint> X-10.548 Y-13.035 Z1.3 </infillPoint>)
(<infillPoint> X-10.304 Y-13.167 Z1.3 </infillPoint>)
(<infillPoint> X-10.128 Y-13.206 Z1.3 </infillPoint>)
(<infillPoint> X10.128 Y-13.206 Z1.3 </infillPoint>)
(<infillPoint> X10.445 Y-13.106 Z1.3 </infillPoint>)
(<infillPoint> X10.548 Y-13.035 Z1.3 </infillPoint>)
(<infillPoint> X10.68 Y-12.861 Z1.3 </infillPoint>)
(<infillPoint> X10.711 Y11.713 Z1.3 </infillPoint>)
(<infillPoint> X10.573 Y12.167 Z1.3 </infillPoint>)
(<infillPoint> X10.436 Y12.399 Z1.3 </infillPoint>)
(</infillBoundary>)
;M108 R50.0
G1 X7.2 Y-12.92 Z2.46 F5400.0
G1 F1200.0
G1 E330.31
G1 F5400.0
M101
G1 X4.0 Y-12.92 Z2.46 F3000.0 E330.435
G1 X2.13 Y-10.14 Z2.46 F3000.0 E330.567
G1 X2.13 Y-9.86 Z2.46 F3000.0 E330.578
G1 X5.87 Y-6.14 Z2.46 F3000.0 E330.784
G1 X5.87 Y-5.86 Z2.46 F3000.0 E330.795
G1 X2.13 Y-2.14 Z2.46 F3000.0 E331.002
G1 X2.13 Y-1.86 Z2.46 F3000.0 E331.013
G1 X5.87 Y1.86 Z2.46 F3000.0 E331.219
G1 X5.87 Y2.14 Z2.46 F3000.0 E331.23
G1 X2.13 Y5.86 Z2.46 F3000.0 E331.437
G1 X2.13 Y6.14 Z2.46 F3000.0 E331.448
G1 X5.87 Y9.86 Z2.46 F3000.0 E331.655
G1 X5.87 Y10.14 Z2.46 F3000.0 E331.665
G1 X7.2 Y12.7 Z2.46 F3000.0 E331.778
G1 X-0.4 Y12.69 Z2.46 F3000.0 E332.076
G1 X-1.87 Y10.14 Z2.46 F3000.0 E332.191
G1 X-1.87 Y9.86 Z2.46 F3000.0 E332.202
G1 X1.87 Y6.14 Z2.46 F3000.0 E332.408
G1 X1.87 Y5.86 Z2.46 F3000.0 E332.419
G1 X-1.87 Y2.14 Z2.46 F3000.0 E332.626
G1 X-1.87 Y1.86 Z2.46 F3000.0 E332.637
G1 X1.87 Y-1.86 Z2.46 F3000.0 E332.843
G1 X1.87 Y-2.14 Z2.46 F3000.0 E332.854
G1 X-1.87 Y-5.86 Z2.46 F3000.0 E333.061
G1 X-1.87 Y-6.14 Z2.46 F3000.0 E333.072
G1 X1.87 Y-9.86 Z2.46 F3000.0 E333.279
G1 X1.87 Y-10.14 Z2.46 F3000.0 E333.29
G1 X3.6 Y-12.92 Z2.46 F3000.0 E333.418
G1 X-4.4 Y-12.91 Z2.46 F3000.0 E333.731
G1 X-5.87 Y-10.14 Z2.46 F3000.0 E333.853
G1 X-5.87 Y-9.86 Z2.46 F3000.0 E333.864
G1 X-2.13 Y-6.14 Z2.46 F3000.0 E334.071
G1 X-2.13 Y-5.86 Z2.46 F3000.0 E334.082
G1 X-5.87 Y-2.14 Z2.46 F3000.0 E334.289
G1 X-5.87 Y-1.86 Z2.46 F3000.0 E334.299
G1 X-2.13 Y1.86 Z2.46 F3000.0 E334.506
G1 X-2.13 Y2.14 Z2.46 F3000.0 E334.517
G1 X-5.87 Y5.86 Z2.46 F3000.0 E334.724
G1 X-5.87 Y6.14 Z2.46 F3000.0 E334.735
G1 X-2.13 Y9.86 Z2.46 F3000.0 E334.941
G1 X-2.13 Y10.14 Z2.46 F3000.0 E334.952
G1 X-0.8 Y12.69 Z2.46 F3000.0 E335.065
G1 X-8.4 Y12.68 Z2.46 F3000.0 E335.362
G1 X-9.87 Y10.14 Z2.46 F3000.0 E335.477
G1 X-9.87 Y9.86 Z2.46 F3000.0 E335.488
G1 X-6.13 Y6.14 Z2.46 F3000.0 E335.695
G1 X-6.13 Y5.86 Z2.46 F3000.0 E335.706
G1 X-9.87 Y2.14 Z2.46 F3000.0 E335.912
G1 X-9.87 Y1.86 Z2.46 F3000.0 E335.923
G1 X-6.13 Y-1.86 Z2.46 F3000.0 E336.13
G1 X-6.13 Y-2.14 Z2.46 F3000.0 E336.141
G1 X-9.87 Y-5.86 Z2.46 F3000.0 E336.347
G1 X-9.87 Y-6.14 Z2.46 F3000.0 E336.358
G1 X-6.13 Y-9.86 Z2.46 F3000.0 E336.565
G1 X-6.13 Y-10.14 Z2.46 F3000.0 E336.576
G1 X-4.8 Y-12.91 Z2.46 F3000.0 E336.696
G1 X-10.0 Y-12.9 Z2.46 F3000.0 E336.899
G1 X-10.4 Y-12.78 Z2.46 F3000.0 E336.916
G1 X-10.13 Y-6.14 Z2.46 F3000.0 E337.176
G1 X-10.13 Y10.14 Z2.46 F3000.0 E337.813
G1 X-10.4 Y11.84 Z2.46 F3000.0 E337.88
G1 X-10.0 Y12.42 Z2.46 F3000.0 E337.908
G1 X-9.6 Y12.65 Z2.46 F3000.0 E337.926
G1 X-8.8 Y12.68 Z2.46 F3000.0 E337.957
G1 F1200.0
G1 E336.957
G1 F3000.0
M103
G1 X10.0 Y-12.93 Z2.46 F5400.0
M73 P4 (display progress)
G1 F1200.0
G1 E337.957
G1 F5400.0
M101
G1 X7.6 Y-12.92 Z2.46 F3000.0 E338.051
G1 X6.13 Y-6.14 Z2.46 F3000.0 E338.323
G1 X6.13 Y10.14 Z2.46 F3000.0 E338.96
G1 X7.6 Y12.7 Z2.46 F3000.0 E339.075
G1 X9.6 Y12.65 Z2.46 F3000.0 E339.153
G1 X10.0 Y12.42 Z2.46 F3000.0 E339.171
G1 X10.4 Y11.77 Z2.46 F3000.0 E339.201
G1 X10.4 Y-12.77 Z2.46 F3000.0 E340.161
G1 F1200.0
G1 E339.161
G1 F3000.0
M103
(</infill>)
(</nestedRing>)
(</rotation>)
(</layer>)
(<layer> 2.66 )
(<rotation> (-1+1.22464679915e-16j) )
(<nestedRing>)
(<boundaryPerimeter>)
(<boundaryPoint> X10.547 Y13.248 Z2.66 </boundaryPoint>)
(<boundaryPoint> X10.206 Y13.46 Z2.66 </boundaryPoint>)
(<boundaryPoint> X9.789 Y13.613 Z2.66 </boundaryPoint>)
(<boundaryPoint> X9.359 Y13.674 Z2.66 </boundaryPoint>)
(<boundaryPoint> X-9.518 Y13.661 Z2.66 </boundaryPoint>)
(<boundaryPoint> X-9.866 Y13.591 Z2.66 </boundaryPoint>)
(<boundaryPoint> X-10.268 Y13.427 Z2.66 </boundaryPoint>)
(<boundaryPoint> X-10.547 Y13.248 Z2.66 </boundaryPoint>)
(<boundaryPoint> X-10.831 Y12.994 Z2.66 </boundaryPoint>)
(<boundaryPoint> X-11.059 Y12.706 Z2.66 </boundaryPoint>)
(<boundaryPoint> X-11.229 Y12.391 Z2.66 </boundaryPoint>)
(<boundaryPoint> X-11.343 Y12.059 Z2.66 </boundaryPoint>)
(<boundaryPoint> X-11.406 Y11.72 Z2.66 </boundaryPoint>)
(<boundaryPoint> X-11.385 Y-12.901 Z2.66 </boundaryPoint>)
(<boundaryPoint> X-11.316 Y-13.117 Z2.66 </boundaryPoint>)
(<boundaryPoint> X-11.202 Y-13.316 Z2.66 </boundaryPoint>)
(<boundaryPoint> X-11.05 Y-13.491 Z2.66 </boundaryPoint>)
(<boundaryPoint> X-10.853 Y-13.634 Z2.66 </boundaryPoint>)
(<boundaryPoint> X-10.627 Y-13.74 Z2.66 </boundaryPoint>)
(<boundaryPoint> X-10.369 Y-13.806 Z2.66 </boundaryPoint>)
(<boundaryPoint> X10.369 Y-13.806 Z2.66 </boundaryPoint>)
(<boundaryPoint> X10.627 Y-13.74 Z2.66 </boundaryPoint>)
(<boundaryPoint> X10.853 Y-13.634 Z2.66 </boundaryPoint>)
(<boundaryPoint> X11.05 Y-13.491 Z2.66 </boundaryPoint>)
(<boundaryPoint> X11.202 Y-13.316 Z2.66 </boundaryPoint>)
(<boundaryPoint> X11.316 Y-13.117 Z2.66 </boundaryPoint>)
(<boundaryPoint> X11.385 Y-12.901 Z2.66 </boundaryPoint>)
(<boundaryPoint> X11.406 Y11.72 Z2.66 </boundaryPoint>)
(<boundaryPoint> X11.343 Y12.059 Z2.66 </boundaryPoint>)
(<boundaryPoint> X11.229 Y12.391 Z2.66 </boundaryPoint>)
(<boundaryPoint> X11.059 Y12.706 Z2.66 </boundaryPoint>)
(<boundaryPoint> X10.831 Y12.994 Z2.66 </boundaryPoint>)
(<loop> outer )
G1 X-10.52 Y-13.12 Z2.66 F5400.0
G1 F1200.0
G1 E340.161
G1 F5400.0
M101
G1 X-10.42 Y-13.17 Z2.66 F3000.0 E340.166
G1 X-10.29 Y-13.21 Z2.66 F3000.0 E340.171
G1 X10.29 Y-13.21 Z2.66 F3000.0 E340.977
G1 X10.42 Y-13.17 Z2.66 F3000.0 E340.982
G1 X10.64 Y-13.05 Z2.66 F3000.0 E340.992
G1 X10.76 Y-12.87 Z2.66 F3000.0 E341.0
G1 X10.81 Y11.66 Z2.66 F3000.0 E341.96
G1 X10.68 Y12.15 Z2.66 F3000.0 E341.98
G1 X10.39 Y12.58 Z2.66 F3000.0 E342.0
G1 X10.19 Y12.77 Z2.66 F3000.0 E342.011
G1 X9.94 Y12.92 Z2.66 F3000.0 E342.022
G1 X9.64 Y13.03 Z2.66 F3000.0 E342.035
G1 X-9.46 Y13.06 Z2.66 F3000.0 E342.782
G1 X-9.69 Y13.01 Z2.66 F3000.0 E342.791
G1 X-10.18 Y12.77 Z2.66 F3000.0 E342.813
G1 X-10.56 Y12.38 Z2.66 F3000.0 E342.834
G1 X-10.76 Y11.91 Z2.66 F3000.0 E342.854
G1 X-10.81 Y11.66 Z2.66 F3000.0 E342.864
G1 X-10.79 Y-12.81 Z2.66 F3000.0 E343.821
G1 X-10.71 Y-12.97 Z2.66 F3000.0 E343.828
G1 X-10.64 Y-13.05 Z2.66 F3000.0 E343.832
G1 X-10.52 Y-13.12 Z2.66 F3000.0 E343.838
G1 F1200.0
G1 E343.838
G1 F3000.0
M103
(</loop>)
(<edge> outer )
;M108 R25.0
G1 X-10.8 Y-13.42 Z2.66 F5400.0
G1 F1200.0
G1 E343.838
G1 F5400.0
M101
G1 X-10.75 Y-13.46 Z2.66 F1500.0 E343.84
G1 X-10.56 Y-13.55 Z2.66 F1500.0 E343.849
G1 X-10.34 Y-13.61 Z2.66 F1500.0 E343.857
G1 X10.34 Y-13.61 Z2.66 F1500.0 E344.667
G1 X10.56 Y-13.55 Z2.66 F1500.0 E344.675
G1 X10.75 Y-13.46 Z2.66 F1500.0 E344.684
G1 X10.91 Y-13.34 Z2.66 F1500.0 E344.692
G1 X11.04 Y-13.2 Z2.66 F1500.0 E344.699
G1 X11.13 Y-13.04 Z2.66 F1500.0 E344.706
G1 X11.19 Y-12.87 Z2.66 F1500.0 E344.713
G1 X11.21 Y11.7 Z2.66 F1500.0 E345.675
G1 X11.15 Y12.01 Z2.66 F1500.0 E345.687
G1 X11.04 Y12.31 Z2.66 F1500.0 E345.699
G1 X10.89 Y12.6 Z2.66 F1500.0 E345.712
G1 X10.69 Y12.86 Z2.66 F1500.0 E345.725
G1 X10.43 Y13.09 Z2.66 F1500.0 E345.739
G1 X10.12 Y13.28 Z2.66 F1500.0 E345.753
G1 X9.74 Y13.42 Z2.66 F1500.0 E345.769
G1 X9.35 Y13.47 Z2.66 F1500.0 E345.784
G1 X-9.5 Y13.46 Z2.66 F1500.0 E346.522
G1 X-9.81 Y13.4 Z2.66 F1500.0 E346.534
G1 X-10.18 Y13.25 Z2.66 F1500.0 E346.549
G1 X-10.43 Y13.09 Z2.66 F1500.0 E346.561
G1 X-10.69 Y12.86 Z2.66 F1500.0 E346.575
G1 X-10.89 Y12.6 Z2.66 F1500.0 E346.588
G1 X-11.04 Y12.31 Z2.66 F1500.0 E346.6
G1 X-11.15 Y12.01 Z2.66 F1500.0 E346.613
G1 X-11.21 Y11.7 Z2.66 F1500.0 E346.625
G1 X-11.19 Y-12.87 Z2.66 F1500.0 E347.587
G1 X-11.13 Y-13.04 Z2.66 F1500.0 E347.593
G1 X-11.04 Y-13.2 Z2.66 F1500.0 E347.601
G1 X-10.91 Y-13.34 Z2.66 F1500.0 E347.608
G1 X-10.8 Y-13.42 Z2.66 F1500.0 E347.614
G1 F1200.0
G1 E347.547
G1 F1500.0
M103
(</edge>)
(</boundaryPerimeter>)
(<infill>)
(<infillBoundary>)
(<infillPoint> X10.186 Y12.766 Z1.5 </infillPoint>)
(<infillPoint> X9.942 Y12.918 Z1.5 </infillPoint>)
(<infillPoint> X9.642 Y13.028 Z1.5 </infillPoint>)
(<infillPoint> X-9.458 Y13.061 Z1.5 </infillPoint>)
(<infillPoint> X-9.692 Y13.014 Z1.5 </infillPoint>)
(<infillPoint> X-10.183 Y12.769 Z1.5 </infillPoint>)
(<infillPoint> X-10.556 Y12.375 Z1.5 </infillPoint>)
(<infillPoint> X-10.761 Y11.906 Z1.5 </infillPoint>)
(<infillPoint> X-10.806 Y11.665 Z1.5 </infillPoint>)
(<infillPoint> X-10.785 Y-12.807 Z1.5 </infillPoint>)
(<infillPoint> X-10.711 Y-12.967 Z1.5 </infillPoint>)
(<infillPoint> X-10.642 Y-13.046 Z1.5 </infillPoint>)
(<infillPoint> X-10.423 Y-13.173 Z1.5 </infillPoint>)
(<infillPoint> X-10.293 Y-13.206 Z1.5 </infillPoint>)
(<infillPoint> X10.293 Y-13.206 Z1.5 </infillPoint>)
(<infillPoint> X10.423 Y-13.173 Z1.5 </infillPoint>)
(<infillPoint> X10.642 Y-13.046 Z1.5 </infillPoint>)
(<infillPoint> X10.764 Y-12.874 Z1.5 </infillPoint>)
(<infillPoint> X10.806 Y11.665 Z1.5 </infillPoint>)
(<infillPoint> X10.678 Y12.149 Z1.5 </infillPoint>)
(<infillPoint> X10.393 Y12.581 Z1.5 </infillPoint>)
(</infillBoundary>)
;M108 R50.0
G1 X-10.51 Y-12.4 Z2.66 F5400.0
G1 F1200.0
G1 E347.614
G1 F5400.0
M101
G1 X-10.51 Y-8.8 Z2.66 F3000.0 E347.755
G1 X-6.14 Y-10.13 Z2.66 F3000.0 E347.933
G1 X2.14 Y-10.13 Z2.66 F3000.0 E348.257
G1 X10.49 Y-8.8 Z2.66 F3000.0 E348.588
G1 X10.47 Y-12.8 Z2.66 F3000.0 E348.744
G1 X-10.48 Y-12.8 Z2.66 F3000.0 E349.564
G1 F1200.0
G1 E348.564
G1 F3000.0
M103
G1 X10.49 Y-8.4 Z2.66 F5400.0
G1 F1200.0
G1 E349.564
G1 F5400.0
M101
G1 X10.5 Y-4.8 Z2.66 F3000.0 E349.705
G1 X6.14 Y-6.13 Z2.66 F3000.0 E349.883
G1 X5.86 Y-6.13 Z2.66 F3000.0 E349.894
G1 X2.14 Y-9.87 Z2.66 F3000.0 E350.101
G1 X1.86 Y-9.87 Z2.66 F3000.0 E350.112
G1 X-1.86 Y-6.13 Z2.66 F3000.0 E350.319
G1 X-2.14 Y-6.13 Z2.66 F3000.0 E350.33
G1 X-5.86 Y-9.87 Z2.66 F3000.0 E350.536
G1 X-6.14 Y-9.87 Z2.66 F3000.0 E350.547
G1 X-9.86 Y-6.13 Z2.66 F3000.0 E350.754
G1 X-10.14 Y-6.13 Z2.66 F3000.0 E350.765
G1 X-10.51 Y-6.4 Z2.66 F3000.0 E350.783
G1 X-10.51 Y-8.4 Z2.66 F3000.0 E350.861
G1 F1200.0
G1 E349.861
G1 F3000.0
M103
G1 X-10.52 Y7.2 Z2.66 F5400.0
G1 F1200.0
G1 E350.861
G1 F5400.0
M101
G1 X-10.52 Y2.0 Z2.66 F3000.0 E351.065
G1 X-10.14 Y2.13 Z2.66 F3000.0 E351.08
G1 X-9.86 Y2.13 Z2.66 F3000.0 E351.091
G1 X-6.14 Y5.87 Z2.66 F3000.0 E351.298
G1 X-5.86 Y5.87 Z2.66 F3000.0 E351.309
G1 X-2.14 Y2.13 Z2.66 F3000.0 E351.515
G1 X-1.86 Y2.13 Z2.66 F3000.0 E351.526
G1 X1.86 Y5.87 Z2.66 F3000.0 E351.733
G1 X2.14 Y5.87 Z2.66 F3000.0 E351.744
G1 X5.86 Y2.13 Z2.66 F3000.0 E351.95
G1 X6.14 Y2.13 Z2.66 F3000.0 E351.961
G1 X10.51 Y4.0 Z2.66 F3000.0 E352.148
G1 X10.53 Y11.6 Z2.66 F3000.0 E352.445
G1 X6.14 Y9.87 Z2.66 F3000.0 E352.629
G1 X5.86 Y9.87 Z2.66 F3000.0 E352.64
G1 X2.14 Y6.13 Z2.66 F3000.0 E352.847
G1 X1.86 Y6.13 Z2.66 F3000.0 E352.858
G1 X-1.86 Y9.87 Z2.66 F3000.0 E353.065
G1 X-2.14 Y9.87 Z2.66 F3000.0 E353.076
G1 X-5.86 Y6.13 Z2.66 F3000.0 E353.282
G1 X-6.14 Y6.13 Z2.66 F3000.0 E353.293
G1 X-9.86 Y9.87 Z2.66 F3000.0 E353.5
G1 X-10.14 Y9.87 Z2.66 F3000.0 E353.511
G1 X-10.53 Y10.4 Z2.66 F3000.0 E353.536
G1 X-10.52 Y7.6 Z2.66 F3000.0 E353.646
G1 F1200.0
G1 E352.646
G1 F3000.0
M103
G1 X-10.41 Y12.0 Z2.66 F5400.0
G1 F1200.0
G1 E353.646
G1 F5400.0
M101
G1 X-10.53 Y11.6 Z2.66 F3000.0 E353.662
G1 X-10.53 Y11.2 Z2.66 F3000.0 E353.678
G1 X-10.14 Y10.13 Z2.66 F3000.0 E353.722
G1 X6.14 Y10.13 Z2.66 F3000.0 E354.359
G1 X10.43 Y12.0 Z2.66 F3000.0 E354.542
G1 X10.18 Y12.4 Z2.66 F3000.0 E354.561
G1 X-10.15 Y12.4 Z2.66 F3000.0 E355.356
G1 F1200.0
G1 E354.356
G1 F3000.0
M103
G1 X10.51 Y-0.4 Z2.66 F5400.0
G1 F1200.0
G1 E355.356
G1 F5400.0
M101
G1 X10.51 Y3.6 Z2.66 F3000.0 E355.513
G1 X6.14 Y1.87 Z2.66 F3000.0 E355.697
G1 X5.86 Y1.87 Z2.66 F3000.0 E355.708
G1 X2.14 Y-1.87 Z2.66 F3000.0 E355.914
G1 X1.86 Y-1.87 Z2.66 F3000.0 E355.925
G1 X-1.86 Y1.87 Z2.66 F3000.0 E356.132
G1 X-2.14 Y1.87 Z2.66 F3000.0 E356.143
G1 X-5.86 Y-1.87 Z2.66 F3000.0 E356.349
G1 X-6.14 Y-1.87 Z2.66 F3000.0 E356.36
G1 X-9.86 Y1.87 Z2.66 F3000.0 E356.567
G1 X-10.14 Y1.87 Z2.66 F3000.0 E356.578
G1 X-10.52 Y1.6 Z2.66 F3000.0 E356.596
G1 X-10.51 Y-6.0 Z2.66 F3000.0 E356.893
G1 X-10.14 Y-5.87 Z2.66 F3000.0 E356.909
G1 X-9.86 Y-5.87 Z2.66 F3000.0 E356.92
G1 X-6.14 Y-2.13 Z2.66 F3000.0 E357.126
G1 X-5.86 Y-2.13 Z2.66 F3000.0 E357.137
G1 X-2.14 Y-5.87 Z2.66 F3000.0 E357.344
G1 X-1.86 Y-5.87 Z2.66 F3000.0 E357.355
G1 X1.86 Y-2.13 Z2.66 F3000.0 E357.562
G1 X2.14 Y-2.13 Z2.66 F3000.0 E357.573
G1 X5.86 Y-5.87 Z2.66 F3000.0 E357.779
G1 X6.14 Y-5.87 Z2.66 F3000.0 E357.79
G1 X10.5 Y-4.4 Z2.66 F3000.0 E357.97
G1 X10.51 Y-0.8 Z2.66 F3000.0 E358.111
G1 F1200.0
G1 E357.111
G1 F3000.0
M103
(</infill>)
(</nestedRing>)
(</rotation>)
(</layer>)
(<layer> 2.86 )
(<rotation> (6.12323399574e-17+1j) )
(<nestedRing>)
(<boundaryPerimeter>)
(<boundaryPoint> X-10.054 Y13.596 Z2.86 </boundaryPoint>)
(<boundaryPoint> X-10.371 Y13.443 Z2.86 </boundaryPoint>)
(<boundaryPoint> X-10.687 Y13.218 Z2.86 </boundaryPoint>)
(<boundaryPoint> X-10.956 Y12.956 Z2.86 </boundaryPoint>)
(<boundaryPoint> X-11.162 Y12.657 Z2.86 </boundaryPoint>)
(<boundaryPoint> X-11.324 Y12.339 Z2.86 </boundaryPoint>)
(<boundaryPoint> X-11.423 Y11.999 Z2.86 </boundaryPoint>)
(<boundaryPoint> X-11.473 Y11.654 Z2.86 </boundaryPoint>)
(<boundaryPoint> X-11.454 Y-12.901 Z2.86 </boundaryPoint>)
(<boundaryPoint> X-11.387 Y-13.117 Z2.86 </boundaryPoint>)
(<boundaryPoint> X-11.277 Y-13.316 Z2.86 </boundaryPoint>)
(<boundaryPoint> X-11.124 Y-13.491 Z2.86 </boundaryPoint>)
(<boundaryPoint> X-10.938 Y-13.634 Z2.86 </boundaryPoint>)
(<boundaryPoint> X-10.726 Y-13.74 Z2.86 </boundaryPoint>)
(<boundaryPoint> X-10.491 Y-13.806 Z2.86 </boundaryPoint>)
(<boundaryPoint> X10.491 Y-13.806 Z2.86 </boundaryPoint>)
(<boundaryPoint> X10.726 Y-13.74 Z2.86 </boundaryPoint>)
(<boundaryPoint> X10.938 Y-13.634 Z2.86 </boundaryPoint>)
(<boundaryPoint> X11.124 Y-13.491 Z2.86 </boundaryPoint>)
(<boundaryPoint> X11.277 Y-13.316 Z2.86 </boundaryPoint>)
(<boundaryPoint> X11.387 Y-13.117 Z2.86 </boundaryPoint>)
(<boundaryPoint> X11.454 Y-12.901 Z2.86 </boundaryPoint>)
(<boundaryPoint> X11.478 Y11.581 Z2.86 </boundaryPoint>)
(<boundaryPoint> X11.423 Y11.999 Z2.86 </boundaryPoint>)
(<boundaryPoint> X11.324 Y12.339 Z2.86 </boundaryPoint>)
(<boundaryPoint> X11.162 Y12.657 Z2.86 </boundaryPoint>)
(<boundaryPoint> X10.956 Y12.956 Z2.86 </boundaryPoint>)
(<boundaryPoint> X10.687 Y13.218 Z2.86 </boundaryPoint>)
(<boundaryPoint> X10.371 Y13.443 Z2.86 </boundaryPoint>)
(<boundaryPoint> X9.998 Y13.618 Z2.86 </boundaryPoint>)
(<boundaryPoint> X9.548 Y13.725 Z2.86 </boundaryPoint>)
(<boundaryPoint> X-9.548 Y13.725 Z2.86 </boundaryPoint>)
(<loop> outer )
G1 X-10.81 Y-12.91 Z2.86 F5400.0
G1 F1200.0
G1 E358.111
G1 F5400.0
M101
G1 X-10.71 Y-13.05 Z2.86 F3000.0 E358.118
G1 X-10.51 Y-13.18 Z2.86 F3000.0 E358.127
G1 X10.41 Y-13.21 Z2.86 F3000.0 E358.945
G1 X10.62 Y-13.12 Z2.86 F3000.0 E358.954
G1 X10.78 Y-12.97 Z2.86 F3000.0 E358.963
G1 X10.85 Y-12.81 Z2.86 F3000.0 E358.97
G1 X10.83 Y11.88 Z2.86 F3000.0 E359.936
G1 X10.76 Y12.12 Z2.86 F3000.0 E359.946
G1 X10.49 Y12.57 Z2.86 F3000.0 E359.966
G1 X10.07 Y12.92 Z2.86 F3000.0 E359.988
G1 X9.8 Y13.05 Z2.86 F3000.0 E360.0
G1 X9.48 Y13.13 Z2.86 F3000.0 E360.012
G1 X-9.47 Y13.13 Z2.86 F3000.0 E360.754
G1 X-9.85 Y13.03 Z2.86 F3000.0 E360.769
G1 X-10.06 Y12.93 Z2.86 F3000.0 E360.778
G1 X-10.49 Y12.57 Z2.86 F3000.0 E360.8
G1 X-10.76 Y12.12 Z2.86 F3000.0 E360.821
G1 X-10.87 Y11.61 Z2.86 F3000.0 E360.841
G1 X-10.83 Y-12.88 Z2.86 F3000.0 E361.8
G1 X-10.81 Y-12.91 Z2.86 F3000.0 E361.801
G1 F1200.0
G1 E361.801
G1 F3000.0
M103
(</loop>)
(<edge> outer )
;M108 R25.0
G1 X-11.1 Y-13.22 Z2.86 F5400.0
G1 F1200.0
G1 E361.801
G1 F5400.0
M101
G1 X-10.99 Y-13.34 Z2.86 F1500.0 E361.808
G1 X-10.83 Y-13.46 Z2.86 F1500.0 E361.815
G1 X-10.65 Y-13.55 Z2.86 F1500.0 E361.823
G1 X-10.46 Y-13.61 Z2.86 F1500.0 E361.831
G1 X10.46 Y-13.61 Z2.86 F1500.0 E362.65
G1 X10.65 Y-13.55 Z2.86 F1500.0 E362.657
G1 X10.83 Y-13.46 Z2.86 F1500.0 E362.665
G1 X10.99 Y-13.34 Z2.86 F1500.0 E362.673
G1 X11.11 Y-13.2 Z2.86 F1500.0 E362.68
G1 X11.2 Y-13.04 Z2.86 F1500.0 E362.688
G1 X11.25 Y-12.87 Z2.86 F1500.0 E362.694
G1 X11.28 Y11.57 Z2.86 F1500.0 E363.651
G1 X11.23 Y11.96 Z2.86 F1500.0 E363.666
G1 X11.14 Y12.27 Z2.86 F1500.0 E363.679
G1 X10.99 Y12.55 Z2.86 F1500.0 E363.691
G1 X10.8 Y12.83 Z2.86 F1500.0 E363.704
G1 X10.56 Y13.06 Z2.86 F1500.0 E363.718
G1 X10.27 Y13.27 Z2.86 F1500.0 E363.731
G1 X9.93 Y13.43 Z2.86 F1500.0 E363.746
G1 X9.53 Y13.53 Z2.86 F1500.0 E363.762
G1 X-9.52 Y13.53 Z2.86 F1500.0 E364.508
G1 X-9.98 Y13.41 Z2.86 F1500.0 E364.526
G1 X-10.27 Y13.27 Z2.86 F1500.0 E364.539
G1 X-10.56 Y13.06 Z2.86 F1500.0 E364.553
G1 X-10.8 Y12.83 Z2.86 F1500.0 E364.566
G1 X-10.99 Y12.55 Z2.86 F1500.0 E364.579
G1 X-11.14 Y12.27 Z2.86 F1500.0 E364.592
G1 X-11.23 Y11.96 Z2.86 F1500.0 E364.604
G1 X-11.27 Y11.64 Z2.86 F1500.0 E364.617
G1 X-11.25 Y-12.87 Z2.86 F1500.0 E365.576
G1 X-11.2 Y-13.04 Z2.86 F1500.0 E365.583
G1 X-11.11 Y-13.2 Z2.86 F1500.0 E365.59
G1 X-11.1 Y-13.22 Z2.86 F1500.0 E365.591
G1 F1200.0
G1 E364.591
G1 F1500.0
M103
(</edge>)
(</boundaryPerimeter>)
(<infill>)
(<infillBoundary>)
(<infillPoint> X-9.847 Y13.029 Z1.7 </infillPoint>)
(<infillPoint> X-10.064 Y12.925 Z1.7 </infillPoint>)
(<infillPoint> X-10.495 Y12.567 Z1.7 </infillPoint>)
(<infillPoint> X-10.764 Y12.117 Z1.7 </infillPoint>)
(<infillPoint> X-10.873 Y11.611 Z1.7 </infillPoint>)
(<infillPoint> X-10.832 Y-12.881 Z1.7 </infillPoint>)
(<infillPoint> X-10.711 Y-13.051 Z1.7 </infillPoint>)
(<infillPoint> X-10.509 Y-13.178 Z1.7 </infillPoint>)
(<infillPoint> X10.408 Y-13.206 Z1.7 </infillPoint>)
(<infillPoint> X10.618 Y-13.123 Z1.7 </infillPoint>)
(<infillPoint> X10.783 Y-12.969 Z1.7 </infillPoint>)
(<infillPoint> X10.854 Y-12.81 Z1.7 </infillPoint>)
(<infillPoint> X10.834 Y11.875 Z1.7 </infillPoint>)
(<infillPoint> X10.764 Y12.117 Z1.7 </infillPoint>)
(<infillPoint> X10.495 Y12.567 Z1.7 </infillPoint>)
(<infillPoint> X10.067 Y12.923 Z1.7 </infillPoint>)
(<infillPoint> X9.799 Y13.049 Z1.7 </infillPoint>)
(<infillPoint> X9.478 Y13.125 Z1.7 </infillPoint>)
(<infillPoint> X-9.473 Y13.125 Z1.7 </infillPoint>)
(</infillBoundary>)
;M108 R50.0
G1 X7.2 Y-12.92 Z2.86 F5400.0
G1 F1200.0
G1 E365.591
G1 F5400.0
M101
G1 X4.0 Y-12.92 Z2.86 F3000.0 E365.716
G1 X2.13 Y-10.14 Z2.86 F3000.0 E365.847
G1 X2.13 Y-9.86 Z2.86 F3000.0 E365.858
G1 X5.87 Y-6.14 Z2.86 F3000.0 E366.065
G1 X5.87 Y-5.86 Z2.86 F3000.0 E366.076
G1 X2.13 Y-2.14 Z2.86 F3000.0 E366.282
G1 X2.13 Y-1.86 Z2.86 F3000.0 E366.293
G1 X5.87 Y1.86 Z2.86 F3000.0 E366.5
G1 X5.87 Y2.14 Z2.86 F3000.0 E366.511
G1 X2.13 Y5.86 Z2.86 F3000.0 E366.718
G1 X2.13 Y6.14 Z2.86 F3000.0 E366.728
G1 X5.87 Y9.86 Z2.86 F3000.0 E366.935
G1 X5.87 Y10.14 Z2.86 F3000.0 E366.946
G1 X7.2 Y12.85 Z2.86 F3000.0 E367.064
G1 X-0.4 Y12.85 Z2.86 F3000.0 E367.361
G1 X-1.87 Y10.14 Z2.86 F3000.0 E367.482
G1 X-1.87 Y9.86 Z2.86 F3000.0 E367.493
G1 X1.87 Y6.14 Z2.86 F3000.0 E367.699
G1 X1.87 Y5.86 Z2.86 F3000.0 E367.71
G1 X-1.87 Y2.14 Z2.86 F3000.0 E367.917
G1 X-1.87 Y1.86 Z2.86 F3000.0 E367.928
G1 X1.87 Y-1.86 Z2.86 F3000.0 E368.135
G1 X1.87 Y-2.14 Z2.86 F3000.0 E368.146
G1 X-1.87 Y-5.86 Z2.86 F3000.0 E368.352
G1 X-1.87 Y-6.14 Z2.86 F3000.0 E368.363
G1 X1.87 Y-9.86 Z2.86 F3000.0 E368.57
G1 X1.87 Y-10.14 Z2.86 F3000.0 E368.581
G1 X3.6 Y-12.92 Z2.86 F3000.0 E368.709
G1 X-4.4 Y-12.91 Z2.86 F3000.0 E369.022
G1 X-5.87 Y-10.14 Z2.86 F3000.0 E369.144
G1 X-5.87 Y-9.86 Z2.86 F3000.0 E369.155
G1 X-2.13 Y-6.14 Z2.86 F3000.0 E369.362
G1 X-2.13 Y-5.86 Z2.86 F3000.0 E369.373
G1 X-5.87 Y-2.14 Z2.86 F3000.0 E369.58
G1 X-5.87 Y-1.86 Z2.86 F3000.0 E369.591
G1 X-2.13 Y1.86 Z2.86 F3000.0 E369.797
G1 X-2.13 Y2.14 Z2.86 F3000.0 E369.808
G1 X-5.87 Y5.86 Z2.86 F3000.0 E370.015
G1 X-5.87 Y6.14 Z2.86 F3000.0 E370.026
G1 X-2.13 Y9.86 Z2.86 F3000.0 E370.232
G1 X-2.13 Y10.14 Z2.86 F3000.0 E370.243
G1 X-0.8 Y12.85 Z2.86 F3000.0 E370.361
G1 X-8.4 Y12.85 Z2.86 F3000.0 E370.659
G1 X-9.87 Y10.14 Z2.86 F3000.0 E370.779
G1 X-9.87 Y9.86 Z2.86 F3000.0 E370.79
G1 X-6.13 Y6.14 Z2.86 F3000.0 E370.997
G1 X-6.13 Y5.86 Z2.86 F3000.0 E371.008
G1 X-9.87 Y2.14 Z2.86 F3000.0 E371.214
G1 X-9.87 Y1.86 Z2.86 F3000.0 E371.225
G1 X-6.13 Y-1.86 Z2.86 F3000.0 E371.432
G1 X-6.13 Y-2.14 Z2.86 F3000.0 E371.443
G1 X-9.87 Y-5.86 Z2.86 F3000.0 E371.649
G1 X-9.87 Y-6.14 Z2.86 F3000.0 E371.66
G1 X-6.13 Y-9.86 Z2.86 F3000.0 E371.867
G1 X-6.13 Y-10.14 Z2.86 F3000.0 E371.878
G1 X-4.8 Y-12.9 Z2.86 F3000.0 E371.998
G1 X-10.4 Y-12.9 Z2.86 F3000.0 E372.217
G1 X-10.13 Y-6.14 Z2.86 F3000.0 E372.482
G1 X-10.13 Y10.14 Z2.86 F3000.0 E373.119
G1 X-10.4 Y12.18 Z2.86 F3000.0 E373.199
G1 X-10.0 Y12.61 Z2.86 F3000.0 E373.222
G1 X-9.6 Y12.8 Z2.86 F3000.0 E373.24
G1 X-8.8 Y12.85 Z2.86 F3000.0 E373.271
G1 F1200.0
G1 E372.271
G1 F3000.0
M103
G1 X10.0 Y-12.93 Z2.86 F5400.0
G1 F1200.0
G1 E373.271
G1 F5400.0
M101
G1 X7.6 Y-12.92 Z2.86 F3000.0 E373.365
G1 X6.13 Y-6.14 Z2.86 F3000.0 E373.637
G1 X6.13 Y10.14 Z2.86 F3000.0 E374.274
G1 X7.6 Y12.85 Z2.86 F3000.0 E374.394
G1 X9.6 Y12.81 Z2.86 F3000.0 E374.472
G1 X10.0 Y12.62 Z2.86 F3000.0 E374.49
G1 X10.4 Y12.18 Z2.86 F3000.0 E374.513
G1 X10.4 Y-12.91 Z2.86 F3000.0 E375.495
G1 F1200.0
G1 E374.495
G1 F3000.0
M103
(</infill>)
(</nestedRing>)
(</rotation>)
(</layer>)
(<layer> 3.06 )
(<rotation> (-1+1.22464679915e-16j) )
(<nestedRing>)
(<boundaryPerimeter>)
(<boundaryPoint> X-10.163 Y13.6 Z3.06 </boundaryPoint>)
(<boundaryPoint> X-10.507 Y13.411 Z3.06 </boundaryPoint>)
(<boundaryPoint> X-10.804 Y13.177 Z3.06 </boundaryPoint>)
(<boundaryPoint> X-11.051 Y12.904 Z3.06 </boundaryPoint>)
(<boundaryPoint> X-11.248 Y12.6 Z3.06 </boundaryPoint>)
(<boundaryPoint> X-11.392 Y12.273 Z3.06 </boundaryPoint>)
(<boundaryPoint> X-11.485 Y11.93 Z3.06 </boundaryPoint>)
(<boundaryPoint> X-11.498 Y-12.901 Z3.06 </boundaryPoint>)
(<boundaryPoint> X-11.431 Y-13.117 Z3.06 </boundaryPoint>)
(<boundaryPoint> X-11.322 Y-13.316 Z3.06 </boundaryPoint>)
(<boundaryPoint> X-11.176 Y-13.491 Z3.06 </boundaryPoint>)
(<boundaryPoint> X-10.997 Y-13.634 Z3.06 </boundaryPoint>)
(<boundaryPoint> X-10.794 Y-13.74 Z3.06 </boundaryPoint>)
(<boundaryPoint> X-10.571 Y-13.806 Z3.06 </boundaryPoint>)
(<boundaryPoint> X10.571 Y-13.806 Z3.06 </boundaryPoint>)
(<boundaryPoint> X10.794 Y-13.74 Z3.06 </boundaryPoint>)
(<boundaryPoint> X10.997 Y-13.634 Z3.06 </boundaryPoint>)
(<boundaryPoint> X11.176 Y-13.491 Z3.06 </boundaryPoint>)
(<boundaryPoint> X11.322 Y-13.316 Z3.06 </boundaryPoint>)
(<boundaryPoint> X11.431 Y-13.117 Z3.06 </boundaryPoint>)
(<boundaryPoint> X11.498 Y-12.901 Z3.06 </boundaryPoint>)
(<boundaryPoint> X11.485 Y11.93 Z3.06 </boundaryPoint>)
(<boundaryPoint> X11.392 Y12.273 Z3.06 </boundaryPoint>)
(<boundaryPoint> X11.248 Y12.6 Z3.06 </boundaryPoint>)
(<boundaryPoint> X11.051 Y12.904 Z3.06 </boundaryPoint>)
(<boundaryPoint> X10.804 Y13.177 Z3.06 </boundaryPoint>)
(<boundaryPoint> X10.507 Y13.411 Z3.06 </boundaryPoint>)
(<boundaryPoint> X10.163 Y13.6 Z3.06 </boundaryPoint>)
(<boundaryPoint> X9.763 Y13.733 Z3.06 </boundaryPoint>)
(<boundaryPoint> X9.499 Y13.773 Z3.06 </boundaryPoint>)
(<boundaryPoint> X-9.499 Y13.773 Z3.06 </boundaryPoint>)
(<boundaryPoint> X-9.763 Y13.733 Z3.06 </boundaryPoint>)
(<loop> outer )
G1 X-10.9 Y-12.52 Z3.06 F5400.0
G1 F1200.0
G1 E375.495
G1 F5400.0
M101
G1 X-10.9 Y-12.81 Z3.06 F3000.0 E375.506
G1 X-10.82 Y-12.98 Z3.06 F3000.0 E375.513
G1 X-10.67 Y-13.13 Z3.06 F3000.0 E375.522
G1 X-10.48 Y-13.21 Z3.06 F3000.0 E375.529
G1 X10.57 Y-13.18 Z3.06 F3000.0 E376.353
G1 X10.75 Y-13.06 Z3.06 F3000.0 E376.362
G1 X10.88 Y-12.88 Z3.06 F3000.0 E376.37
G1 X10.88 Y11.85 Z3.06 F3000.0 E377.338
G1 X10.72 Y12.31 Z3.06 F3000.0 E377.357
G1 X10.39 Y12.74 Z3.06 F3000.0 E377.378
G1 X9.92 Y13.05 Z3.06 F3000.0 E377.4
G1 X9.45 Y13.17 Z3.06 F3000.0 E377.419
G1 X-9.62 Y13.15 Z3.06 F3000.0 E378.166
G1 X-9.92 Y13.05 Z3.06 F3000.0 E378.178
G1 X-10.39 Y12.74 Z3.06 F3000.0 E378.2
G1 X-10.72 Y12.31 Z3.06 F3000.0 E378.221
G1 X-10.88 Y11.85 Z3.06 F3000.0 E378.24
G1 X-10.9 Y-12.52 Z3.06 F3000.0 E379.194
G1 F1200.0
G1 E379.194
G1 F3000.0
M103
M73 P5 (display progress)
(</loop>)
(<edge> outer )
;M108 R25.0
G1 X-11.3 Y-12.76 Z3.06 F5400.0
G1 F1200.0
G1 E379.194
G1 F5400.0
M101
G1 X-11.3 Y-12.87 Z3.06 F1500.0 E379.198
G1 X-11.25 Y-13.04 Z3.06 F1500.0 E379.205
G1 X-11.16 Y-13.2 Z3.06 F1500.0 E379.212
G1 X-11.04 Y-13.35 Z3.06 F1500.0 E379.22
G1 X-10.89 Y-13.47 Z3.06 F1500.0 E379.227
G1 X-10.72 Y-13.55 Z3.06 F1500.0 E379.235
G1 X-10.54 Y-13.61 Z3.06 F1500.0 E379.242
G1 X10.54 Y-13.61 Z3.06 F1500.0 E380.067
G1 X10.72 Y-13.55 Z3.06 F1500.0 E380.074
G1 X10.89 Y-13.47 Z3.06 F1500.0 E380.082
G1 X11.04 Y-13.35 Z3.06 F1500.0 E380.089
G1 X11.16 Y-13.2 Z3.06 F1500.0 E380.096
G1 X11.25 Y-13.04 Z3.06 F1500.0 E380.104
G1 X11.3 Y-12.87 Z3.06 F1500.0 E380.111
G1 X11.29 Y11.9 Z3.06 F1500.0 E381.08
G1 X11.2 Y12.21 Z3.06 F1500.0 E381.092
G1 X11.07 Y12.51 Z3.06 F1500.0 E381.105
G1 X10.89 Y12.78 Z3.06 F1500.0 E381.118
G1 X10.67 Y13.03 Z3.06 F1500.0 E381.131
G1 X10.4 Y13.24 Z3.06 F1500.0 E381.144
G1 X10.08 Y13.42 Z3.06 F1500.0 E381.158
G1 X9.72 Y13.54 Z3.06 F1500.0 E381.174
G1 X9.48 Y13.57 Z3.06 F1500.0 E381.183
G1 X-9.48 Y13.57 Z3.06 F1500.0 E381.925
G1 X-9.72 Y13.54 Z3.06 F1500.0 E381.934
G1 X-10.08 Y13.42 Z3.06 F1500.0 E381.949
G1 X-10.4 Y13.24 Z3.06 F1500.0 E381.963
G1 X-10.67 Y13.03 Z3.06 F1500.0 E381.977
G1 X-10.89 Y12.78 Z3.06 F1500.0 E381.99
G1 X-11.07 Y12.51 Z3.06 F1500.0 E382.003
G1 X-11.2 Y12.21 Z3.06 F1500.0 E382.016
G1 X-11.29 Y11.9 Z3.06 F1500.0 E382.028
G1 X-11.3 Y-12.76 Z3.06 F1500.0 E382.993
G1 F1200.0
G1 E382.993
G1 F1500.0
M103
(</edge>)
(</boundaryPerimeter>)
(<infill>)
(<infillBoundary>)
(<infillPoint> X-9.922 Y13.048 Z1.9 </infillPoint>)
(<infillPoint> X-10.393 Y12.737 Z1.9 </infillPoint>)
(<infillPoint> X-10.718 Y12.314 Z1.9 </infillPoint>)
(<infillPoint> X-10.885 Y11.85 Z1.9 </infillPoint>)
(<infillPoint> X-10.898 Y-12.81 Z1.9 </infillPoint>)
(<infillPoint> X-10.824 Y-12.977 Z1.9 </infillPoint>)
(<infillPoint> X-10.668 Y-13.129 Z1.9 </infillPoint>)
(<infillPoint> X-10.484 Y-13.206 Z1.9 </infillPoint>)
(<infillPoint> X10.568 Y-13.181 Z1.9 </infillPoint>)
(<infillPoint> X10.754 Y-13.06 Z1.9 </infillPoint>)
(<infillPoint> X10.876 Y-12.882 Z1.9 </infillPoint>)
(<infillPoint> X10.885 Y11.85 Z1.9 </infillPoint>)
(<infillPoint> X10.718 Y12.314 Z1.9 </infillPoint>)
(<infillPoint> X10.393 Y12.737 Z1.9 </infillPoint>)
(<infillPoint> X9.922 Y13.048 Z1.9 </infillPoint>)
(<infillPoint> X9.454 Y13.173 Z1.9 </infillPoint>)
(<infillPoint> X-9.622 Y13.147 Z1.9 </infillPoint>)
(</infillBoundary>)
;M108 R50.0
G1 X-10.62 Y-12.4 Z3.06 F5400.0
G1 F1200.0
G1 E382.993
G1 F5400.0
M101
G1 X-10.62 Y-8.8 Z3.06 F3000.0 E383.134
G1 X-6.14 Y-10.13 Z3.06 F3000.0 E383.316
G1 X2.14 Y-10.13 Z3.06 F3000.0 E383.64
G1 X10.6 Y-8.8 Z3.06 F3000.0 E383.975
G1 X10.59 Y-12.8 Z3.06 F3000.0 E384.132
G1 X-10.6 Y-12.8 Z3.06 F3000.0 E384.961
G1 F1200.0
G1 E383.961
G1 F3000.0
M103
G1 X10.6 Y-8.4 Z3.06 F5400.0
G1 F1200.0
G1 E384.961
G1 F5400.0
M101
G1 X10.6 Y-4.8 Z3.06 F3000.0 E385.102
G1 X6.14 Y-6.13 Z3.06 F3000.0 E385.284
G1 X5.86 Y-6.13 Z3.06 F3000.0 E385.295
G1 X2.14 Y-9.87 Z3.06 F3000.0 E385.502
G1 X1.86 Y-9.87 Z3.06 F3000.0 E385.513
G1 X-1.86 Y-6.13 Z3.06 F3000.0 E385.719
G1 X-2.14 Y-6.13 Z3.06 F3000.0 E385.73
G1 X-5.86 Y-9.87 Z3.06 F3000.0 E385.937
G1 X-6.14 Y-9.87 Z3.06 F3000.0 E385.948
G1 X-9.86 Y-6.13 Z3.06 F3000.0 E386.154
G1 X-10.14 Y-6.13 Z3.06 F3000.0 E386.165
G1 X-10.61 Y-5.2 Z3.06 F3000.0 E386.206
G1 X-10.62 Y-8.4 Z3.06 F3000.0 E386.331
G1 F1200.0
G1 E385.331
G1 F3000.0
M103
G1 X-10.61 Y7.2 Z3.06 F5400.0
G1 F1200.0
G1 E386.331
G1 F5400.0
M101
G1 X-10.61 Y3.6 Z3.06 F3000.0 E386.472
G1 X-10.14 Y2.13 Z3.06 F3000.0 E386.533
G1 X-9.86 Y2.13 Z3.06 F3000.0 E386.544
G1 X-6.14 Y5.87 Z3.06 F3000.0 E386.75
G1 X-5.86 Y5.87 Z3.06 F3000.0 E386.761
G1 X-2.14 Y2.13 Z3.06 F3000.0 E386.968
G1 X-1.86 Y2.13 Z3.06 F3000.0 E386.979
G1 X1.86 Y5.87 Z3.06 F3000.0 E387.185
G1 X2.14 Y5.87 Z3.06 F3000.0 E387.196
G1 X5.86 Y2.13 Z3.06 F3000.0 E387.403
G1 X6.14 Y2.13 Z3.06 F3000.0 E387.414
G1 X10.6 Y4.0 Z3.06 F3000.0 E387.603
G1 X10.61 Y11.6 Z3.06 F3000.0 E387.901
G1 X6.14 Y9.87 Z3.06 F3000.0 E388.088
G1 X5.86 Y9.87 Z3.06 F3000.0 E388.099
G1 X2.14 Y6.13 Z3.06 F3000.0 E388.306
G1 X1.86 Y6.13 Z3.06 F3000.0 E388.317
G1 X-1.86 Y9.87 Z3.06 F3000.0 E388.523
G1 X-2.14 Y9.87 Z3.06 F3000.0 E388.534
G1 X-5.86 Y6.13 Z3.06 F3000.0 E388.741
G1 X-6.14 Y6.13 Z3.06 F3000.0 E388.752
G1 X-9.86 Y9.87 Z3.06 F3000.0 E388.958
G1 X-10.14 Y9.87 Z3.06 F3000.0 E388.969
G1 X-10.61 Y10.4 Z3.06 F3000.0 E388.997
G1 X-10.61 Y7.6 Z3.06 F3000.0 E389.106
G1 F1200.0
G1 E388.106
G1 F3000.0
M103
G1 X-10.3 Y12.4 Z3.06 F5400.0
G1 F1200.0
G1 E389.106
G1 F5400.0
M101
G1 X-10.53 Y12.0 Z3.06 F3000.0 E389.125
G1 X-10.61 Y11.6 Z3.06 F3000.0 E389.14
G1 X-10.61 Y11.2 Z3.06 F3000.0 E389.156
G1 X-10.14 Y10.13 Z3.06 F3000.0 E389.202
G1 X6.14 Y10.13 Z3.06 F3000.0 E389.839
G1 X10.53 Y12.0 Z3.06 F3000.0 E390.026
G1 X10.3 Y12.4 Z3.06 F3000.0 E390.044
G1 X9.77 Y12.8 Z3.06 F3000.0 E390.07
G1 X-9.78 Y12.8 Z3.06 F3000.0 E390.835
G1 F1200.0
G1 E389.835
G1 F3000.0
M103
G1 X10.6 Y-0.4 Z3.06 F5400.0
G1 F1200.0
G1 E390.835
G1 F5400.0
M101
G1 X10.6 Y3.6 Z3.06 F3000.0 E390.991
G1 X6.14 Y1.87 Z3.06 F3000.0 E391.179
G1 X5.86 Y1.87 Z3.06 F3000.0 E391.19
G1 X2.14 Y-1.87 Z3.06 F3000.0 E391.396
G1 X1.86 Y-1.87 Z3.06 F3000.0 E391.407
G1 X-1.86 Y1.87 Z3.06 F3000.0 E391.614
G1 X-2.14 Y1.87 Z3.06 F3000.0 E391.625
G1 X-5.86 Y-1.87 Z3.06 F3000.0 E391.831
G1 X-6.14 Y-1.87 Z3.06 F3000.0 E391.842
G1 X-9.86 Y1.87 Z3.06 F3000.0 E392.049
G1 X-10.14 Y1.87 Z3.06 F3000.0 E392.06
G1 X-10.61 Y2.8 Z3.06 F3000.0 E392.101
G1 X-10.61 Y-4.4 Z3.06 F3000.0 E392.382
G1 X-10.14 Y-5.87 Z3.06 F3000.0 E392.443
G1 X-9.86 Y-5.87 Z3.06 F3000.0 E392.454
G1 X-6.14 Y-2.13 Z3.06 F3000.0 E392.66
G1 X-5.86 Y-2.13 Z3.06 F3000.0 E392.671
G1 X-2.14 Y-5.87 Z3.06 F3000.0 E392.878
G1 X-1.86 Y-5.87 Z3.06 F3000.0 E392.889
G1 X1.86 Y-2.13 Z3.06 F3000.0 E393.096
G1 X2.14 Y-2.13 Z3.06 F3000.0 E393.107
G1 X5.86 Y-5.87 Z3.06 F3000.0 E393.313
